ncols   150
nrows   200
xllcorner      445700.000
yllcorner     3916450.000
cellsize          40.000
NODATA_value -9999
 -9.999E+003 -9.999E+003 -9.999E+003 -9.999E+003 -9.999E+003 -9.999E+003 -9.999E+003 -9.999E+003 -9.999E+003 -9.999E+003 -9.999E+003 -9.999E+003 -9.999E+003 -9.999E+003 -9.999E+003 -9.999E+003 -9.999E+003 -9.999E+003 -9.999E+003 -9.999E+003 -9.999E+003 -9.999E+003 -9.999E+003 -9.999E+003 -9.999E+003 -9.999E+003 -9.999E+003 -9.999E+003 -9.999E+003 -9.999E+003 -9.999E+003 -9.999E+003 -9.999E+003 -9.999E+003 -9.999E+003 -9.999E+003 -9.999E+003 -9.999E+003 -9.999E+003 -9.999E+003 -9.999E+003 -9.999E+003 -9.999E+003 -9.999E+003 -9.999E+003 -9.999E+003 -9.999E+003 -9.999E+003 -9.999E+003 -9.999E+003 -9.999E+003 -9.999E+003 -9.999E+003 -9.999E+003 -9.999E+003 -9.999E+003 -9.999E+003 -9.999E+003 -9.999E+003 -9.999E+003 -9.999E+003 -9.999E+003 -9.999E+003 -9.999E+003 -9.999E+003 -9.999E+003 -9.999E+003 -9.999E+003 -9.999E+003 -9.999E+003 -9.999E+003 -9.999E+003 -9.999E+003 -9.999E+003 -9.999E+003 -9.999E+003 -9.999E+003 -9.999E+003 -9.999E+003 -9.999E+003 -9.999E+003 -9.999E+003 -9.999E+003 -9.999E+003 -9.999E+003 -9.999E+003 -9.999E+003 -9.999E+003 -9.999E+003 -9.999E+003 -9.999E+003 -9.999E+003 -9.999E+003 -9.999E+003 -9.999E+003 -9.999E+003 -9.999E+003 -9.999E+003 -9.999E+003 -9.999E+003 -9.999E+003 -9.999E+003 -9.999E+003 -9.999E+003 -9.999E+003 -9.999E+003 -9.999E+003 -9.999E+003 -9.999E+003 -9.999E+003 -9.999E+003 -9.999E+003 -9.999E+003 -9.999E+003 -9.999E+003 -9.999E+003 -9.999E+003 -9.999E+003 -9.999E+003 -9.999E+003 -9.999E+003 -9.999E+003 -9.999E+003 -9.999E+003 -9.999E+003 -9.999E+003 -9.999E+003 -9.999E+003 -9.999E+003 -9.999E+003 -9.999E+003 -9.999E+003 -9.999E+003 -9.999E+003 -9.999E+003 -9.999E+003 -9.999E+003 -9.999E+003 -9.999E+003 -9.999E+003 -9.999E+003 -9.999E+003 -9.999E+003 -9.999E+003 -9.999E+003 -9.999E+003 -9.999E+003 -9.999E+003 -9.999E+003 -9.999E+003
 -9.999E+003 -9.999E+003 -9.999E+003 -9.999E+003 -9.999E+003 -9.999E+003 -9.999E+003 -9.999E+003 -9.999E+003 -9.999E+003 -9.999E+003 -9.999E+003 -9.999E+003 -9.999E+003 -9.999E+003 -9.999E+003 -9.999E+003 -9.999E+003 -9.999E+003 -9.999E+003 -9.999E+003 -9.999E+003 -9.999E+003 -9.999E+003 -9.999E+003 -9.999E+003 -9.999E+003 -9.999E+003 -9.999E+003 -9.999E+003 -9.999E+003 -9.999E+003 -9.999E+003 -9.999E+003 -9.999E+003 -9.999E+003 -9.999E+003 -9.999E+003 -9.999E+003 -9.999E+003 -9.999E+003 -9.999E+003 -9.999E+003 -9.999E+003 -9.999E+003 -9.999E+003 -9.999E+003 -9.999E+003 -9.999E+003 -9.999E+003 -9.999E+003 -9.999E+003 -9.999E+003 -9.999E+003 -9.999E+003 -9.999E+003 -9.999E+003 -9.999E+003 -9.999E+003 -9.999E+003 -9.999E+003 -9.999E+003 -9.999E+003 -9.999E+003 -9.999E+003 -9.999E+003 -9.999E+003 -9.999E+003 -9.999E+003 -9.999E+003 -9.999E+003 -9.999E+003 -9.999E+003 -9.999E+003 -9.999E+003 -9.999E+003 -9.999E+003 -9.999E+003 -9.999E+003 -9.999E+003 -9.999E+003 -9.999E+003 -9.999E+003 -9.999E+003 -9.999E+003 -9.999E+003 -9.999E+003 -9.999E+003 -9.999E+003 -9.999E+003 -9.999E+003 -9.999E+003 -9.999E+003 -9.999E+003 -9.999E+003 -9.999E+003 -9.999E+003 -9.999E+003 -9.999E+003 -9.999E+003 -9.999E+003 -9.999E+003 -9.999E+003 -9.999E+003 -9.999E+003 -9.999E+003 -9.999E+003 -9.999E+003 -9.999E+003 -9.999E+003 -9.999E+003 -9.999E+003 -9.999E+003 -9.999E+003 -9.999E+003 -9.999E+003 -9.999E+003 -9.999E+003 -9.999E+003 -9.999E+003 -9.999E+003 -9.999E+003 -9.999E+003 -9.999E+003 -9.999E+003 -9.999E+003 -9.999E+003 -9.999E+003 -9.999E+003 -9.999E+003 -9.999E+003 -9.999E+003 -9.999E+003 -9.999E+003 -9.999E+003 -9.999E+003 -9.999E+003 -9.999E+003 -9.999E+003 -9.999E+003 -9.999E+003 -9.999E+003 -9.999E+003 -9.999E+003 -9.999E+003 -9.999E+003 -9.999E+003 -9.999E+003 -9.999E+003 -9.999E+003
 -9.999E+003 -9.999E+003 -9.999E+003 -9.999E+003 -9.999E+003 -9.999E+003 -9.999E+003 -9.999E+003 -9.999E+003 -9.999E+003 -9.999E+003 -9.999E+003 -9.999E+003 -9.999E+003 -9.999E+003 -9.999E+003 -9.999E+003 -9.999E+003 -9.999E+003 -9.999E+003 -9.999E+003 -9.999E+003 -9.999E+003 -9.999E+003 -9.999E+003 -9.999E+003 -9.999E+003 -9.999E+003 -9.999E+003 -9.999E+003 -9.999E+003 -9.999E+003 -9.999E+003 -9.999E+003 -9.999E+003 -9.999E+003 -9.999E+003 -9.999E+003 -9.999E+003 -9.999E+003 -9.999E+003 -9.999E+003 -9.999E+003 -9.999E+003 -9.999E+003 -9.999E+003 -9.999E+003 -9.999E+003 -9.999E+003 -9.999E+003 -9.999E+003 -9.999E+003 -9.999E+003 -9.999E+003 -9.999E+003 -9.999E+003 -9.999E+003 -9.999E+003 -9.999E+003 -9.999E+003 -9.999E+003 -9.999E+003 -9.999E+003 -9.999E+003 -9.999E+003 -9.999E+003 -9.999E+003 -9.999E+003 -9.999E+003 -9.999E+003 -9.999E+003 -9.999E+003 -9.999E+003 -9.999E+003 -9.999E+003 -9.999E+003 -9.999E+003 -9.999E+003 -9.999E+003 -9.999E+003 -9.999E+003 -9.999E+003 -9.999E+003 -9.999E+003 -9.999E+003 -9.999E+003 -9.999E+003 -9.999E+003 -9.999E+003 -9.999E+003 -9.999E+003 -9.999E+003 -9.999E+003 -9.999E+003 -9.999E+003 -9.999E+003 -9.999E+003 -9.999E+003 -9.999E+003 -9.999E+003 -9.999E+003 -9.999E+003 -9.999E+003 -9.999E+003 -9.999E+003 -9.999E+003 -9.999E+003 -9.999E+003 -9.999E+003 -9.999E+003 -9.999E+003 -9.999E+003 -9.999E+003 -9.999E+003 -9.999E+003 -9.999E+003 -9.999E+003 -9.999E+003 -9.999E+003 -9.999E+003 -9.999E+003 -9.999E+003 -9.999E+003 -9.999E+003 -9.999E+003 -9.999E+003 -9.999E+003 -9.999E+003 -9.999E+003 -9.999E+003 -9.999E+003 -9.999E+003 -9.999E+003 -9.999E+003 -9.999E+003 -9.999E+003 -9.999E+003 -9.999E+003 -9.999E+003 -9.999E+003 -9.999E+003 -9.999E+003 -9.999E+003 -9.999E+003 -9.999E+003 -9.999E+003 -9.999E+003 -9.999E+003 -9.999E+003 -9.999E+003
 -9.999E+003 -9.999E+003 -9.999E+003 -9.999E+003 -9.999E+003 -9.999E+003 -9.999E+003 -9.999E+003 -9.999E+003 -9.999E+003 -9.999E+003 -9.999E+003 -9.999E+003 -9.999E+003 -9.999E+003 -9.999E+003 -9.999E+003 -9.999E+003 -9.999E+003 -9.999E+003 -9.999E+003 -9.999E+003 -9.999E+003 -9.999E+003 -9.999E+003 -9.999E+003 -9.999E+003 -9.999E+003 -9.999E+003 -9.999E+003 -9.999E+003 -9.999E+003 -9.999E+003 -9.999E+003 -9.999E+003 -9.999E+003 -9.999E+003 -9.999E+003 -9.999E+003 -9.999E+003 -9.999E+003 -9.999E+003 -9.999E+003 -9.999E+003 -9.999E+003 -9.999E+003 -9.999E+003 -9.999E+003 -9.999E+003 -9.999E+003 -9.999E+003 -9.999E+003 -9.999E+003 -9.999E+003 -9.999E+003 -9.999E+003 -9.999E+003 -9.999E+003 -9.999E+003 -9.999E+003 -9.999E+003 -9.999E+003 -9.999E+003 -9.999E+003 -9.999E+003 -9.999E+003 -9.999E+003 -9.999E+003 -9.999E+003 -9.999E+003 -9.999E+003 -9.999E+003 -9.999E+003 -9.999E+003 -9.999E+003 -9.999E+003 -9.999E+003 -9.999E+003 -9.999E+003 -9.999E+003 -9.999E+003 -9.999E+003 -9.999E+003 -9.999E+003 -9.999E+003 -9.999E+003 -9.999E+003 -9.999E+003 -9.999E+003 -9.999E+003 -9.999E+003 -9.999E+003 -9.999E+003 -9.999E+003 -9.999E+003 -9.999E+003 -9.999E+003 -9.999E+003 -9.999E+003 -9.999E+003 -9.999E+003 -9.999E+003 -9.999E+003 -9.999E+003 -9.999E+003 -9.999E+003 -9.999E+003 -9.999E+003 -9.999E+003 -9.999E+003 -9.999E+003 -9.999E+003 -9.999E+003 -9.999E+003 -9.999E+003 -9.999E+003 -9.999E+003 -9.999E+003 -9.999E+003 -9.999E+003 -9.999E+003 -9.999E+003 -9.999E+003 -9.999E+003 -9.999E+003 -9.999E+003 -9.999E+003 -9.999E+003 -9.999E+003 -9.999E+003 -9.999E+003 -9.999E+003 -9.999E+003 -9.999E+003 -9.999E+003 -9.999E+003 -9.999E+003 -9.999E+003 -9.999E+003 -9.999E+003 -9.999E+003 -9.999E+003 -9.999E+003 -9.999E+003 -9.999E+003 -9.999E+003 -9.999E+003 -9.999E+003 -9.999E+003 -9.999E+003
 -9.999E+003 -9.999E+003 -9.999E+003 -9.999E+003 -9.999E+003 -9.999E+003 -9.999E+003 -9.999E+003 -9.999E+003 -9.999E+003 -9.999E+003 -9.999E+003 -9.999E+003 -9.999E+003 -9.999E+003 -9.999E+003 -9.999E+003 -9.999E+003 -9.999E+003 -9.999E+003 -9.999E+003 -9.999E+003 -9.999E+003 -9.999E+003 -9.999E+003 -9.999E+003 -9.999E+003 -9.999E+003 -9.999E+003 -9.999E+003 -9.999E+003 -9.999E+003 -9.999E+003 -9.999E+003 -9.999E+003 -9.999E+003 -9.999E+003 -9.999E+003 -9.999E+003 -9.999E+003 -9.999E+003 -9.999E+003 -9.999E+003 -9.999E+003 -9.999E+003 -9.999E+003 -9.999E+003 -9.999E+003 -9.999E+003 -9.999E+003 -9.999E+003 -9.999E+003 -9.999E+003 -9.999E+003 -9.999E+003 -9.999E+003 -9.999E+003 -9.999E+003 -9.999E+003 -9.999E+003 -9.999E+003 -9.999E+003 -9.999E+003 -9.999E+003 -9.999E+003 -9.999E+003 -9.999E+003 -9.999E+003 -9.999E+003 -9.999E+003 -9.999E+003 -9.999E+003 -9.999E+003 -9.999E+003 -9.999E+003 -9.999E+003 -9.999E+003 -9.999E+003 -9.999E+003 -9.999E+003 -9.999E+003 -9.999E+003 -9.999E+003 -9.999E+003 -9.999E+003 -9.999E+003 -9.999E+003 -9.999E+003 -9.999E+003 -9.999E+003 -9.999E+003 -9.999E+003 -9.999E+003 -9.999E+003 -9.999E+003 -9.999E+003 -9.999E+003 -9.999E+003 -9.999E+003 -9.999E+003 -9.999E+003 -9.999E+003 -9.999E+003 -9.999E+003 -9.999E+003 -9.999E+003 -9.999E+003 -9.999E+003 -9.999E+003 -9.999E+003 -9.999E+003 -9.999E+003 -9.999E+003 -9.999E+003 -9.999E+003 -9.999E+003 -9.999E+003 -9.999E+003 -9.999E+003 -9.999E+003 -9.999E+003 -9.999E+003 -9.999E+003 -9.999E+003 -9.999E+003 -9.999E+003 -9.999E+003 -9.999E+003 -9.999E+003 -9.999E+003 -9.999E+003 -9.999E+003 -9.999E+003 -9.999E+003 -9.999E+003 -9.999E+003 -9.999E+003 -9.999E+003 -9.999E+003 -9.999E+003 -9.999E+003 -9.999E+003 -9.999E+003 -9.999E+003 -9.999E+003 -9.999E+003 -9.999E+003 -9.999E+003 -9.999E+003 -9.999E+003
 -9.999E+003 -9.999E+003 -9.999E+003 -9.999E+003 -9.999E+003 -9.999E+003 -9.999E+003 -9.999E+003 -9.999E+003 -9.999E+003 -9.999E+003 -9.999E+003 -9.999E+003 -9.999E+003 -9.999E+003 -9.999E+003 -9.999E+003 -9.999E+003 -9.999E+003 -9.999E+003 -9.999E+003 -9.999E+003 -9.999E+003 -9.999E+003 -9.999E+003 -9.999E+003 -9.999E+003 -9.999E+003 -9.999E+003 -9.999E+003 -9.999E+003 -9.999E+003 -9.999E+003 -9.999E+003 -9.999E+003 -9.999E+003 -9.999E+003 -9.999E+003 -9.999E+003 -9.999E+003 -9.999E+003 -9.999E+003 -9.999E+003 -9.999E+003 -9.999E+003 -9.999E+003 -9.999E+003 -9.999E+003 -9.999E+003 -9.999E+003 -9.999E+003 -9.999E+003 -9.999E+003 -9.999E+003 -9.999E+003 -9.999E+003 -9.999E+003 -9.999E+003 -9.999E+003 -9.999E+003 -9.999E+003 -9.999E+003 -9.999E+003 -9.999E+003 -9.999E+003 -9.999E+003 -9.999E+003 -9.999E+003 -9.999E+003 -9.999E+003 -9.999E+003 -9.999E+003 -9.999E+003 -9.999E+003 -9.999E+003 -9.999E+003 -9.999E+003 -9.999E+003 -9.999E+003 -9.999E+003 -9.999E+003 -9.999E+003 -9.999E+003 -9.999E+003 -9.999E+003 -9.999E+003 -9.999E+003 -9.999E+003 -9.999E+003 -9.999E+003 -9.999E+003 -9.999E+003 -9.999E+003 -9.999E+003 -9.999E+003 -9.999E+003 -9.999E+003 -9.999E+003 -9.999E+003 -9.999E+003 -9.999E+003 -9.999E+003 -9.999E+003 -9.999E+003 -9.999E+003 -9.999E+003 -9.999E+003 -9.999E+003 -9.999E+003 -9.999E+003 -9.999E+003 -9.999E+003 -9.999E+003 -9.999E+003 -9.999E+003 -9.999E+003 -9.999E+003 -9.999E+003 -9.999E+003 -9.999E+003 -9.999E+003 -9.999E+003 -9.999E+003 -9.999E+003 -9.999E+003 -9.999E+003 -9.999E+003 -9.999E+003 -9.999E+003 -9.999E+003 -9.999E+003 -9.999E+003 -9.999E+003 -9.999E+003 -9.999E+003 -9.999E+003 -9.999E+003 -9.999E+003 -9.999E+003 -9.999E+003 -9.999E+003 -9.999E+003 -9.999E+003 -9.999E+003 -9.999E+003 -9.999E+003 -9.999E+003 -9.999E+003 -9.999E+003 -9.999E+003
 -9.999E+003 -9.999E+003 -9.999E+003 -9.999E+003 -9.999E+003 -9.999E+003 -9.999E+003 -9.999E+003 -9.999E+003 -9.999E+003 -9.999E+003 -9.999E+003 -9.999E+003 -9.999E+003 -9.999E+003 -9.999E+003 -9.999E+003 -9.999E+003 -9.999E+003 -9.999E+003 -9.999E+003 -9.999E+003 -9.999E+003 -9.999E+003 -9.999E+003 -9.999E+003 -9.999E+003 -9.999E+003 -9.999E+003 -9.999E+003 -9.999E+003 -9.999E+003 -9.999E+003 -9.999E+003 -9.999E+003 -9.999E+003 -9.999E+003 -9.999E+003 -9.999E+003 -9.999E+003 -9.999E+003 -9.999E+003 -9.999E+003 -9.999E+003 -9.999E+003 -9.999E+003 -9.999E+003 -9.999E+003 -9.999E+003 -9.999E+003 -9.999E+003 -9.999E+003 -9.999E+003 -9.999E+003 -9.999E+003 -9.999E+003 -9.999E+003 -9.999E+003 -9.999E+003 -9.999E+003 -9.999E+003 -9.999E+003 -9.999E+003 -9.999E+003 -9.999E+003 -9.999E+003 -9.999E+003 -9.999E+003 -9.999E+003 -9.999E+003 -9.999E+003 -9.999E+003 -9.999E+003 -9.999E+003 -9.999E+003 -9.999E+003 -9.999E+003 -9.999E+003 -9.999E+003 -9.999E+003 -9.999E+003 -9.999E+003 -9.999E+003 -9.999E+003 -9.999E+003 -9.999E+003 -9.999E+003 -9.999E+003 -9.999E+003 -9.999E+003 -9.999E+003 -9.999E+003 -9.999E+003 -9.999E+003 -9.999E+003 -9.999E+003 -9.999E+003 -9.999E+003 -9.999E+003 -9.999E+003 -9.999E+003 -9.999E+003 -9.999E+003 -9.999E+003 -9.999E+003 -9.999E+003 -9.999E+003 -9.999E+003 -9.999E+003 -9.999E+003 -9.999E+003 -9.999E+003 -9.999E+003 -9.999E+003 -9.999E+003 -9.999E+003 -9.999E+003 -9.999E+003 -9.999E+003 -9.999E+003 -9.999E+003 -9.999E+003 -9.999E+003 -9.999E+003 -9.999E+003 -9.999E+003 -9.999E+003 -9.999E+003 -9.999E+003 -9.999E+003 -9.999E+003 -9.999E+003 -9.999E+003 -9.999E+003 -9.999E+003 -9.999E+003 -9.999E+003 -9.999E+003 -9.999E+003 -9.999E+003 -9.999E+003 -9.999E+003 -9.999E+003 -9.999E+003 -9.999E+003 -9.999E+003 -9.999E+003 -9.999E+003 -9.999E+003 -9.999E+003
 -9.999E+003 -9.999E+003 -9.999E+003 -9.999E+003 -9.999E+003 -9.999E+003 -9.999E+003 -9.999E+003 -9.999E+003 -9.999E+003 -9.999E+003 -9.999E+003 -9.999E+003 -9.999E+003 -9.999E+003 -9.999E+003 -9.999E+003 -9.999E+003 -9.999E+003 -9.999E+003 -9.999E+003 -9.999E+003 -9.999E+003 -9.999E+003 -9.999E+003 -9.999E+003 -9.999E+003 -9.999E+003 -9.999E+003 -9.999E+003 -9.999E+003 -9.999E+003 -9.999E+003 -9.999E+003 -9.999E+003 -9.999E+003 -9.999E+003 -9.999E+003 -9.999E+003 -9.999E+003 -9.999E+003 -9.999E+003 -9.999E+003 -9.999E+003 -9.999E+003 -9.999E+003 -9.999E+003 -9.999E+003 -9.999E+003 -9.999E+003 -9.999E+003 -9.999E+003 -9.999E+003 -9.999E+003 -9.999E+003 -9.999E+003 -9.999E+003 -9.999E+003 -9.999E+003 -9.999E+003 -9.999E+003 -9.999E+003 -9.999E+003 -9.999E+003 -9.999E+003 -9.999E+003 -9.999E+003 -9.999E+003 -9.999E+003 -9.999E+003 -9.999E+003 -9.999E+003 -9.999E+003 -9.999E+003 -9.999E+003 -9.999E+003 -9.999E+003 -9.999E+003 -9.999E+003 -9.999E+003 -9.999E+003 -9.999E+003 -9.999E+003 -9.999E+003 -9.999E+003 -9.999E+003 -9.999E+003 -9.999E+003 -9.999E+003 -9.999E+003 -9.999E+003 -9.999E+003 -9.999E+003 -9.999E+003 -9.999E+003 -9.999E+003 -9.999E+003 -9.999E+003 -9.999E+003 -9.999E+003 -9.999E+003 -9.999E+003 -9.999E+003 -9.999E+003 -9.999E+003 -9.999E+003 -9.999E+003 -9.999E+003 -9.999E+003 -9.999E+003 -9.999E+003 -9.999E+003 -9.999E+003 -9.999E+003 -9.999E+003 -9.999E+003 -9.999E+003 -9.999E+003 -9.999E+003 -9.999E+003 -9.999E+003 -9.999E+003 -9.999E+003 -9.999E+003 -9.999E+003 -9.999E+003 -9.999E+003 -9.999E+003 -9.999E+003 -9.999E+003 -9.999E+003 -9.999E+003 -9.999E+003 -9.999E+003 -9.999E+003 -9.999E+003 -9.999E+003 -9.999E+003 -9.999E+003 -9.999E+003 -9.999E+003 -9.999E+003 -9.999E+003 -9.999E+003 -9.999E+003 -9.999E+003 -9.999E+003 -9.999E+003 -9.999E+003 -9.999E+003
 -9.999E+003 -9.999E+003 -9.999E+003 -9.999E+003 -9.999E+003 -9.999E+003 -9.999E+003 -9.999E+003 -9.999E+003 -9.999E+003 -9.999E+003 -9.999E+003 -9.999E+003 -9.999E+003 -9.999E+003 -9.999E+003 -9.999E+003 -9.999E+003 -9.999E+003 -9.999E+003 -9.999E+003 -9.999E+003 -9.999E+003 -9.999E+003 -9.999E+003 -9.999E+003 -9.999E+003 -9.999E+003 -9.999E+003 -9.999E+003 -9.999E+003 -9.999E+003 -9.999E+003 -9.999E+003 -9.999E+003 -9.999E+003 -9.999E+003 -9.999E+003 -9.999E+003 -9.999E+003 -9.999E+003 -9.999E+003 -9.999E+003 -9.999E+003 -9.999E+003 -9.999E+003 -9.999E+003 -9.999E+003 -9.999E+003 -9.999E+003 -9.999E+003 -9.999E+003 -9.999E+003 -9.999E+003 -9.999E+003 -9.999E+003 -9.999E+003 -9.999E+003 -9.999E+003 -9.999E+003 -9.999E+003 -9.999E+003 -9.999E+003 -9.999E+003 -9.999E+003 -9.999E+003 -9.999E+003 -9.999E+003 -9.999E+003 -9.999E+003 -9.999E+003 -9.999E+003 -9.999E+003 -9.999E+003 -9.999E+003 -9.999E+003 -9.999E+003 -9.999E+003 -9.999E+003 -9.999E+003 -9.999E+003 -9.999E+003 -9.999E+003 -9.999E+003 -9.999E+003 -9.999E+003 -9.999E+003 -9.999E+003 -9.999E+003 -9.999E+003 -9.999E+003 -9.999E+003 -9.999E+003 -9.999E+003 -9.999E+003 -9.999E+003 -9.999E+003 -9.999E+003 -9.999E+003 -9.999E+003 -9.999E+003 -9.999E+003 -9.999E+003 -9.999E+003 -9.999E+003 -9.999E+003 -9.999E+003 -9.999E+003 -9.999E+003 -9.999E+003 -9.999E+003 -9.999E+003 -9.999E+003 -9.999E+003 -9.999E+003 -9.999E+003 -9.999E+003 -9.999E+003 -9.999E+003 -9.999E+003 -9.999E+003 -9.999E+003 -9.999E+003 -9.999E+003 -9.999E+003 -9.999E+003 -9.999E+003 -9.999E+003 -9.999E+003 -9.999E+003 -9.999E+003 -9.999E+003 -9.999E+003 -9.999E+003 -9.999E+003 -9.999E+003 -9.999E+003 -9.999E+003 -9.999E+003 -9.999E+003 -9.999E+003 -9.999E+003 -9.999E+003 -9.999E+003 -9.999E+003 -9.999E+003 -9.999E+003 -9.999E+003 -9.999E+003 -9.999E+003
 -9.999E+003 -9.999E+003 -9.999E+003 -9.999E+003 -9.999E+003 -9.999E+003 -9.999E+003 -9.999E+003 -9.999E+003 -9.999E+003 -9.999E+003 -9.999E+003 -9.999E+003 -9.999E+003 -9.999E+003 -9.999E+003 -9.999E+003 -9.999E+003 -9.999E+003 -9.999E+003 -9.999E+003 -9.999E+003 -9.999E+003 -9.999E+003 -9.999E+003 -9.999E+003 -9.999E+003 -9.999E+003 -9.999E+003 -9.999E+003 -9.999E+003 -9.999E+003 -9.999E+003 -9.999E+003 -9.999E+003 -9.999E+003 -9.999E+003 -9.999E+003 -9.999E+003 -9.999E+003 -9.999E+003 -9.999E+003 -9.999E+003 -9.999E+003 -9.999E+003 -9.999E+003 -9.999E+003 -9.999E+003 -9.999E+003 -9.999E+003 -9.999E+003 -9.999E+003 -9.999E+003 -9.999E+003 -9.999E+003 -9.999E+003 -9.999E+003 -9.999E+003 -9.999E+003 -9.999E+003 -9.999E+003 -9.999E+003 -9.999E+003 -9.999E+003 -9.999E+003 -9.999E+003 -9.999E+003 -9.999E+003 -9.999E+003 -9.999E+003 -9.999E+003 -9.999E+003 -9.999E+003 -9.999E+003 -9.999E+003 -9.999E+003 -9.999E+003 -9.999E+003 -9.999E+003 -9.999E+003 -9.999E+003 -9.999E+003 -9.999E+003 -9.999E+003 -9.999E+003 -9.999E+003 -9.999E+003 -9.999E+003 -9.999E+003 -9.999E+003 -9.999E+003 -9.999E+003 -9.999E+003 -9.999E+003 -9.999E+003 -9.999E+003 -9.999E+003 -9.999E+003 -9.999E+003 -9.999E+003 -9.999E+003 -9.999E+003 -9.999E+003 -9.999E+003 -9.999E+003 -9.999E+003 -9.999E+003 -9.999E+003 -9.999E+003 -9.999E+003 -9.999E+003 -9.999E+003 -9.999E+003 -9.999E+003 -9.999E+003 -9.999E+003 -9.999E+003 -9.999E+003 -9.999E+003 -9.999E+003 -9.999E+003 -9.999E+003 -9.999E+003 -9.999E+003 -9.999E+003 -9.999E+003 -9.999E+003 -9.999E+003 -9.999E+003 -9.999E+003 -9.999E+003 -9.999E+003 -9.999E+003 -9.999E+003 -9.999E+003 -9.999E+003 -9.999E+003 -9.999E+003 -9.999E+003 -9.999E+003 -9.999E+003 -9.999E+003 -9.999E+003 -9.999E+003 -9.999E+003 -9.999E+003 -9.999E+003 -9.999E+003 -9.999E+003 -9.999E+003
 -9.999E+003 -9.999E+003 -9.999E+003 -9.999E+003 -9.999E+003 -9.999E+003 -9.999E+003 -9.999E+003 -9.999E+003 -9.999E+003 -9.999E+003 -9.999E+003 -9.999E+003 -9.999E+003 -9.999E+003 -9.999E+003 -9.999E+003 -9.999E+003 -9.999E+003 -9.999E+003 -9.999E+003 -9.999E+003 -9.999E+003 -9.999E+003 -9.999E+003 -9.999E+003 -9.999E+003 -9.999E+003 -9.999E+003 -9.999E+003 -9.999E+003 -9.999E+003 -9.999E+003 -9.999E+003 -9.999E+003 -9.999E+003 -9.999E+003 -9.999E+003 -9.999E+003 -9.999E+003 -9.999E+003 -9.999E+003 -9.999E+003 -9.999E+003 -9.999E+003 -9.999E+003 -9.999E+003 -9.999E+003 -9.999E+003 -9.999E+003 -9.999E+003 -9.999E+003 -9.999E+003 -9.999E+003 -9.999E+003 -9.999E+003 -9.999E+003 -9.999E+003 -9.999E+003 -9.999E+003 -9.999E+003 -9.999E+003 -9.999E+003 -9.999E+003 -9.999E+003 -9.999E+003 -9.999E+003 -9.999E+003 -9.999E+003 -9.999E+003 -9.999E+003 -9.999E+003 -9.999E+003 -9.999E+003 -9.999E+003 -9.999E+003 -9.999E+003 -9.999E+003 -9.999E+003 -9.999E+003 -9.999E+003 -9.999E+003 -9.999E+003 -9.999E+003 -9.999E+003 -9.999E+003 -9.999E+003 -9.999E+003 -9.999E+003 -9.999E+003 -9.999E+003 -9.999E+003 -9.999E+003 -9.999E+003 -9.999E+003 -9.999E+003 -9.999E+003 -9.999E+003 -9.999E+003 -9.999E+003 -9.999E+003 -9.999E+003 -9.999E+003 -9.999E+003 -9.999E+003 -9.999E+003 -9.999E+003 -9.999E+003 -9.999E+003 -9.999E+003 -9.999E+003 -9.999E+003 -9.999E+003 -9.999E+003 -9.999E+003 -9.999E+003 -9.999E+003 -9.999E+003 -9.999E+003 -9.999E+003 -9.999E+003 -9.999E+003 -9.999E+003 -9.999E+003 -9.999E+003 -9.999E+003 -9.999E+003 -9.999E+003 -9.999E+003 -9.999E+003 -9.999E+003 -9.999E+003 -9.999E+003 -9.999E+003 -9.999E+003 -9.999E+003 -9.999E+003 -9.999E+003 -9.999E+003 -9.999E+003 -9.999E+003 -9.999E+003 -9.999E+003 -9.999E+003 -9.999E+003 -9.999E+003 -9.999E+003 -9.999E+003 -9.999E+003 -9.999E+003
 -9.999E+003 -9.999E+003 -9.999E+003 -9.999E+003 -9.999E+003 -9.999E+003 -9.999E+003 -9.999E+003 -9.999E+003 -9.999E+003 -9.999E+003 -9.999E+003 -9.999E+003 -9.999E+003 -9.999E+003 -9.999E+003 -9.999E+003 -9.999E+003 -9.999E+003 -9.999E+003 -9.999E+003 -9.999E+003 -9.999E+003 -9.999E+003 -9.999E+003 -9.999E+003 -9.999E+003 -9.999E+003 -9.999E+003 -9.999E+003 -9.999E+003 -9.999E+003 -9.999E+003 -9.999E+003 -9.999E+003 -9.999E+003 -9.999E+003 -9.999E+003 -9.999E+003 -9.999E+003 -9.999E+003 -9.999E+003 -9.999E+003 -9.999E+003 -9.999E+003 -9.999E+003 -9.999E+003 -9.999E+003 -9.999E+003 -9.999E+003 -9.999E+003 -9.999E+003 -9.999E+003 -9.999E+003 -9.999E+003 -9.999E+003 -9.999E+003 -9.999E+003 -9.999E+003 -9.999E+003 -9.999E+003 -9.999E+003 -9.999E+003 -9.999E+003 -9.999E+003 -9.999E+003 -9.999E+003 -9.999E+003 -9.999E+003 -9.999E+003 -9.999E+003 -9.999E+003 -9.999E+003 -9.999E+003 -9.999E+003 -9.999E+003 -9.999E+003 -9.999E+003 -9.999E+003 -9.999E+003 -9.999E+003 -9.999E+003 -9.999E+003 -9.999E+003 -9.999E+003 -9.999E+003 -9.999E+003 -9.999E+003 -9.999E+003 -9.999E+003 -9.999E+003 -9.999E+003 -9.999E+003 -9.999E+003 -9.999E+003 -9.999E+003 -9.999E+003 -9.999E+003 -9.999E+003 -9.999E+003 -9.999E+003 -9.999E+003 -9.999E+003 -9.999E+003 -9.999E+003 -9.999E+003 -9.999E+003 -9.999E+003 -9.999E+003 -9.999E+003 -9.999E+003 -9.999E+003 -9.999E+003 -9.999E+003 -9.999E+003 -9.999E+003 -9.999E+003 -9.999E+003 -9.999E+003 -9.999E+003 -9.999E+003 -9.999E+003 -9.999E+003 -9.999E+003 -9.999E+003 -9.999E+003 -9.999E+003 -9.999E+003 -9.999E+003 -9.999E+003 -9.999E+003 -9.999E+003 -9.999E+003 -9.999E+003 -9.999E+003 -9.999E+003 -9.999E+003 -9.999E+003 -9.999E+003 -9.999E+003 -9.999E+003 -9.999E+003 -9.999E+003 -9.999E+003 -9.999E+003 -9.999E+003 -9.999E+003 -9.999E+003 -9.999E+003 -9.999E+003
 -9.999E+003 -9.999E+003 -9.999E+003 -9.999E+003 -9.999E+003 -9.999E+003 -9.999E+003 -9.999E+003 -9.999E+003 -9.999E+003 -9.999E+003 -9.999E+003 -9.999E+003 -9.999E+003 -9.999E+003 -9.999E+003 -9.999E+003 -9.999E+003 -9.999E+003 -9.999E+003 -9.999E+003 -9.999E+003 -9.999E+003 -9.999E+003 -9.999E+003 -9.999E+003 -9.999E+003 -9.999E+003 -9.999E+003 -9.999E+003 -9.999E+003 -9.999E+003 -9.999E+003 -9.999E+003 -9.999E+003 -9.999E+003 -9.999E+003 -9.999E+003 -9.999E+003 -9.999E+003 -9.999E+003 -9.999E+003 -9.999E+003 -9.999E+003 -9.999E+003 -9.999E+003 -9.999E+003 -9.999E+003 -9.999E+003 -9.999E+003 -9.999E+003 -9.999E+003 -9.999E+003 -9.999E+003 -9.999E+003 -9.999E+003 -9.999E+003 -9.999E+003 -9.999E+003 -9.999E+003 -9.999E+003 -9.999E+003 -9.999E+003 -9.999E+003 -9.999E+003 -9.999E+003 -9.999E+003 -9.999E+003 -9.999E+003 -9.999E+003 -9.999E+003 -9.999E+003 -9.999E+003 -9.999E+003 -9.999E+003 -9.999E+003 -9.999E+003 -9.999E+003 -9.999E+003 -9.999E+003 -9.999E+003 -9.999E+003 -9.999E+003 -9.999E+003 -9.999E+003 -9.999E+003 -9.999E+003 -9.999E+003 -9.999E+003 -9.999E+003 -9.999E+003 -9.999E+003 -9.999E+003 -9.999E+003 -9.999E+003 -9.999E+003 -9.999E+003 -9.999E+003 -9.999E+003 -9.999E+003 -9.999E+003 -9.999E+003 -9.999E+003 -9.999E+003 -9.999E+003 -9.999E+003 -9.999E+003 -9.999E+003 -9.999E+003 -9.999E+003 -9.999E+003 -9.999E+003 -9.999E+003 -9.999E+003 -9.999E+003 -9.999E+003 -9.999E+003 -9.999E+003 -9.999E+003 -9.999E+003 -9.999E+003 -9.999E+003 -9.999E+003 -9.999E+003 -9.999E+003 -9.999E+003 -9.999E+003 -9.999E+003 -9.999E+003 -9.999E+003 -9.999E+003 -9.999E+003 -9.999E+003 -9.999E+003 -9.999E+003 -9.999E+003 -9.999E+003 -9.999E+003 -9.999E+003 -9.999E+003 -9.999E+003 -9.999E+003 -9.999E+003 -9.999E+003 -9.999E+003 -9.999E+003 -9.999E+003 -9.999E+003 -9.999E+003 -9.999E+003
 -9.999E+003 -9.999E+003 -9.999E+003 -9.999E+003 -9.999E+003 -9.999E+003 -9.999E+003 -9.999E+003 -9.999E+003 -9.999E+003 -9.999E+003 -9.999E+003 -9.999E+003 -9.999E+003 -9.999E+003 -9.999E+003 -9.999E+003 -9.999E+003 -9.999E+003 -9.999E+003 -9.999E+003 -9.999E+003 -9.999E+003 -9.999E+003 -9.999E+003 -9.999E+003 -9.999E+003 -9.999E+003 -9.999E+003 -9.999E+003 -9.999E+003 -9.999E+003 -9.999E+003 -9.999E+003 -9.999E+003 -9.999E+003 -9.999E+003 -9.999E+003 -9.999E+003 -9.999E+003 -9.999E+003 -9.999E+003 -9.999E+003 -9.999E+003 -9.999E+003 -9.999E+003 -9.999E+003 -9.999E+003 -9.999E+003 -9.999E+003 -9.999E+003 -9.999E+003 -9.999E+003 -9.999E+003 -9.999E+003 -9.999E+003 -9.999E+003 -9.999E+003 -9.999E+003 -9.999E+003 -9.999E+003 -9.999E+003 -9.999E+003 -9.999E+003 -9.999E+003 -9.999E+003 -9.999E+003 -9.999E+003 -9.999E+003 -9.999E+003 -9.999E+003 -9.999E+003 -9.999E+003 -9.999E+003 -9.999E+003 -9.999E+003 -9.999E+003 -9.999E+003 -9.999E+003 -9.999E+003 -9.999E+003 -9.999E+003 -9.999E+003 -9.999E+003 -9.999E+003 -9.999E+003 -9.999E+003 -9.999E+003 -9.999E+003 -9.999E+003 -9.999E+003 -9.999E+003 -9.999E+003 -9.999E+003 -9.999E+003 -9.999E+003 -9.999E+003 -9.999E+003 -9.999E+003 -9.999E+003 -9.999E+003 -9.999E+003 -9.999E+003 -9.999E+003 -9.999E+003 -9.999E+003 -9.999E+003 -9.999E+003 -9.999E+003 -9.999E+003 -9.999E+003 -9.999E+003 -9.999E+003 -9.999E+003 -9.999E+003 -9.999E+003 -9.999E+003 -9.999E+003 -9.999E+003 -9.999E+003 -9.999E+003 -9.999E+003 -9.999E+003 -9.999E+003 -9.999E+003 -9.999E+003 -9.999E+003 -9.999E+003 -9.999E+003 -9.999E+003 -9.999E+003 -9.999E+003 -9.999E+003 -9.999E+003 -9.999E+003 -9.999E+003 -9.999E+003 -9.999E+003 -9.999E+003 -9.999E+003 -9.999E+003 -9.999E+003 -9.999E+003 -9.999E+003 -9.999E+003 -9.999E+003 -9.999E+003 -9.999E+003 -9.999E+003 -9.999E+003
 -9.999E+003 -9.999E+003 -9.999E+003 -9.999E+003 -9.999E+003 -9.999E+003 -9.999E+003 -9.999E+003 -9.999E+003 -9.999E+003 -9.999E+003 -9.999E+003 -9.999E+003 -9.999E+003 -9.999E+003 -9.999E+003 -9.999E+003 -9.999E+003 -9.999E+003 -9.999E+003 -9.999E+003 -9.999E+003 -9.999E+003 -9.999E+003 -9.999E+003 -9.999E+003 -9.999E+003 -9.999E+003 -9.999E+003 -9.999E+003 -9.999E+003 -9.999E+003 -9.999E+003 -9.999E+003 -9.999E+003 -9.999E+003 -9.999E+003 -9.999E+003 -9.999E+003 -9.999E+003 -9.999E+003 -9.999E+003 -9.999E+003 -9.999E+003 -9.999E+003 -9.999E+003 -9.999E+003 -9.999E+003 -9.999E+003 -9.999E+003 -9.999E+003 -9.999E+003 -9.999E+003 -9.999E+003 -9.999E+003 -9.999E+003 -9.999E+003 -9.999E+003 -9.999E+003 -9.999E+003 -9.999E+003 -9.999E+003 -9.999E+003 -9.999E+003 -9.999E+003 -9.999E+003 -9.999E+003 -9.999E+003 -9.999E+003 -9.999E+003 -9.999E+003 -9.999E+003 -9.999E+003 -9.999E+003 -9.999E+003 -9.999E+003 -9.999E+003 -9.999E+003 -9.999E+003 -9.999E+003 -9.999E+003 -9.999E+003 -9.999E+003 -9.999E+003 -9.999E+003 -9.999E+003 -9.999E+003 -9.999E+003 -9.999E+003 -9.999E+003 -9.999E+003 -9.999E+003 -9.999E+003 -9.999E+003 -9.999E+003 -9.999E+003 -9.999E+003 -9.999E+003 -9.999E+003 -9.999E+003 -9.999E+003 -9.999E+003 -9.999E+003 -9.999E+003 -9.999E+003 -9.999E+003 -9.999E+003 -9.999E+003 -9.999E+003 -9.999E+003 -9.999E+003 -9.999E+003 -9.999E+003 -9.999E+003 -9.999E+003 -9.999E+003 -9.999E+003 -9.999E+003 -9.999E+003 -9.999E+003 -9.999E+003 -9.999E+003 -9.999E+003 -9.999E+003 -9.999E+003 -9.999E+003 -9.999E+003 -9.999E+003 -9.999E+003 -9.999E+003 -9.999E+003 -9.999E+003 -9.999E+003 -9.999E+003 -9.999E+003 -9.999E+003 -9.999E+003 -9.999E+003 -9.999E+003 -9.999E+003 -9.999E+003 -9.999E+003 -9.999E+003 -9.999E+003 -9.999E+003 -9.999E+003 -9.999E+003 -9.999E+003 -9.999E+003 -9.999E+003
 -9.999E+003 -9.999E+003 -9.999E+003 -9.999E+003 -9.999E+003 -9.999E+003 -9.999E+003 -9.999E+003 -9.999E+003 -9.999E+003 -9.999E+003 -9.999E+003 -9.999E+003 -9.999E+003 -9.999E+003 -9.999E+003 -9.999E+003 -9.999E+003 -9.999E+003 -9.999E+003 -9.999E+003 -9.999E+003 -9.999E+003 -9.999E+003 -9.999E+003 -9.999E+003 -9.999E+003 -9.999E+003 -9.999E+003 -9.999E+003 -9.999E+003 -9.999E+003 -9.999E+003 -9.999E+003 -9.999E+003 -9.999E+003 -9.999E+003 -9.999E+003 -9.999E+003 -9.999E+003 -9.999E+003 -9.999E+003 -9.999E+003 -9.999E+003 -9.999E+003 -9.999E+003 -9.999E+003 -9.999E+003 -9.999E+003 -9.999E+003 -9.999E+003 -9.999E+003 -9.999E+003 -9.999E+003 -9.999E+003 -9.999E+003 -9.999E+003 -9.999E+003 -9.999E+003 -9.999E+003 -9.999E+003 -9.999E+003 -9.999E+003 -9.999E+003 -9.999E+003 -9.999E+003 -9.999E+003 -9.999E+003 -9.999E+003 -9.999E+003 -9.999E+003 -9.999E+003 -9.999E+003 -9.999E+003 -9.999E+003 -9.999E+003 -9.999E+003 -9.999E+003 -9.999E+003 -9.999E+003 -9.999E+003 -9.999E+003 -9.999E+003 -9.999E+003 -9.999E+003 -9.999E+003 -9.999E+003 -9.999E+003 -9.999E+003 -9.999E+003 -9.999E+003 -9.999E+003 -9.999E+003 -9.999E+003 -9.999E+003 -9.999E+003 -9.999E+003 -9.999E+003 -9.999E+003 -9.999E+003 -9.999E+003 -9.999E+003 -9.999E+003 -9.999E+003 -9.999E+003 -9.999E+003 -9.999E+003 -9.999E+003 -9.999E+003 -9.999E+003 -9.999E+003 -9.999E+003 -9.999E+003 -9.999E+003 -9.999E+003 -9.999E+003 -9.999E+003 -9.999E+003 -9.999E+003 -9.999E+003 -9.999E+003 -9.999E+003 -9.999E+003 -9.999E+003 -9.999E+003 -9.999E+003 -9.999E+003 -9.999E+003 -9.999E+003 -9.999E+003 -9.999E+003 -9.999E+003 -9.999E+003 -9.999E+003 -9.999E+003 -9.999E+003 -9.999E+003 -9.999E+003 -9.999E+003 -9.999E+003 -9.999E+003 -9.999E+003 -9.999E+003 -9.999E+003 -9.999E+003 -9.999E+003 -9.999E+003 -9.999E+003 -9.999E+003 -9.999E+003
 -9.999E+003 -9.999E+003 -9.999E+003 -9.999E+003 -9.999E+003 -9.999E+003 -9.999E+003 -9.999E+003 -9.999E+003 -9.999E+003 -9.999E+003 -9.999E+003 -9.999E+003 -9.999E+003 -9.999E+003 -9.999E+003 -9.999E+003 -9.999E+003 -9.999E+003 -9.999E+003 -9.999E+003 -9.999E+003 -9.999E+003 -9.999E+003 -9.999E+003 -9.999E+003 -9.999E+003 -9.999E+003 -9.999E+003 -9.999E+003 -9.999E+003 -9.999E+003 -9.999E+003 -9.999E+003 -9.999E+003 -9.999E+003 -9.999E+003 -9.999E+003 -9.999E+003 -9.999E+003 -9.999E+003 -9.999E+003 -9.999E+003 -9.999E+003 -9.999E+003 -9.999E+003 -9.999E+003 -9.999E+003 -9.999E+003 -9.999E+003 -9.999E+003 -9.999E+003 -9.999E+003 -9.999E+003 -9.999E+003 -9.999E+003 -9.999E+003 -9.999E+003 -9.999E+003 -9.999E+003 -9.999E+003 -9.999E+003 -9.999E+003 -9.999E+003 -9.999E+003 -9.999E+003 -9.999E+003 -9.999E+003 -9.999E+003 -9.999E+003 -9.999E+003 -9.999E+003 -9.999E+003 -9.999E+003 -9.999E+003 -9.999E+003 -9.999E+003 -9.999E+003 -9.999E+003 -9.999E+003 -9.999E+003 -9.999E+003 -9.999E+003 -9.999E+003 -9.999E+003 -9.999E+003 -9.999E+003 -9.999E+003 -9.999E+003 -9.999E+003 -9.999E+003 -9.999E+003 -9.999E+003 -9.999E+003 -9.999E+003 -9.999E+003 -9.999E+003 -9.999E+003 -9.999E+003 -9.999E+003 -9.999E+003 -9.999E+003 -9.999E+003 -9.999E+003 -9.999E+003 -9.999E+003 -9.999E+003 -9.999E+003 -9.999E+003 -9.999E+003 -9.999E+003 -9.999E+003 -9.999E+003 -9.999E+003 -9.999E+003 -9.999E+003 -9.999E+003 -9.999E+003 -9.999E+003 -9.999E+003 -9.999E+003 -9.999E+003 -9.999E+003 -9.999E+003 -9.999E+003 -9.999E+003 -9.999E+003 -9.999E+003 -9.999E+003 -9.999E+003 -9.999E+003 -9.999E+003 -9.999E+003 -9.999E+003 -9.999E+003 -9.999E+003 -9.999E+003 -9.999E+003 -9.999E+003 -9.999E+003 -9.999E+003 -9.999E+003 -9.999E+003 -9.999E+003 -9.999E+003 -9.999E+003 -9.999E+003 -9.999E+003 -9.999E+003 -9.999E+003
 -9.999E+003 -9.999E+003 -9.999E+003 -9.999E+003 -9.999E+003 -9.999E+003 -9.999E+003 -9.999E+003 -9.999E+003 -9.999E+003 -9.999E+003 -9.999E+003 -9.999E+003 -9.999E+003 -9.999E+003 -9.999E+003 -9.999E+003 -9.999E+003 -9.999E+003 -9.999E+003 -9.999E+003 -9.999E+003 -9.999E+003 -9.999E+003 -9.999E+003 -9.999E+003 -9.999E+003 -9.999E+003 -9.999E+003 -9.999E+003 -9.999E+003 -9.999E+003 -9.999E+003 -9.999E+003 -9.999E+003 -9.999E+003 -9.999E+003 -9.999E+003 -9.999E+003 -9.999E+003 -9.999E+003 -9.999E+003 -9.999E+003 -9.999E+003 -9.999E+003 -9.999E+003 -9.999E+003 -9.999E+003 -9.999E+003 -9.999E+003 -9.999E+003 -9.999E+003 -9.999E+003 -9.999E+003 -9.999E+003 -9.999E+003 -9.999E+003 -9.999E+003 -9.999E+003 -9.999E+003 -9.999E+003 -9.999E+003 -9.999E+003 -9.999E+003 -9.999E+003 -9.999E+003 -9.999E+003 -9.999E+003 -9.999E+003 -9.999E+003 -9.999E+003 -9.999E+003 -9.999E+003 -9.999E+003 -9.999E+003 -9.999E+003 -9.999E+003 -9.999E+003 -9.999E+003 -9.999E+003 -9.999E+003 -9.999E+003 -9.999E+003 -9.999E+003 -9.999E+003 -9.999E+003 -9.999E+003 -9.999E+003 -9.999E+003 -9.999E+003 -9.999E+003 -9.999E+003 -9.999E+003 -9.999E+003 -9.999E+003 -9.999E+003 -9.999E+003 -9.999E+003 -9.999E+003 -9.999E+003 -9.999E+003 -9.999E+003 -9.999E+003 -9.999E+003 -9.999E+003 -9.999E+003 -9.999E+003 -9.999E+003 -9.999E+003 -9.999E+003 -9.999E+003 -9.999E+003 -9.999E+003 -9.999E+003 -9.999E+003 -9.999E+003 -9.999E+003 -9.999E+003 -9.999E+003 -9.999E+003 -9.999E+003 -9.999E+003 -9.999E+003 -9.999E+003 -9.999E+003 -9.999E+003 -9.999E+003 -9.999E+003 -9.999E+003 -9.999E+003 -9.999E+003 -9.999E+003 -9.999E+003 -9.999E+003 -9.999E+003 -9.999E+003 -9.999E+003 -9.999E+003 -9.999E+003 -9.999E+003 -9.999E+003 -9.999E+003 -9.999E+003 -9.999E+003 -9.999E+003 -9.999E+003 -9.999E+003 -9.999E+003 -9.999E+003 -9.999E+003
 -9.999E+003 -9.999E+003 -9.999E+003 -9.999E+003 -9.999E+003 -9.999E+003 -9.999E+003 -9.999E+003 -9.999E+003 -9.999E+003 -9.999E+003 -9.999E+003 -9.999E+003 -9.999E+003 -9.999E+003 -9.999E+003 -9.999E+003 -9.999E+003 -9.999E+003 -9.999E+003 -9.999E+003 -9.999E+003 -9.999E+003 -9.999E+003 -9.999E+003 -9.999E+003 -9.999E+003 -9.999E+003 -9.999E+003 -9.999E+003 -9.999E+003 -9.999E+003 -9.999E+003 -9.999E+003 -9.999E+003 -9.999E+003 -9.999E+003 -9.999E+003 -9.999E+003 -9.999E+003 -9.999E+003 -9.999E+003 -9.999E+003 -9.999E+003 -9.999E+003 -9.999E+003 -9.999E+003 -9.999E+003 -9.999E+003 -9.999E+003 -9.999E+003 -9.999E+003 -9.999E+003 -9.999E+003 -9.999E+003 -9.999E+003 -9.999E+003 -9.999E+003 -9.999E+003 -9.999E+003 -9.999E+003 -9.999E+003 -9.999E+003 -9.999E+003 -9.999E+003 -9.999E+003 -9.999E+003 -9.999E+003 -9.999E+003 -9.999E+003 -9.999E+003 -9.999E+003 -9.999E+003 -9.999E+003 -9.999E+003 -9.999E+003 -9.999E+003 -9.999E+003 -9.999E+003 -9.999E+003 -9.999E+003 -9.999E+003 -9.999E+003 -9.999E+003 -9.999E+003 -9.999E+003 -9.999E+003 -9.999E+003 -9.999E+003 -9.999E+003 -9.999E+003 -9.999E+003 -9.999E+003 -9.999E+003 -9.999E+003 -9.999E+003 -9.999E+003 -9.999E+003 -9.999E+003 -9.999E+003 -9.999E+003 -9.999E+003 -9.999E+003 -9.999E+003 -9.999E+003 -9.999E+003 -9.999E+003 -9.999E+003 -9.999E+003 -9.999E+003 -9.999E+003 -9.999E+003 -9.999E+003 -9.999E+003 -9.999E+003 -9.999E+003 -9.999E+003 -9.999E+003 -9.999E+003 -9.999E+003 -9.999E+003 -9.999E+003 -9.999E+003 -9.999E+003 -9.999E+003 -9.999E+003 -9.999E+003 -9.999E+003 -9.999E+003 -9.999E+003 -9.999E+003 -9.999E+003 -9.999E+003 -9.999E+003 -9.999E+003 -9.999E+003 -9.999E+003 -9.999E+003 -9.999E+003 -9.999E+003 -9.999E+003 -9.999E+003 -9.999E+003 -9.999E+003 -9.999E+003 -9.999E+003 -9.999E+003 -9.999E+003 -9.999E+003 -9.999E+003
 -9.999E+003 -9.999E+003 -9.999E+003 -9.999E+003 -9.999E+003 -9.999E+003 -9.999E+003 -9.999E+003 -9.999E+003 -9.999E+003 -9.999E+003 -9.999E+003 -9.999E+003 -9.999E+003 -9.999E+003 -9.999E+003 -9.999E+003 -9.999E+003 -9.999E+003 -9.999E+003 -9.999E+003 -9.999E+003 -9.999E+003 -9.999E+003 -9.999E+003 -9.999E+003 -9.999E+003 -9.999E+003 -9.999E+003 -9.999E+003 -9.999E+003 -9.999E+003 -9.999E+003 -9.999E+003 -9.999E+003 -9.999E+003 -9.999E+003 -9.999E+003 -9.999E+003 -9.999E+003 -9.999E+003 -9.999E+003 -9.999E+003 -9.999E+003 -9.999E+003 -9.999E+003 -9.999E+003 -9.999E+003 -9.999E+003 -9.999E+003 -9.999E+003 -9.999E+003 -9.999E+003 -9.999E+003 -9.999E+003 -9.999E+003 -9.999E+003 -9.999E+003 -9.999E+003 -9.999E+003 -9.999E+003 -9.999E+003 -9.999E+003 -9.999E+003 -9.999E+003 -9.999E+003 -9.999E+003 -9.999E+003 -9.999E+003 -9.999E+003 -9.999E+003 -9.999E+003 -9.999E+003 -9.999E+003 -9.999E+003 -9.999E+003 -9.999E+003 -9.999E+003 -9.999E+003 -9.999E+003 -9.999E+003 -9.999E+003 -9.999E+003 -9.999E+003 -9.999E+003 -9.999E+003 -9.999E+003 -9.999E+003 -9.999E+003 -9.999E+003 -9.999E+003 -9.999E+003 -9.999E+003 -9.999E+003 -9.999E+003 -9.999E+003 -9.999E+003 -9.999E+003 -9.999E+003 -9.999E+003 -9.999E+003 -9.999E+003 -9.999E+003 -9.999E+003 -9.999E+003 -9.999E+003 -9.999E+003 -9.999E+003 -9.999E+003 -9.999E+003 -9.999E+003 -9.999E+003 -9.999E+003 -9.999E+003 -9.999E+003 -9.999E+003 -9.999E+003 -9.999E+003 -9.999E+003 -9.999E+003 -9.999E+003 -9.999E+003 -9.999E+003 -9.999E+003 -9.999E+003 -9.999E+003 -9.999E+003 -9.999E+003 -9.999E+003 -9.999E+003 -9.999E+003 -9.999E+003 -9.999E+003 -9.999E+003 -9.999E+003 -9.999E+003 -9.999E+003 -9.999E+003 -9.999E+003 -9.999E+003 -9.999E+003 -9.999E+003 -9.999E+003 -9.999E+003 -9.999E+003 -9.999E+003 -9.999E+003 -9.999E+003 -9.999E+003 -9.999E+003
 -9.999E+003 -9.999E+003 -9.999E+003 -9.999E+003 -9.999E+003 -9.999E+003 -9.999E+003 -9.999E+003 -9.999E+003 -9.999E+003 -9.999E+003 -9.999E+003 -9.999E+003 -9.999E+003 -9.999E+003 -9.999E+003 -9.999E+003 -9.999E+003 -9.999E+003 -9.999E+003 -9.999E+003 -9.999E+003 -9.999E+003 -9.999E+003 -9.999E+003 -9.999E+003 -9.999E+003 -9.999E+003 -9.999E+003 -9.999E+003 -9.999E+003 -9.999E+003 -9.999E+003 -9.999E+003 -9.999E+003 -9.999E+003 -9.999E+003 -9.999E+003 -9.999E+003 -9.999E+003 -9.999E+003 -9.999E+003 -9.999E+003 -9.999E+003 -9.999E+003 -9.999E+003 -9.999E+003 -9.999E+003 -9.999E+003 -9.999E+003 -9.999E+003 -9.999E+003 -9.999E+003 -9.999E+003 -9.999E+003 -9.999E+003 -9.999E+003 -9.999E+003 -9.999E+003 -9.999E+003 -9.999E+003 -9.999E+003 -9.999E+003 -9.999E+003 -9.999E+003 -9.999E+003 -9.999E+003 -9.999E+003 -9.999E+003 -9.999E+003 -9.999E+003 -9.999E+003 -9.999E+003 -9.999E+003 -9.999E+003 -9.999E+003 -9.999E+003 -9.999E+003 -9.999E+003 -9.999E+003 -9.999E+003 -9.999E+003 -9.999E+003 -9.999E+003 -9.999E+003 -9.999E+003 -9.999E+003 -9.999E+003 -9.999E+003 -9.999E+003 -9.999E+003 -9.999E+003 -9.999E+003 -9.999E+003 -9.999E+003 -9.999E+003 -9.999E+003 -9.999E+003 -9.999E+003 -9.999E+003 -9.999E+003 -9.999E+003 -9.999E+003 -9.999E+003 -9.999E+003 -9.999E+003 -9.999E+003 -9.999E+003 -9.999E+003 -9.999E+003 -9.999E+003 -9.999E+003 -9.999E+003 -9.999E+003 -9.999E+003 -9.999E+003 -9.999E+003 -9.999E+003 -9.999E+003 -9.999E+003 -9.999E+003 -9.999E+003 -9.999E+003 -9.999E+003 -9.999E+003 -9.999E+003 -9.999E+003 -9.999E+003 -9.999E+003 -9.999E+003 -9.999E+003 -9.999E+003 -9.999E+003 -9.999E+003 -9.999E+003 -9.999E+003 -9.999E+003 -9.999E+003 -9.999E+003 -9.999E+003 -9.999E+003 -9.999E+003 -9.999E+003 -9.999E+003 -9.999E+003 -9.999E+003 -9.999E+003 -9.999E+003 -9.999E+003 -9.999E+003
 -9.999E+003 -9.999E+003 -9.999E+003 -9.999E+003 -9.999E+003 -9.999E+003 -9.999E+003 -9.999E+003 -9.999E+003 -9.999E+003 -9.999E+003 -9.999E+003 -9.999E+003 -9.999E+003 -9.999E+003 -9.999E+003 -9.999E+003 -9.999E+003 -9.999E+003 -9.999E+003 -9.999E+003 -9.999E+003 -9.999E+003 -9.999E+003 -9.999E+003 -9.999E+003 -9.999E+003 -9.999E+003 -9.999E+003 -9.999E+003 -9.999E+003 -9.999E+003 -9.999E+003 -9.999E+003 -9.999E+003 -9.999E+003 -9.999E+003 -9.999E+003 -9.999E+003 -9.999E+003 -9.999E+003 -9.999E+003 -9.999E+003 -9.999E+003 -9.999E+003 -9.999E+003 -9.999E+003 -9.999E+003 -9.999E+003 -9.999E+003 -9.999E+003 -9.999E+003 -9.999E+003 -9.999E+003 -9.999E+003 -9.999E+003 -9.999E+003 -9.999E+003 -9.999E+003 -9.999E+003 -9.999E+003 -9.999E+003 -9.999E+003 -9.999E+003 -9.999E+003 -9.999E+003 -9.999E+003 -9.999E+003 -9.999E+003 -9.999E+003 -9.999E+003 -9.999E+003 -9.999E+003 -9.999E+003 -9.999E+003 -9.999E+003 -9.999E+003 -9.999E+003 -9.999E+003 -9.999E+003 -9.999E+003 -9.999E+003 -9.999E+003 -9.999E+003 -9.999E+003 -9.999E+003 -9.999E+003 -9.999E+003 -9.999E+003 -9.999E+003 -9.999E+003 -9.999E+003 -9.999E+003 -9.999E+003 -9.999E+003 -9.999E+003 -9.999E+003 -9.999E+003 -9.999E+003 -9.999E+003 -9.999E+003 -9.999E+003 -9.999E+003 -9.999E+003 -9.999E+003 -9.999E+003 -9.999E+003 -9.999E+003 -9.999E+003 -9.999E+003 -9.999E+003 -9.999E+003 -9.999E+003 -9.999E+003 -9.999E+003 -9.999E+003 -9.999E+003 -9.999E+003 -9.999E+003 -9.999E+003 -9.999E+003 -9.999E+003 -9.999E+003 -9.999E+003 -9.999E+003 -9.999E+003 -9.999E+003 -9.999E+003 -9.999E+003 -9.999E+003 -9.999E+003 -9.999E+003 -9.999E+003 -9.999E+003 -9.999E+003 -9.999E+003 -9.999E+003 -9.999E+003 -9.999E+003 -9.999E+003 -9.999E+003 -9.999E+003 -9.999E+003 -9.999E+003 -9.999E+003 -9.999E+003 -9.999E+003 -9.999E+003 -9.999E+003 -9.999E+003
 -9.999E+003 -9.999E+003 -9.999E+003 -9.999E+003 -9.999E+003 -9.999E+003 -9.999E+003 -9.999E+003 -9.999E+003 -9.999E+003 -9.999E+003 -9.999E+003 -9.999E+003 -9.999E+003 -9.999E+003 -9.999E+003 -9.999E+003 -9.999E+003 -9.999E+003 -9.999E+003 -9.999E+003 -9.999E+003 -9.999E+003 -9.999E+003 -9.999E+003 -9.999E+003 -9.999E+003 -9.999E+003 -9.999E+003 -9.999E+003 -9.999E+003 -9.999E+003 -9.999E+003 -9.999E+003 -9.999E+003 -9.999E+003 -9.999E+003 -9.999E+003 -9.999E+003 -9.999E+003 -9.999E+003 -9.999E+003 -9.999E+003 -9.999E+003 -9.999E+003 -9.999E+003 -9.999E+003 -9.999E+003 -9.999E+003 -9.999E+003 -9.999E+003 -9.999E+003 -9.999E+003 -9.999E+003 -9.999E+003 -9.999E+003 -9.999E+003 -9.999E+003 -9.999E+003 -9.999E+003 -9.999E+003 -9.999E+003 -9.999E+003 -9.999E+003 -9.999E+003 -9.999E+003 -9.999E+003 -9.999E+003 -9.999E+003 -9.999E+003 -9.999E+003 -9.999E+003 -9.999E+003 -9.999E+003 -9.999E+003 -9.999E+003 -9.999E+003 -9.999E+003 -9.999E+003 -9.999E+003 -9.999E+003 -9.999E+003 -9.999E+003 -9.999E+003 -9.999E+003 -9.999E+003 -9.999E+003 -9.999E+003 -9.999E+003 -9.999E+003 -9.999E+003 -9.999E+003 -9.999E+003 -9.999E+003 -9.999E+003 -9.999E+003 -9.999E+003 -9.999E+003 -9.999E+003 -9.999E+003 -9.999E+003 -9.999E+003 -9.999E+003 -9.999E+003 -9.999E+003 -9.999E+003 -9.999E+003 -9.999E+003 -9.999E+003 -9.999E+003 -9.999E+003 -9.999E+003 -9.999E+003 -9.999E+003 -9.999E+003 -9.999E+003 -9.999E+003 -9.999E+003 -9.999E+003 -9.999E+003 -9.999E+003 -9.999E+003 -9.999E+003 -9.999E+003 -9.999E+003 -9.999E+003 -9.999E+003 -9.999E+003 -9.999E+003 -9.999E+003 -9.999E+003 -9.999E+003 -9.999E+003 -9.999E+003 -9.999E+003 -9.999E+003 -9.999E+003 -9.999E+003 -9.999E+003 -9.999E+003 -9.999E+003 -9.999E+003 -9.999E+003 -9.999E+003 -9.999E+003 -9.999E+003 -9.999E+003 -9.999E+003 -9.999E+003 -9.999E+003
 -9.999E+003 -9.999E+003 -9.999E+003 -9.999E+003 -9.999E+003 -9.999E+003 -9.999E+003 -9.999E+003 -9.999E+003 -9.999E+003 -9.999E+003 -9.999E+003 -9.999E+003 -9.999E+003 -9.999E+003 -9.999E+003 -9.999E+003 -9.999E+003 -9.999E+003 -9.999E+003 -9.999E+003 -9.999E+003 -9.999E+003 -9.999E+003 -9.999E+003 -9.999E+003 -9.999E+003 -9.999E+003 -9.999E+003 -9.999E+003 -9.999E+003 -9.999E+003 -9.999E+003 -9.999E+003 -9.999E+003 -9.999E+003 -9.999E+003 -9.999E+003 -9.999E+003 -9.999E+003 -9.999E+003 -9.999E+003 -9.999E+003 -9.999E+003 -9.999E+003 -9.999E+003 -9.999E+003 -9.999E+003 -9.999E+003 -9.999E+003 -9.999E+003 -9.999E+003 -9.999E+003 -9.999E+003 -9.999E+003 -9.999E+003 -9.999E+003 -9.999E+003 -9.999E+003 -9.999E+003 -9.999E+003 -9.999E+003 -9.999E+003 -9.999E+003 -9.999E+003 -9.999E+003 -9.999E+003 -9.999E+003 -9.999E+003 -9.999E+003 -9.999E+003 -9.999E+003 -9.999E+003 -9.999E+003 -9.999E+003 -9.999E+003 -9.999E+003 -9.999E+003 -9.999E+003 -9.999E+003 -9.999E+003 -9.999E+003 -9.999E+003 -9.999E+003 -9.999E+003 -9.999E+003 -9.999E+003 -9.999E+003 -9.999E+003 -9.999E+003 -9.999E+003 -9.999E+003 -9.999E+003 -9.999E+003 -9.999E+003 -9.999E+003 -9.999E+003 -9.999E+003 -9.999E+003 -9.999E+003 -9.999E+003 -9.999E+003 -9.999E+003 -9.999E+003 -9.999E+003 -9.999E+003 -9.999E+003 -9.999E+003 -9.999E+003 -9.999E+003 -9.999E+003 -9.999E+003 -9.999E+003 -9.999E+003 -9.999E+003 -9.999E+003 -9.999E+003 -9.999E+003 -9.999E+003 -9.999E+003 -9.999E+003 -9.999E+003 -9.999E+003 -9.999E+003 -9.999E+003 -9.999E+003 -9.999E+003 -9.999E+003 -9.999E+003 -9.999E+003 -9.999E+003 -9.999E+003 -9.999E+003 -9.999E+003 -9.999E+003 -9.999E+003 -9.999E+003 -9.999E+003 -9.999E+003 -9.999E+003 -9.999E+003 -9.999E+003 -9.999E+003 -9.999E+003 -9.999E+003 -9.999E+003 -9.999E+003 -9.999E+003 -9.999E+003 -9.999E+003
 -9.999E+003 -9.999E+003 -9.999E+003 -9.999E+003 -9.999E+003 -9.999E+003 -9.999E+003 -9.999E+003 -9.999E+003 -9.999E+003 -9.999E+003 -9.999E+003 -9.999E+003 -9.999E+003 -9.999E+003 -9.999E+003 -9.999E+003 -9.999E+003 -9.999E+003 -9.999E+003 -9.999E+003 -9.999E+003 -9.999E+003 -9.999E+003 -9.999E+003 -9.999E+003 -9.999E+003 -9.999E+003 -9.999E+003 -9.999E+003 -9.999E+003 -9.999E+003 -9.999E+003 -9.999E+003 -9.999E+003 -9.999E+003 -9.999E+003 -9.999E+003 -9.999E+003 -9.999E+003 -9.999E+003 -9.999E+003 -9.999E+003 -9.999E+003 -9.999E+003 -9.999E+003 -9.999E+003 -9.999E+003 -9.999E+003 -9.999E+003 -9.999E+003 -9.999E+003 -9.999E+003 -9.999E+003 -9.999E+003 -9.999E+003 -9.999E+003 -9.999E+003 -9.999E+003 -9.999E+003 -9.999E+003 -9.999E+003 -9.999E+003 -9.999E+003 -9.999E+003 -9.999E+003 -9.999E+003 -9.999E+003 -9.999E+003 -9.999E+003 -9.999E+003 -9.999E+003 -9.999E+003 -9.999E+003 -9.999E+003 -9.999E+003 -9.999E+003 -9.999E+003 -9.999E+003 -9.999E+003 -9.999E+003 -9.999E+003 -9.999E+003 -9.999E+003 -9.999E+003 -9.999E+003 -9.999E+003 -9.999E+003 -9.999E+003 -9.999E+003 -9.999E+003 -9.999E+003 -9.999E+003 -9.999E+003 -9.999E+003 -9.999E+003 -9.999E+003 -9.999E+003 -9.999E+003 -9.999E+003 -9.999E+003 -9.999E+003 -9.999E+003 -9.999E+003 -9.999E+003 -9.999E+003 -9.999E+003 -9.999E+003 -9.999E+003 -9.999E+003 -9.999E+003 -9.999E+003 -9.999E+003 -9.999E+003 -9.999E+003 -9.999E+003 -9.999E+003 -9.999E+003 -9.999E+003 -9.999E+003 -9.999E+003 -9.999E+003 -9.999E+003 -9.999E+003 -9.999E+003 -9.999E+003 -9.999E+003 -9.999E+003 -9.999E+003 -9.999E+003 -9.999E+003 -9.999E+003 -9.999E+003 -9.999E+003 -9.999E+003 -9.999E+003 -9.999E+003 -9.999E+003 -9.999E+003 -9.999E+003 -9.999E+003 -9.999E+003 -9.999E+003 -9.999E+003 -9.999E+003 -9.999E+003 -9.999E+003 -9.999E+003 -9.999E+003 -9.999E+003
 -9.999E+003 -9.999E+003 -9.999E+003 -9.999E+003 -9.999E+003 -9.999E+003 -9.999E+003 -9.999E+003 -9.999E+003 -9.999E+003 -9.999E+003 -9.999E+003 -9.999E+003 -9.999E+003 -9.999E+003 -9.999E+003 -9.999E+003 -9.999E+003 -9.999E+003 -9.999E+003 -9.999E+003 -9.999E+003 -9.999E+003 -9.999E+003 -9.999E+003 -9.999E+003 -9.999E+003 -9.999E+003 -9.999E+003 -9.999E+003 -9.999E+003 -9.999E+003 -9.999E+003 -9.999E+003 -9.999E+003 -9.999E+003 -9.999E+003 -9.999E+003 -9.999E+003 -9.999E+003 -9.999E+003 -9.999E+003 -9.999E+003 -9.999E+003 -9.999E+003 -9.999E+003 -9.999E+003 -9.999E+003 -9.999E+003 -9.999E+003 -9.999E+003 -9.999E+003 -9.999E+003 -9.999E+003 -9.999E+003 -9.999E+003 -9.999E+003 -9.999E+003 -9.999E+003 -9.999E+003 -9.999E+003 -9.999E+003 -9.999E+003 -9.999E+003 -9.999E+003 -9.999E+003 -9.999E+003 -9.999E+003 -9.999E+003 -9.999E+003 -9.999E+003 -9.999E+003 -9.999E+003 -9.999E+003 -9.999E+003 -9.999E+003 -9.999E+003 -9.999E+003 -9.999E+003 -9.999E+003 -9.999E+003 -9.999E+003 -9.999E+003 -9.999E+003 -9.999E+003 -9.999E+003 -9.999E+003 -9.999E+003 -9.999E+003 -9.999E+003 -9.999E+003 -9.999E+003 -9.999E+003 -9.999E+003 -9.999E+003 -9.999E+003 -9.999E+003 -9.999E+003 -9.999E+003 -9.999E+003 -9.999E+003 -9.999E+003 -9.999E+003 -9.999E+003 -9.999E+003 -9.999E+003 -9.999E+003 -9.999E+003 -9.999E+003 -9.999E+003 -9.999E+003 -9.999E+003 -9.999E+003 -9.999E+003 -9.999E+003 -9.999E+003 -9.999E+003 -9.999E+003 -9.999E+003 -9.999E+003 -9.999E+003 -9.999E+003 -9.999E+003 -9.999E+003 -9.999E+003 -9.999E+003 -9.999E+003 -9.999E+003 -9.999E+003 -9.999E+003 -9.999E+003 -9.999E+003 -9.999E+003 -9.999E+003 -9.999E+003 -9.999E+003 -9.999E+003 -9.999E+003 -9.999E+003 -9.999E+003 -9.999E+003 -9.999E+003 -9.999E+003 -9.999E+003 -9.999E+003 -9.999E+003 -9.999E+003 -9.999E+003 -9.999E+003 -9.999E+003
 -9.999E+003 -9.999E+003 -9.999E+003 -9.999E+003 -9.999E+003 -9.999E+003 -9.999E+003 -9.999E+003 -9.999E+003 -9.999E+003 -9.999E+003 -9.999E+003 -9.999E+003 -9.999E+003 -9.999E+003 -9.999E+003 -9.999E+003 -9.999E+003 -9.999E+003 -9.999E+003 -9.999E+003 -9.999E+003 -9.999E+003 -9.999E+003 -9.999E+003 -9.999E+003 -9.999E+003 -9.999E+003 -9.999E+003 -9.999E+003 -9.999E+003 -9.999E+003 -9.999E+003 -9.999E+003 -9.999E+003 -9.999E+003 -9.999E+003 -9.999E+003 -9.999E+003 -9.999E+003 -9.999E+003 -9.999E+003 -9.999E+003 -9.999E+003 -9.999E+003 -9.999E+003 -9.999E+003 -9.999E+003 -9.999E+003 -9.999E+003 -9.999E+003 -9.999E+003 -9.999E+003 -9.999E+003 -9.999E+003 -9.999E+003 -9.999E+003 -9.999E+003 -9.999E+003 -9.999E+003 -9.999E+003 -9.999E+003 -9.999E+003 -9.999E+003 -9.999E+003 -9.999E+003 -9.999E+003 -9.999E+003 -9.999E+003 -9.999E+003 -9.999E+003 -9.999E+003 -9.999E+003 -9.999E+003 -9.999E+003 -9.999E+003 -9.999E+003 -9.999E+003 -9.999E+003 -9.999E+003 -9.999E+003 -9.999E+003 -9.999E+003 -9.999E+003 -9.999E+003 -9.999E+003 -9.999E+003 -9.999E+003 -9.999E+003 -9.999E+003 -9.999E+003 -9.999E+003 -9.999E+003 -9.999E+003 -9.999E+003 -9.999E+003 -9.999E+003 -9.999E+003 -9.999E+003 -9.999E+003 -9.999E+003 -9.999E+003 -9.999E+003 -9.999E+003 -9.999E+003 -9.999E+003 -9.999E+003 -9.999E+003 -9.999E+003 -9.999E+003 -9.999E+003 -9.999E+003 -9.999E+003 -9.999E+003 -9.999E+003 -9.999E+003 -9.999E+003 -9.999E+003 -9.999E+003 -9.999E+003 -9.999E+003 -9.999E+003 -9.999E+003 -9.999E+003 -9.999E+003 -9.999E+003 -9.999E+003 -9.999E+003 -9.999E+003 -9.999E+003 -9.999E+003 -9.999E+003 -9.999E+003 -9.999E+003 -9.999E+003 -9.999E+003 -9.999E+003 -9.999E+003 -9.999E+003 -9.999E+003 -9.999E+003 -9.999E+003 -9.999E+003 -9.999E+003 -9.999E+003 -9.999E+003 -9.999E+003 -9.999E+003 -9.999E+003 -9.999E+003
 -9.999E+003 -9.999E+003 -9.999E+003 -9.999E+003 -9.999E+003 -9.999E+003 -9.999E+003 -9.999E+003 -9.999E+003 -9.999E+003 -9.999E+003 -9.999E+003 -9.999E+003 -9.999E+003 -9.999E+003 -9.999E+003 -9.999E+003 -9.999E+003 -9.999E+003 -9.999E+003 -9.999E+003 -9.999E+003 -9.999E+003 -9.999E+003 -9.999E+003 -9.999E+003 -9.999E+003 -9.999E+003 -9.999E+003 -9.999E+003 -9.999E+003 -9.999E+003 -9.999E+003 -9.999E+003 -9.999E+003 -9.999E+003 -9.999E+003 -9.999E+003 -9.999E+003 -9.999E+003 -9.999E+003 -9.999E+003 -9.999E+003 -9.999E+003 -9.999E+003 -9.999E+003 -9.999E+003 -9.999E+003 -9.999E+003 -9.999E+003 -9.999E+003 -9.999E+003 -9.999E+003 -9.999E+003 -9.999E+003 -9.999E+003 -9.999E+003 -9.999E+003 -9.999E+003 -9.999E+003 -9.999E+003 -9.999E+003 -9.999E+003 -9.999E+003 -9.999E+003 -9.999E+003 -9.999E+003 -9.999E+003 -9.999E+003 -9.999E+003 -9.999E+003 -9.999E+003 -9.999E+003 -9.999E+003 -9.999E+003 -9.999E+003 -9.999E+003 -9.999E+003 -9.999E+003 -9.999E+003 -9.999E+003 -9.999E+003 -9.999E+003 -9.999E+003 -9.999E+003 -9.999E+003 -9.999E+003 -9.999E+003 -9.999E+003 -9.999E+003 -9.999E+003 -9.999E+003 -9.999E+003 -9.999E+003 -9.999E+003 -9.999E+003 -9.999E+003 -9.999E+003 -9.999E+003 -9.999E+003 -9.999E+003 -9.999E+003 -9.999E+003 -9.999E+003 -9.999E+003 -9.999E+003 -9.999E+003 -9.999E+003 -9.999E+003 -9.999E+003 -9.999E+003 -9.999E+003 -9.999E+003 -9.999E+003 -9.999E+003 -9.999E+003 -9.999E+003 -9.999E+003 -9.999E+003 -9.999E+003 -9.999E+003 -9.999E+003 -9.999E+003 -9.999E+003 -9.999E+003 -9.999E+003 -9.999E+003 -9.999E+003 -9.999E+003 -9.999E+003 -9.999E+003 -9.999E+003 -9.999E+003 -9.999E+003 -9.999E+003 -9.999E+003 -9.999E+003 -9.999E+003 -9.999E+003 -9.999E+003 -9.999E+003 -9.999E+003 -9.999E+003 -9.999E+003 -9.999E+003 -9.999E+003 -9.999E+003 -9.999E+003 -9.999E+003 -9.999E+003
 -9.999E+003 -9.999E+003 -9.999E+003 -9.999E+003 -9.999E+003 -9.999E+003 -9.999E+003 -9.999E+003 -9.999E+003 -9.999E+003 -9.999E+003 -9.999E+003 -9.999E+003 -9.999E+003 -9.999E+003 -9.999E+003 -9.999E+003 -9.999E+003 -9.999E+003 -9.999E+003 -9.999E+003 -9.999E+003 -9.999E+003 -9.999E+003 -9.999E+003 -9.999E+003 -9.999E+003 -9.999E+003 -9.999E+003 -9.999E+003 -9.999E+003 -9.999E+003 -9.999E+003 -9.999E+003 -9.999E+003 -9.999E+003 -9.999E+003 -9.999E+003 -9.999E+003 -9.999E+003 -9.999E+003 -9.999E+003 -9.999E+003 -9.999E+003 -9.999E+003 -9.999E+003 -9.999E+003 -9.999E+003 -9.999E+003 -9.999E+003 -9.999E+003 -9.999E+003 -9.999E+003 -9.999E+003 -9.999E+003 -9.999E+003 -9.999E+003 -9.999E+003 -9.999E+003 -9.999E+003 -9.999E+003 -9.999E+003 -9.999E+003 -9.999E+003 -9.999E+003 -9.999E+003 -9.999E+003 -9.999E+003 -9.999E+003 -9.999E+003 -9.999E+003 -9.999E+003 -9.999E+003 -9.999E+003 -9.999E+003 -9.999E+003 -9.999E+003 -9.999E+003 -9.999E+003 -9.999E+003 -9.999E+003 -9.999E+003 -9.999E+003 -9.999E+003 -9.999E+003 -9.999E+003 -9.999E+003 -9.999E+003 -9.999E+003 -9.999E+003 -9.999E+003 -9.999E+003 -9.999E+003 -9.999E+003 -9.999E+003 -9.999E+003 -9.999E+003 -9.999E+003 -9.999E+003 -9.999E+003 -9.999E+003 -9.999E+003 -9.999E+003 -9.999E+003 -9.999E+003 -9.999E+003 -9.999E+003 -9.999E+003 -9.999E+003 -9.999E+003 -9.999E+003 -9.999E+003 -9.999E+003 -9.999E+003 -9.999E+003 -9.999E+003 -9.999E+003 -9.999E+003 -9.999E+003 -9.999E+003 -9.999E+003 -9.999E+003 -9.999E+003 -9.999E+003 -9.999E+003 -9.999E+003 -9.999E+003 -9.999E+003 -9.999E+003 -9.999E+003 -9.999E+003 -9.999E+003 -9.999E+003 -9.999E+003 -9.999E+003 -9.999E+003 -9.999E+003 -9.999E+003 -9.999E+003 -9.999E+003 -9.999E+003 -9.999E+003 -9.999E+003 -9.999E+003 -9.999E+003 -9.999E+003 -9.999E+003 -9.999E+003 -9.999E+003 -9.999E+003
 -9.999E+003 -9.999E+003 -9.999E+003 -9.999E+003 -9.999E+003 -9.999E+003 -9.999E+003 -9.999E+003 -9.999E+003 -9.999E+003 -9.999E+003 -9.999E+003 -9.999E+003 -9.999E+003 -9.999E+003 -9.999E+003 -9.999E+003 -9.999E+003 -9.999E+003 -9.999E+003 -9.999E+003 -9.999E+003 -9.999E+003 -9.999E+003 -9.999E+003 -9.999E+003 -9.999E+003 -9.999E+003 -9.999E+003 -9.999E+003 -9.999E+003 -9.999E+003 -9.999E+003 -9.999E+003 -9.999E+003 -9.999E+003 -9.999E+003 -9.999E+003 -9.999E+003 -9.999E+003 -9.999E+003 -9.999E+003 -9.999E+003 -9.999E+003 -9.999E+003 -9.999E+003 -9.999E+003 -9.999E+003 -9.999E+003 -9.999E+003 -9.999E+003 -9.999E+003 -9.999E+003 -9.999E+003 -9.999E+003 -9.999E+003 -9.999E+003 -9.999E+003 -9.999E+003 -9.999E+003 -9.999E+003 -9.999E+003 -9.999E+003 -9.999E+003 -9.999E+003 -9.999E+003 -9.999E+003 -9.999E+003 -9.999E+003 -9.999E+003 -9.999E+003 -9.999E+003 -9.999E+003 -9.999E+003 -9.999E+003 -9.999E+003 -9.999E+003 -9.999E+003 -9.999E+003 -9.999E+003 -9.999E+003 -9.999E+003 -9.999E+003 -9.999E+003 -9.999E+003 -9.999E+003 -9.999E+003 -9.999E+003 -9.999E+003 -9.999E+003 -9.999E+003 -9.999E+003 -9.999E+003 -9.999E+003 -9.999E+003 -9.999E+003 -9.999E+003 -9.999E+003 -9.999E+003 -9.999E+003 -9.999E+003 -9.999E+003 -9.999E+003 -9.999E+003 -9.999E+003 -9.999E+003 -9.999E+003 -9.999E+003 -9.999E+003 -9.999E+003 -9.999E+003 -9.999E+003 -9.999E+003 -9.999E+003 -9.999E+003 -9.999E+003 -9.999E+003 -9.999E+003 -9.999E+003 -9.999E+003 -9.999E+003 -9.999E+003 -9.999E+003 -9.999E+003 -9.999E+003 -9.999E+003 -9.999E+003 -9.999E+003 -9.999E+003 -9.999E+003 -9.999E+003 -9.999E+003 -9.999E+003 -9.999E+003 -9.999E+003 -9.999E+003 -9.999E+003 -9.999E+003 -9.999E+003 -9.999E+003 -9.999E+003 -9.999E+003 -9.999E+003 -9.999E+003 -9.999E+003 -9.999E+003 -9.999E+003 -9.999E+003 -9.999E+003 -9.999E+003
 -9.999E+003 -9.999E+003 -9.999E+003 -9.999E+003 -9.999E+003 -9.999E+003 -9.999E+003 -9.999E+003 -9.999E+003 -9.999E+003 -9.999E+003 -9.999E+003 -9.999E+003 -9.999E+003 -9.999E+003 -9.999E+003 -9.999E+003 -9.999E+003 -9.999E+003 -9.999E+003 -9.999E+003 -9.999E+003 -9.999E+003 -9.999E+003 -9.999E+003 -9.999E+003 -9.999E+003 -9.999E+003 -9.999E+003 -9.999E+003 -9.999E+003 -9.999E+003 -9.999E+003 -9.999E+003 -9.999E+003 -9.999E+003 -9.999E+003 -9.999E+003 -9.999E+003 -9.999E+003 -9.999E+003 -9.999E+003 -9.999E+003 -9.999E+003 -9.999E+003 -9.999E+003 -9.999E+003 -9.999E+003 -9.999E+003 -9.999E+003 -9.999E+003 -9.999E+003 -9.999E+003 -9.999E+003 -9.999E+003 -9.999E+003 -9.999E+003 -9.999E+003 -9.999E+003 -9.999E+003 -9.999E+003 -9.999E+003 -9.999E+003 -9.999E+003 -9.999E+003 -9.999E+003 -9.999E+003 -9.999E+003 -9.999E+003 -9.999E+003 -9.999E+003 -9.999E+003 -9.999E+003 -9.999E+003 -9.999E+003 -9.999E+003 -9.999E+003 -9.999E+003 -9.999E+003 -9.999E+003 -9.999E+003 -9.999E+003 -9.999E+003 -9.999E+003 -9.999E+003 -9.999E+003 -9.999E+003 -9.999E+003 -9.999E+003 -9.999E+003 -9.999E+003 -9.999E+003 -9.999E+003 -9.999E+003 -9.999E+003 -9.999E+003 -9.999E+003 -9.999E+003 -9.999E+003 -9.999E+003 -9.999E+003 -9.999E+003 -9.999E+003 -9.999E+003 -9.999E+003 -9.999E+003 -9.999E+003 -9.999E+003 -9.999E+003 -9.999E+003 -9.999E+003 -9.999E+003 -9.999E+003 -9.999E+003 -9.999E+003 -9.999E+003 -9.999E+003 -9.999E+003 -9.999E+003 -9.999E+003 -9.999E+003 -9.999E+003 -9.999E+003 -9.999E+003 -9.999E+003 -9.999E+003 -9.999E+003 -9.999E+003 -9.999E+003 -9.999E+003 -9.999E+003 -9.999E+003 -9.999E+003 -9.999E+003 -9.999E+003 -9.999E+003 -9.999E+003 -9.999E+003 -9.999E+003 -9.999E+003 -9.999E+003 -9.999E+003 -9.999E+003 -9.999E+003 -9.999E+003 -9.999E+003 -9.999E+003 -9.999E+003 -9.999E+003 -9.999E+003
 -9.999E+003 -9.999E+003 -9.999E+003 -9.999E+003 -9.999E+003 -9.999E+003 -9.999E+003 -9.999E+003 -9.999E+003 -9.999E+003 -9.999E+003 -9.999E+003 -9.999E+003 -9.999E+003 -9.999E+003 -9.999E+003 -9.999E+003 -9.999E+003 -9.999E+003 -9.999E+003 -9.999E+003 -9.999E+003 -9.999E+003 -9.999E+003 -9.999E+003 -9.999E+003 -9.999E+003 -9.999E+003 -9.999E+003 -9.999E+003 -9.999E+003 -9.999E+003 -9.999E+003 -9.999E+003 -9.999E+003 -9.999E+003 -9.999E+003 -9.999E+003 -9.999E+003 -9.999E+003 -9.999E+003 -9.999E+003 -9.999E+003 -9.999E+003 -9.999E+003 -9.999E+003 -9.999E+003 -9.999E+003 -9.999E+003 -9.999E+003 -9.999E+003 -9.999E+003 -9.999E+003 -9.999E+003 -9.999E+003 -9.999E+003 -9.999E+003 -9.999E+003 -9.999E+003 -9.999E+003 -9.999E+003 -9.999E+003 -9.999E+003 -9.999E+003 -9.999E+003 -9.999E+003 -9.999E+003 -9.999E+003 -9.999E+003 -9.999E+003 -9.999E+003 -9.999E+003 -9.999E+003 -9.999E+003 -9.999E+003 -9.999E+003 -9.999E+003 -9.999E+003 -9.999E+003 -9.999E+003 -9.999E+003 -9.999E+003 -9.999E+003 -9.999E+003 -9.999E+003 -9.999E+003 -9.999E+003 -9.999E+003 -9.999E+003 -9.999E+003 -9.999E+003 -9.999E+003 -9.999E+003 -9.999E+003 -9.999E+003 -9.999E+003 -9.999E+003 -9.999E+003 -9.999E+003 -9.999E+003 -9.999E+003 -9.999E+003 -9.999E+003 -9.999E+003 -9.999E+003 -9.999E+003 -9.999E+003 -9.999E+003 -9.999E+003 -9.999E+003 -9.999E+003 -9.999E+003 -9.999E+003 -9.999E+003 -9.999E+003 -9.999E+003 -9.999E+003 -9.999E+003 -9.999E+003 -9.999E+003 -9.999E+003 -9.999E+003 -9.999E+003 -9.999E+003 -9.999E+003 -9.999E+003 -9.999E+003 -9.999E+003 -9.999E+003 -9.999E+003 -9.999E+003 -9.999E+003 -9.999E+003 -9.999E+003 -9.999E+003 -9.999E+003 -9.999E+003 -9.999E+003 -9.999E+003 -9.999E+003 -9.999E+003 -9.999E+003 -9.999E+003 -9.999E+003 -9.999E+003 -9.999E+003 -9.999E+003 -9.999E+003 -9.999E+003 -9.999E+003
 -9.999E+003 -9.999E+003 -9.999E+003 -9.999E+003 -9.999E+003 -9.999E+003 -9.999E+003 -9.999E+003 -9.999E+003 -9.999E+003 -9.999E+003 -9.999E+003 -9.999E+003 -9.999E+003 -9.999E+003 -9.999E+003 -9.999E+003 -9.999E+003 -9.999E+003 -9.999E+003 -9.999E+003 -9.999E+003 -9.999E+003 -9.999E+003 -9.999E+003 -9.999E+003 -9.999E+003 -9.999E+003 -9.999E+003 -9.999E+003 -9.999E+003 -9.999E+003 -9.999E+003 -9.999E+003 -9.999E+003 -9.999E+003 -9.999E+003 -9.999E+003 -9.999E+003 -9.999E+003 -9.999E+003 -9.999E+003 -9.999E+003 -9.999E+003 -9.999E+003 -9.999E+003 -9.999E+003 -9.999E+003 -9.999E+003 -9.999E+003 -9.999E+003 -9.999E+003 -9.999E+003 -9.999E+003 -9.999E+003 -9.999E+003 -9.999E+003 -9.999E+003 -9.999E+003 -9.999E+003 -9.999E+003 -9.999E+003 -9.999E+003 -9.999E+003 -9.999E+003 -9.999E+003 -9.999E+003 -9.999E+003 -9.999E+003 -9.999E+003 -9.999E+003 -9.999E+003 -9.999E+003 -9.999E+003 -9.999E+003 -9.999E+003 -9.999E+003 -9.999E+003 -9.999E+003 -9.999E+003 -9.999E+003 -9.999E+003 -9.999E+003 -9.999E+003 -9.999E+003 -9.999E+003 -9.999E+003 -9.999E+003 -9.999E+003 -9.999E+003 -9.999E+003 -9.999E+003 -9.999E+003 -9.999E+003 -9.999E+003 -9.999E+003 -9.999E+003 -9.999E+003 -9.999E+003 -9.999E+003 -9.999E+003 -9.999E+003 -9.999E+003 -9.999E+003 -9.999E+003 -9.999E+003 -9.999E+003 -9.999E+003 -9.999E+003 -9.999E+003 -9.999E+003 -9.999E+003 -9.999E+003 -9.999E+003 -9.999E+003 -9.999E+003 -9.999E+003 -9.999E+003 -9.999E+003 -9.999E+003 -9.999E+003 -9.999E+003 -9.999E+003 -9.999E+003 -9.999E+003 -9.999E+003 -9.999E+003 -9.999E+003 -9.999E+003 -9.999E+003 -9.999E+003 -9.999E+003 -9.999E+003 -9.999E+003 -9.999E+003 -9.999E+003 -9.999E+003 -9.999E+003 -9.999E+003 -9.999E+003 -9.999E+003 -9.999E+003 -9.999E+003 -9.999E+003 -9.999E+003 -9.999E+003 -9.999E+003 -9.999E+003 -9.999E+003 -9.999E+003
 -9.999E+003 -9.999E+003 -9.999E+003 -9.999E+003 -9.999E+003 -9.999E+003 -9.999E+003 -9.999E+003 -9.999E+003 -9.999E+003 -9.999E+003 -9.999E+003 -9.999E+003 -9.999E+003 -9.999E+003 -9.999E+003 -9.999E+003 -9.999E+003 -9.999E+003 -9.999E+003 -9.999E+003 -9.999E+003 -9.999E+003 -9.999E+003 -9.999E+003 -9.999E+003 -9.999E+003 -9.999E+003 -9.999E+003 -9.999E+003 -9.999E+003 -9.999E+003 -9.999E+003 -9.999E+003 -9.999E+003 -9.999E+003 -9.999E+003 -9.999E+003 -9.999E+003 -9.999E+003 -9.999E+003 -9.999E+003 -9.999E+003 -9.999E+003 -9.999E+003 -9.999E+003 -9.999E+003 -9.999E+003 -9.999E+003 -9.999E+003 -9.999E+003 -9.999E+003 -9.999E+003 -9.999E+003 -9.999E+003 -9.999E+003 -9.999E+003 -9.999E+003 -9.999E+003 -9.999E+003 -9.999E+003 -9.999E+003 -9.999E+003 -9.999E+003 -9.999E+003 -9.999E+003 -9.999E+003 -9.999E+003 -9.999E+003 -9.999E+003 -9.999E+003 -9.999E+003 -9.999E+003 -9.999E+003 -9.999E+003 -9.999E+003 -9.999E+003 -9.999E+003 -9.999E+003 -9.999E+003 -9.999E+003 -9.999E+003 -9.999E+003 -9.999E+003 -9.999E+003 -9.999E+003 -9.999E+003 -9.999E+003 -9.999E+003 -9.999E+003 -9.999E+003 -9.999E+003 -9.999E+003 -9.999E+003 -9.999E+003 -9.999E+003 -9.999E+003 -9.999E+003 -9.999E+003 -9.999E+003 -9.999E+003 -9.999E+003 -9.999E+003 -9.999E+003 -9.999E+003 -9.999E+003 -9.999E+003 -9.999E+003 -9.999E+003 -9.999E+003 -9.999E+003 -9.999E+003 -9.999E+003 -9.999E+003 -9.999E+003 -9.999E+003 -9.999E+003 -9.999E+003 -9.999E+003 -9.999E+003 -9.999E+003 -9.999E+003 -9.999E+003 -9.999E+003 -9.999E+003 -9.999E+003 -9.999E+003 -9.999E+003 -9.999E+003 -9.999E+003 -9.999E+003 -9.999E+003 -9.999E+003 -9.999E+003 -9.999E+003 -9.999E+003 -9.999E+003 -9.999E+003 -9.999E+003 -9.999E+003 -9.999E+003 -9.999E+003 -9.999E+003 -9.999E+003 -9.999E+003 -9.999E+003 -9.999E+003 -9.999E+003 -9.999E+003 -9.999E+003
 -9.999E+003 -9.999E+003 -9.999E+003 -9.999E+003 -9.999E+003 -9.999E+003 -9.999E+003 -9.999E+003 -9.999E+003 -9.999E+003 -9.999E+003 -9.999E+003 -9.999E+003 -9.999E+003 -9.999E+003 -9.999E+003 -9.999E+003 -9.999E+003 -9.999E+003 -9.999E+003 -9.999E+003 -9.999E+003 -9.999E+003 -9.999E+003 -9.999E+003 -9.999E+003 -9.999E+003 -9.999E+003 -9.999E+003 -9.999E+003 -9.999E+003 -9.999E+003 -9.999E+003 -9.999E+003 -9.999E+003 -9.999E+003 -9.999E+003 -9.999E+003 -9.999E+003 -9.999E+003 -9.999E+003 -9.999E+003 -9.999E+003 -9.999E+003 -9.999E+003 -9.999E+003 -9.999E+003 -9.999E+003 -9.999E+003 -9.999E+003 -9.999E+003 -9.999E+003 -9.999E+003 -9.999E+003 -9.999E+003 -9.999E+003 -9.999E+003 -9.999E+003 -9.999E+003 -9.999E+003 -9.999E+003 -9.999E+003 -9.999E+003 -9.999E+003 -9.999E+003 -9.999E+003 -9.999E+003 -9.999E+003 -9.999E+003 -9.999E+003 -9.999E+003 -9.999E+003 -9.999E+003 -9.999E+003 -9.999E+003 -9.999E+003 -9.999E+003 -9.999E+003 -9.999E+003 -9.999E+003 -9.999E+003 -9.999E+003 -9.999E+003 -9.999E+003 -9.999E+003 -9.999E+003 -9.999E+003 -9.999E+003 -9.999E+003 -9.999E+003 -9.999E+003 -9.999E+003 -9.999E+003 -9.999E+003 -9.999E+003 -9.999E+003 -9.999E+003 -9.999E+003 -9.999E+003 -9.999E+003 -9.999E+003 -9.999E+003 -9.999E+003 -9.999E+003 -9.999E+003 -9.999E+003 -9.999E+003 -9.999E+003 -9.999E+003 -9.999E+003 -9.999E+003 -9.999E+003 -9.999E+003 -9.999E+003 -9.999E+003 -9.999E+003 -9.999E+003 -9.999E+003 -9.999E+003 -9.999E+003 -9.999E+003 -9.999E+003 -9.999E+003 -9.999E+003 -9.999E+003 -9.999E+003 -9.999E+003 -9.999E+003 -9.999E+003 -9.999E+003 -9.999E+003 -9.999E+003 -9.999E+003 -9.999E+003 -9.999E+003 -9.999E+003 -9.999E+003 -9.999E+003 -9.999E+003 -9.999E+003 -9.999E+003 -9.999E+003 -9.999E+003 -9.999E+003 -9.999E+003 -9.999E+003 -9.999E+003 -9.999E+003 -9.999E+003 -9.999E+003
 -9.999E+003 -9.999E+003 -9.999E+003 -9.999E+003 -9.999E+003 -9.999E+003 -9.999E+003 -9.999E+003 -9.999E+003 -9.999E+003 -9.999E+003 -9.999E+003 -9.999E+003 -9.999E+003 -9.999E+003 -9.999E+003 -9.999E+003 -9.999E+003 -9.999E+003 -9.999E+003 -9.999E+003 -9.999E+003 -9.999E+003 -9.999E+003 -9.999E+003 -9.999E+003 -9.999E+003 -9.999E+003 -9.999E+003 -9.999E+003 -9.999E+003 -9.999E+003 -9.999E+003 -9.999E+003 -9.999E+003 -9.999E+003 -9.999E+003 -9.999E+003 -9.999E+003 -9.999E+003 -9.999E+003 -9.999E+003 -9.999E+003 -9.999E+003 -9.999E+003 -9.999E+003 -9.999E+003 -9.999E+003 -9.999E+003 -9.999E+003 -9.999E+003 -9.999E+003 -9.999E+003 -9.999E+003 -9.999E+003 -9.999E+003 -9.999E+003 -9.999E+003 -9.999E+003 -9.999E+003 -9.999E+003 -9.999E+003 -9.999E+003 -9.999E+003 -9.999E+003 -9.999E+003 -9.999E+003 -9.999E+003 -9.999E+003 -9.999E+003 -9.999E+003 -9.999E+003 -9.999E+003 -9.999E+003 -9.999E+003 -9.999E+003 -9.999E+003 -9.999E+003 -9.999E+003 -9.999E+003 -9.999E+003 -9.999E+003 -9.999E+003 -9.999E+003 -9.999E+003 -9.999E+003 -9.999E+003 -9.999E+003 -9.999E+003 -9.999E+003 -9.999E+003 -9.999E+003 -9.999E+003 -9.999E+003 -9.999E+003 -9.999E+003 -9.999E+003 -9.999E+003 -9.999E+003 -9.999E+003 -9.999E+003 -9.999E+003 -9.999E+003 -9.999E+003 -9.999E+003 -9.999E+003 -9.999E+003 -9.999E+003 -9.999E+003 -9.999E+003 -9.999E+003 -9.999E+003 -9.999E+003 -9.999E+003 -9.999E+003 -9.999E+003 -9.999E+003 -9.999E+003 -9.999E+003 -9.999E+003 -9.999E+003 -9.999E+003 -9.999E+003 -9.999E+003 -9.999E+003 -9.999E+003 -9.999E+003 -9.999E+003 -9.999E+003 -9.999E+003 -9.999E+003 -9.999E+003 -9.999E+003 -9.999E+003 -9.999E+003 -9.999E+003 -9.999E+003 -9.999E+003 -9.999E+003 -9.999E+003 -9.999E+003 -9.999E+003 -9.999E+003 -9.999E+003 -9.999E+003 -9.999E+003 -9.999E+003 -9.999E+003 -9.999E+003 -9.999E+003
 -9.999E+003 -9.999E+003 -9.999E+003 -9.999E+003 -9.999E+003 -9.999E+003 -9.999E+003 -9.999E+003 -9.999E+003 -9.999E+003 -9.999E+003 -9.999E+003 -9.999E+003 -9.999E+003 -9.999E+003 -9.999E+003 -9.999E+003 -9.999E+003 -9.999E+003 -9.999E+003 -9.999E+003 -9.999E+003 -9.999E+003 -9.999E+003 -9.999E+003 -9.999E+003 -9.999E+003 -9.999E+003 -9.999E+003 -9.999E+003 -9.999E+003 -9.999E+003 -9.999E+003 -9.999E+003 -9.999E+003 -9.999E+003 -9.999E+003 -9.999E+003 -9.999E+003 -9.999E+003 -9.999E+003 -9.999E+003 -9.999E+003 -9.999E+003 -9.999E+003 -9.999E+003 -9.999E+003 -9.999E+003 -9.999E+003 -9.999E+003 -9.999E+003 -9.999E+003 -9.999E+003 -9.999E+003 -9.999E+003 -9.999E+003 -9.999E+003 -9.999E+003 -9.999E+003 -9.999E+003 -9.999E+003 -9.999E+003 -9.999E+003 -9.999E+003 -9.999E+003 -9.999E+003 -9.999E+003 -9.999E+003 -9.999E+003 -9.999E+003 -9.999E+003 -9.999E+003 -9.999E+003 -9.999E+003 -9.999E+003 -9.999E+003 -9.999E+003 -9.999E+003 -9.999E+003 -9.999E+003 -9.999E+003 -9.999E+003 -9.999E+003 -9.999E+003 -9.999E+003 -9.999E+003 -9.999E+003 -9.999E+003 -9.999E+003 -9.999E+003 -9.999E+003 -9.999E+003 -9.999E+003 -9.999E+003 -9.999E+003 -9.999E+003 -9.999E+003 -9.999E+003 -9.999E+003 -9.999E+003 -9.999E+003 -9.999E+003 -9.999E+003 -9.999E+003 -9.999E+003 -9.999E+003 -9.999E+003 -9.999E+003 -9.999E+003 -9.999E+003 -9.999E+003 -9.999E+003 -9.999E+003 -9.999E+003 -9.999E+003 -9.999E+003 -9.999E+003 -9.999E+003 -9.999E+003 -9.999E+003 -9.999E+003 -9.999E+003 -9.999E+003 -9.999E+003 -9.999E+003 -9.999E+003 -9.999E+003 -9.999E+003 -9.999E+003 -9.999E+003 -9.999E+003 -9.999E+003 -9.999E+003 -9.999E+003 -9.999E+003 -9.999E+003 -9.999E+003 -9.999E+003 -9.999E+003 -9.999E+003 -9.999E+003 -9.999E+003 -9.999E+003 -9.999E+003 -9.999E+003 -9.999E+003 -9.999E+003 -9.999E+003 -9.999E+003 -9.999E+003
 -9.999E+003 -9.999E+003 -9.999E+003 -9.999E+003 -9.999E+003 -9.999E+003 -9.999E+003 -9.999E+003 -9.999E+003 -9.999E+003 -9.999E+003 -9.999E+003 -9.999E+003 -9.999E+003 -9.999E+003 -9.999E+003 -9.999E+003 -9.999E+003 -9.999E+003 -9.999E+003 -9.999E+003 -9.999E+003 -9.999E+003 -9.999E+003 -9.999E+003 -9.999E+003 -9.999E+003 -9.999E+003 -9.999E+003 -9.999E+003 -9.999E+003 -9.999E+003 -9.999E+003 -9.999E+003 -9.999E+003 -9.999E+003 -9.999E+003 -9.999E+003 -9.999E+003 -9.999E+003 -9.999E+003 -9.999E+003 -9.999E+003 -9.999E+003 -9.999E+003 -9.999E+003 -9.999E+003 -9.999E+003 -9.999E+003 -9.999E+003 -9.999E+003 -9.999E+003 -9.999E+003 -9.999E+003 -9.999E+003 -9.999E+003 -9.999E+003 -9.999E+003 -9.999E+003 -9.999E+003 -9.999E+003 -9.999E+003 -9.999E+003 -9.999E+003 -9.999E+003 -9.999E+003 -9.999E+003 -9.999E+003 -9.999E+003 -9.999E+003 -9.999E+003 -9.999E+003 -9.999E+003 -9.999E+003 -9.999E+003 -9.999E+003 -9.999E+003 -9.999E+003 -9.999E+003 -9.999E+003 -9.999E+003 -9.999E+003 -9.999E+003 -9.999E+003 -9.999E+003 -9.999E+003 -9.999E+003 -9.999E+003 -9.999E+003 -9.999E+003 -9.999E+003 -9.999E+003 -9.999E+003 -9.999E+003 -9.999E+003 -9.999E+003 -9.999E+003 -9.999E+003 -9.999E+003 -9.999E+003 -9.999E+003 -9.999E+003 -9.999E+003 -9.999E+003 -9.999E+003 -9.999E+003 -9.999E+003 -9.999E+003 -9.999E+003 -9.999E+003 -9.999E+003 -9.999E+003 -9.999E+003 -9.999E+003 -9.999E+003 -9.999E+003 -9.999E+003 -9.999E+003 -9.999E+003 -9.999E+003 -9.999E+003 -9.999E+003 -9.999E+003 -9.999E+003 -9.999E+003 -9.999E+003 -9.999E+003 -9.999E+003 -9.999E+003 -9.999E+003 -9.999E+003 -9.999E+003 -9.999E+003 -9.999E+003 -9.999E+003 -9.999E+003 -9.999E+003 -9.999E+003 -9.999E+003 -9.999E+003 -9.999E+003 -9.999E+003 -9.999E+003 -9.999E+003 -9.999E+003 -9.999E+003 -9.999E+003 -9.999E+003 -9.999E+003 -9.999E+003
 -9.999E+003 -9.999E+003 -9.999E+003 -9.999E+003 -9.999E+003 -9.999E+003 -9.999E+003 -9.999E+003 -9.999E+003 -9.999E+003 -9.999E+003 -9.999E+003 -9.999E+003 -9.999E+003 -9.999E+003 -9.999E+003 -9.999E+003 -9.999E+003 -9.999E+003 -9.999E+003 -9.999E+003 -9.999E+003 -9.999E+003 -9.999E+003 -9.999E+003 -9.999E+003 -9.999E+003 -9.999E+003 -9.999E+003 -9.999E+003 -9.999E+003 -9.999E+003 -9.999E+003 -9.999E+003 -9.999E+003 -9.999E+003 -9.999E+003 -9.999E+003 -9.999E+003 -9.999E+003 -9.999E+003 -9.999E+003 -9.999E+003 -9.999E+003 -9.999E+003 -9.999E+003 -9.999E+003 -9.999E+003 -9.999E+003 -9.999E+003 -9.999E+003 -9.999E+003 -9.999E+003 -9.999E+003 -9.999E+003 -9.999E+003 -9.999E+003 -9.999E+003 -9.999E+003 -9.999E+003 -9.999E+003 -9.999E+003 -9.999E+003 -9.999E+003 -9.999E+003 -9.999E+003 -9.999E+003 -9.999E+003 -9.999E+003 -9.999E+003 -9.999E+003 -9.999E+003 -9.999E+003 -9.999E+003 -9.999E+003 -9.999E+003 -9.999E+003 -9.999E+003 -9.999E+003 -9.999E+003 -9.999E+003 -9.999E+003 -9.999E+003 -9.999E+003 -9.999E+003 -9.999E+003 -9.999E+003 -9.999E+003 -9.999E+003 -9.999E+003 -9.999E+003 -9.999E+003 -9.999E+003 -9.999E+003 -9.999E+003 -9.999E+003 -9.999E+003 -9.999E+003 -9.999E+003 -9.999E+003 -9.999E+003 -9.999E+003 -9.999E+003 -9.999E+003 -9.999E+003 -9.999E+003 -9.999E+003 -9.999E+003 -9.999E+003 -9.999E+003 -9.999E+003 -9.999E+003 -9.999E+003 -9.999E+003 -9.999E+003 -9.999E+003 -9.999E+003 -9.999E+003 -9.999E+003 -9.999E+003 -9.999E+003 -9.999E+003 -9.999E+003 -9.999E+003 -9.999E+003 -9.999E+003 -9.999E+003 -9.999E+003 -9.999E+003 -9.999E+003 -9.999E+003 -9.999E+003 -9.999E+003 -9.999E+003 -9.999E+003 -9.999E+003 -9.999E+003 -9.999E+003 -9.999E+003 -9.999E+003 -9.999E+003 -9.999E+003 -9.999E+003 -9.999E+003 -9.999E+003 -9.999E+003 -9.999E+003 -9.999E+003 -9.999E+003 -9.999E+003
 -9.999E+003 -9.999E+003 -9.999E+003 -9.999E+003 -9.999E+003 -9.999E+003 -9.999E+003 -9.999E+003 -9.999E+003 -9.999E+003 -9.999E+003 -9.999E+003 -9.999E+003 -9.999E+003 -9.999E+003 -9.999E+003 -9.999E+003 -9.999E+003 -9.999E+003 -9.999E+003 -9.999E+003 -9.999E+003 -9.999E+003 -9.999E+003 -9.999E+003 -9.999E+003 -9.999E+003 -9.999E+003 -9.999E+003 -9.999E+003 -9.999E+003 -9.999E+003 -9.999E+003 -9.999E+003 -9.999E+003 -9.999E+003 -9.999E+003 -9.999E+003 -9.999E+003 -9.999E+003 -9.999E+003 -9.999E+003 -9.999E+003 -9.999E+003 -9.999E+003 -9.999E+003 -9.999E+003 -9.999E+003 -9.999E+003 -9.999E+003 -9.999E+003 -9.999E+003 -9.999E+003 -9.999E+003 -9.999E+003 -9.999E+003 -9.999E+003 -9.999E+003 -9.999E+003 -9.999E+003 -9.999E+003 -9.999E+003 -9.999E+003 -9.999E+003 -9.999E+003 -9.999E+003 -9.999E+003 -9.999E+003 -9.999E+003 -9.999E+003 -9.999E+003 -9.999E+003 -9.999E+003 -9.999E+003 -9.999E+003 -9.999E+003 -9.999E+003 -9.999E+003 -9.999E+003 -9.999E+003 -9.999E+003 -9.999E+003 -9.999E+003 -9.999E+003 -9.999E+003 -9.999E+003 -9.999E+003 -9.999E+003 -9.999E+003 -9.999E+003 -9.999E+003 -9.999E+003 -9.999E+003 -9.999E+003 -9.999E+003 -9.999E+003 -9.999E+003 -9.999E+003 -9.999E+003 -9.999E+003 -9.999E+003 -9.999E+003 -9.999E+003 -9.999E+003 -9.999E+003 -9.999E+003 -9.999E+003 -9.999E+003 -9.999E+003 -9.999E+003 -9.999E+003 -9.999E+003 -9.999E+003 -9.999E+003 -9.999E+003 -9.999E+003 -9.999E+003 -9.999E+003 -9.999E+003 -9.999E+003 -9.999E+003 -9.999E+003 -9.999E+003 -9.999E+003 -9.999E+003 -9.999E+003 -9.999E+003 -9.999E+003 -9.999E+003 -9.999E+003 -9.999E+003 -9.999E+003 -9.999E+003 -9.999E+003 -9.999E+003 -9.999E+003 -9.999E+003 -9.999E+003 -9.999E+003 -9.999E+003 -9.999E+003 -9.999E+003 -9.999E+003 -9.999E+003 -9.999E+003 -9.999E+003 -9.999E+003 -9.999E+003 -9.999E+003 -9.999E+003
 -9.999E+003 -9.999E+003 -9.999E+003 -9.999E+003 -9.999E+003 -9.999E+003 -9.999E+003 -9.999E+003 -9.999E+003 -9.999E+003 -9.999E+003 -9.999E+003 -9.999E+003 -9.999E+003 -9.999E+003 -9.999E+003 -9.999E+003 -9.999E+003 -9.999E+003 -9.999E+003 -9.999E+003 -9.999E+003 -9.999E+003 -9.999E+003 -9.999E+003 -9.999E+003 -9.999E+003 -9.999E+003 -9.999E+003 -9.999E+003 -9.999E+003 -9.999E+003 -9.999E+003 -9.999E+003 -9.999E+003 -9.999E+003 -9.999E+003 -9.999E+003 -9.999E+003 -9.999E+003 -9.999E+003 -9.999E+003 -9.999E+003 -9.999E+003 -9.999E+003 -9.999E+003 -9.999E+003 -9.999E+003 -9.999E+003 -9.999E+003 -9.999E+003 -9.999E+003 -9.999E+003 -9.999E+003 -9.999E+003 -9.999E+003 -9.999E+003 -9.999E+003 -9.999E+003 -9.999E+003 -9.999E+003 -9.999E+003 -9.999E+003 -9.999E+003 -9.999E+003 -9.999E+003 -9.999E+003 -9.999E+003 -9.999E+003 -9.999E+003 -9.999E+003 -9.999E+003 -9.999E+003 -9.999E+003 -9.999E+003 -9.999E+003 -9.999E+003 -9.999E+003 -9.999E+003 -9.999E+003 -9.999E+003 -9.999E+003 -9.999E+003 -9.999E+003 -9.999E+003 -9.999E+003 -9.999E+003 -9.999E+003 -9.999E+003 -9.999E+003 -9.999E+003 -9.999E+003 -9.999E+003 -9.999E+003 -9.999E+003 -9.999E+003 -9.999E+003 -9.999E+003 -9.999E+003 -9.999E+003 -9.999E+003 -9.999E+003 -9.999E+003 -9.999E+003 -9.999E+003 -9.999E+003 -9.999E+003 -9.999E+003 -9.999E+003 -9.999E+003 -9.999E+003 -9.999E+003 -9.999E+003 -9.999E+003 -9.999E+003 -9.999E+003 -9.999E+003 -9.999E+003 -9.999E+003 -9.999E+003 -9.999E+003 -9.999E+003 -9.999E+003 -9.999E+003 -9.999E+003 -9.999E+003 -9.999E+003 -9.999E+003 -9.999E+003 -9.999E+003 -9.999E+003 -9.999E+003 -9.999E+003 -9.999E+003 -9.999E+003 -9.999E+003 -9.999E+003 -9.999E+003 -9.999E+003 -9.999E+003 -9.999E+003 -9.999E+003 -9.999E+003 -9.999E+003 -9.999E+003 -9.999E+003 -9.999E+003 -9.999E+003 -9.999E+003 -9.999E+003
 -9.999E+003 -9.999E+003 -9.999E+003 -9.999E+003 -9.999E+003 -9.999E+003 -9.999E+003 -9.999E+003 -9.999E+003 -9.999E+003 -9.999E+003 -9.999E+003 -9.999E+003 -9.999E+003 -9.999E+003 -9.999E+003 -9.999E+003 -9.999E+003 -9.999E+003 -9.999E+003 -9.999E+003 -9.999E+003 -9.999E+003 -9.999E+003 -9.999E+003 -9.999E+003 -9.999E+003 -9.999E+003 -9.999E+003 -9.999E+003 -9.999E+003 -9.999E+003 -9.999E+003 -9.999E+003 -9.999E+003 -9.999E+003 -9.999E+003 -9.999E+003 -9.999E+003 -9.999E+003 -9.999E+003 -9.999E+003 -9.999E+003 -9.999E+003 -9.999E+003 -9.999E+003 -9.999E+003 -9.999E+003 -9.999E+003 -9.999E+003 -9.999E+003 -9.999E+003 -9.999E+003 -9.999E+003 -9.999E+003 -9.999E+003 -9.999E+003 -9.999E+003 -9.999E+003 -9.999E+003 -9.999E+003 -9.999E+003 -9.999E+003 -9.999E+003 -9.999E+003 -9.999E+003 -9.999E+003 -9.999E+003 -9.999E+003 -9.999E+003 -9.999E+003 -9.999E+003 -9.999E+003 -9.999E+003 -9.999E+003 -9.999E+003 -9.999E+003 -9.999E+003 -9.999E+003 -9.999E+003 -9.999E+003 -9.999E+003 -9.999E+003 -9.999E+003 -9.999E+003 -9.999E+003 -9.999E+003 -9.999E+003 -9.999E+003 -9.999E+003 -9.999E+003 -9.999E+003 -9.999E+003 -9.999E+003 -9.999E+003 -9.999E+003 -9.999E+003 -9.999E+003 -9.999E+003 -9.999E+003 -9.999E+003 -9.999E+003 -9.999E+003 -9.999E+003 -9.999E+003 -9.999E+003 -9.999E+003 -9.999E+003 -9.999E+003 -9.999E+003 -9.999E+003 -9.999E+003 -9.999E+003 -9.999E+003 -9.999E+003 -9.999E+003 -9.999E+003 -9.999E+003 -9.999E+003 -9.999E+003 -9.999E+003 -9.999E+003 -9.999E+003 -9.999E+003 -9.999E+003 -9.999E+003 -9.999E+003 -9.999E+003 -9.999E+003 -9.999E+003 -9.999E+003 -9.999E+003 -9.999E+003 -9.999E+003 -9.999E+003 -9.999E+003 -9.999E+003 -9.999E+003 -9.999E+003 -9.999E+003 -9.999E+003 -9.999E+003 -9.999E+003 -9.999E+003 -9.999E+003 -9.999E+003 -9.999E+003 -9.999E+003 -9.999E+003 -9.999E+003
 -9.999E+003 -9.999E+003 -9.999E+003 -9.999E+003 -9.999E+003 -9.999E+003 -9.999E+003 -9.999E+003 -9.999E+003 -9.999E+003 -9.999E+003 -9.999E+003 -9.999E+003 -9.999E+003 -9.999E+003 -9.999E+003 -9.999E+003 -9.999E+003 -9.999E+003 -9.999E+003 -9.999E+003 -9.999E+003 -9.999E+003 -9.999E+003 -9.999E+003 -9.999E+003 -9.999E+003 -9.999E+003 -9.999E+003 -9.999E+003 -9.999E+003 -9.999E+003 -9.999E+003 -9.999E+003 -9.999E+003 -9.999E+003 -9.999E+003 -9.999E+003 -9.999E+003 -9.999E+003 -9.999E+003 -9.999E+003 -9.999E+003 -9.999E+003 -9.999E+003 -9.999E+003 -9.999E+003 -9.999E+003 -9.999E+003 -9.999E+003 -9.999E+003 -9.999E+003 -9.999E+003 -9.999E+003 -9.999E+003 -9.999E+003 -9.999E+003 -9.999E+003 -9.999E+003 -9.999E+003 -9.999E+003 -9.999E+003 -9.999E+003 -9.999E+003 -9.999E+003 -9.999E+003 -9.999E+003 -9.999E+003 -9.999E+003 -9.999E+003 -9.999E+003 -9.999E+003 -9.999E+003 -9.999E+003 -9.999E+003 -9.999E+003 -9.999E+003 -9.999E+003 -9.999E+003 -9.999E+003 -9.999E+003 -9.999E+003 -9.999E+003 -9.999E+003 -9.999E+003 -9.999E+003 -9.999E+003 -9.999E+003 -9.999E+003 -9.999E+003 -9.999E+003 -9.999E+003 -9.999E+003 -9.999E+003 -9.999E+003 -9.999E+003 -9.999E+003 -9.999E+003 -9.999E+003 -9.999E+003 -9.999E+003 -9.999E+003 -9.999E+003 -9.999E+003 -9.999E+003 -9.999E+003 -9.999E+003 -9.999E+003 -9.999E+003 -9.999E+003 -9.999E+003 -9.999E+003 -9.999E+003 -9.999E+003 -9.999E+003 -9.999E+003 -9.999E+003 -9.999E+003 -9.999E+003 -9.999E+003 -9.999E+003 -9.999E+003 -9.999E+003 -9.999E+003 -9.999E+003 -9.999E+003 -9.999E+003 -9.999E+003 -9.999E+003 -9.999E+003 -9.999E+003 -9.999E+003 -9.999E+003 -9.999E+003 -9.999E+003 -9.999E+003 -9.999E+003 -9.999E+003 -9.999E+003 -9.999E+003 -9.999E+003 -9.999E+003 -9.999E+003 -9.999E+003 -9.999E+003 -9.999E+003 -9.999E+003 -9.999E+003 -9.999E+003 -9.999E+003
 -9.999E+003 -9.999E+003 -9.999E+003 -9.999E+003 -9.999E+003 -9.999E+003 -9.999E+003 -9.999E+003 -9.999E+003 -9.999E+003 -9.999E+003 -9.999E+003 -9.999E+003 -9.999E+003 -9.999E+003 -9.999E+003 -9.999E+003 -9.999E+003 -9.999E+003 -9.999E+003 -9.999E+003 -9.999E+003 -9.999E+003 -9.999E+003 -9.999E+003 -9.999E+003 -9.999E+003 -9.999E+003 -9.999E+003 -9.999E+003 -9.999E+003 -9.999E+003 -9.999E+003 -9.999E+003 -9.999E+003 -9.999E+003 -9.999E+003 -9.999E+003 -9.999E+003 -9.999E+003 -9.999E+003 -9.999E+003 -9.999E+003 -9.999E+003 -9.999E+003 -9.999E+003 -9.999E+003 -9.999E+003 -9.999E+003 -9.999E+003 -9.999E+003 -9.999E+003 -9.999E+003 -9.999E+003 -9.999E+003 -9.999E+003 -9.999E+003 -9.999E+003 -9.999E+003 -9.999E+003 -9.999E+003 -9.999E+003 -9.999E+003 -9.999E+003 -9.999E+003 -9.999E+003 -9.999E+003 -9.999E+003 -9.999E+003 -9.999E+003 -9.999E+003 -9.999E+003 -9.999E+003 -9.999E+003 -9.999E+003 -9.999E+003 -9.999E+003 -9.999E+003 -9.999E+003 -9.999E+003 -9.999E+003 -9.999E+003 -9.999E+003 -9.999E+003 -9.999E+003 -9.999E+003 -9.999E+003 -9.999E+003 -9.999E+003 -9.999E+003 -9.999E+003 -9.999E+003 -9.999E+003 -9.999E+003 -9.999E+003 -9.999E+003 -9.999E+003 -9.999E+003 -9.999E+003 -9.999E+003 -9.999E+003 -9.999E+003 -9.999E+003 -9.999E+003 -9.999E+003 -9.999E+003 -9.999E+003 -9.999E+003 -9.999E+003 -9.999E+003 -9.999E+003 -9.999E+003 -9.999E+003 -9.999E+003 -9.999E+003 -9.999E+003 -9.999E+003 -9.999E+003 -9.999E+003 -9.999E+003 -9.999E+003 -9.999E+003 -9.999E+003 -9.999E+003 -9.999E+003 -9.999E+003 -9.999E+003 -9.999E+003 -9.999E+003 -9.999E+003 -9.999E+003 -9.999E+003 -9.999E+003 -9.999E+003 -9.999E+003 -9.999E+003 -9.999E+003 -9.999E+003 -9.999E+003 -9.999E+003 -9.999E+003 -9.999E+003 -9.999E+003 -9.999E+003 -9.999E+003 -9.999E+003 -9.999E+003 -9.999E+003 -9.999E+003 -9.999E+003
 -9.999E+003 -9.999E+003 -9.999E+003 -9.999E+003 -9.999E+003 -9.999E+003 -9.999E+003 -9.999E+003 -9.999E+003 -9.999E+003 -9.999E+003 -9.999E+003 -9.999E+003 -9.999E+003 -9.999E+003 -9.999E+003 -9.999E+003 -9.999E+003 -9.999E+003 -9.999E+003 -9.999E+003 -9.999E+003 -9.999E+003 -9.999E+003 -9.999E+003 -9.999E+003 -9.999E+003 -9.999E+003 -9.999E+003 -9.999E+003 -9.999E+003 -9.999E+003 -9.999E+003 -9.999E+003 -9.999E+003 -9.999E+003 -9.999E+003 -9.999E+003 -9.999E+003 -9.999E+003 -9.999E+003 -9.999E+003 -9.999E+003 -9.999E+003 -9.999E+003 -9.999E+003 -9.999E+003 -9.999E+003 -9.999E+003 -9.999E+003 -9.999E+003 -9.999E+003 -9.999E+003 -9.999E+003 -9.999E+003 -9.999E+003 -9.999E+003 -9.999E+003 -9.999E+003 -9.999E+003 -9.999E+003 -9.999E+003 -9.999E+003 -9.999E+003 -9.999E+003 -9.999E+003 -9.999E+003 -9.999E+003 -9.999E+003 -9.999E+003 -9.999E+003 -9.999E+003 -9.999E+003 -9.999E+003 -9.999E+003 -9.999E+003 -9.999E+003 -9.999E+003 -9.999E+003 -9.999E+003 -9.999E+003 -9.999E+003 -9.999E+003 -9.999E+003 -9.999E+003 -9.999E+003 -9.999E+003 -9.999E+003 -9.999E+003 -9.999E+003 -9.999E+003 -9.999E+003 -9.999E+003 -9.999E+003 -9.999E+003 -9.999E+003 -9.999E+003 -9.999E+003 -9.999E+003 -9.999E+003 -9.999E+003 -9.999E+003 -9.999E+003 -9.999E+003 -9.999E+003 -9.999E+003 -9.999E+003 -9.999E+003 -9.999E+003 -9.999E+003 -9.999E+003 -9.999E+003 -9.999E+003 -9.999E+003 -9.999E+003 -9.999E+003 -9.999E+003 -9.999E+003 -9.999E+003 -9.999E+003 -9.999E+003 -9.999E+003 -9.999E+003 -9.999E+003 -9.999E+003 -9.999E+003 -9.999E+003 -9.999E+003 -9.999E+003 -9.999E+003 -9.999E+003 -9.999E+003 -9.999E+003 -9.999E+003 -9.999E+003 -9.999E+003 -9.999E+003 -9.999E+003 -9.999E+003 -9.999E+003 -9.999E+003 -9.999E+003 -9.999E+003 -9.999E+003 -9.999E+003 -9.999E+003 -9.999E+003 -9.999E+003 -9.999E+003 -9.999E+003
 -9.999E+003 -9.999E+003 -9.999E+003 -9.999E+003 -9.999E+003 -9.999E+003 -9.999E+003 -9.999E+003 -9.999E+003 -9.999E+003 -9.999E+003 -9.999E+003 -9.999E+003 -9.999E+003 -9.999E+003 -9.999E+003 -9.999E+003 -9.999E+003 -9.999E+003 -9.999E+003 -9.999E+003 -9.999E+003 -9.999E+003 -9.999E+003 -9.999E+003 -9.999E+003 -9.999E+003 -9.999E+003 -9.999E+003 -9.999E+003 -9.999E+003 -9.999E+003 -9.999E+003 -9.999E+003 -9.999E+003 -9.999E+003 -9.999E+003 -9.999E+003 -9.999E+003 -9.999E+003 -9.999E+003 -9.999E+003 -9.999E+003 -9.999E+003 -9.999E+003 -9.999E+003 -9.999E+003 -9.999E+003 -9.999E+003 -9.999E+003 -9.999E+003 -9.999E+003 -9.999E+003 -9.999E+003 -9.999E+003 -9.999E+003 -9.999E+003 -9.999E+003 -9.999E+003 -9.999E+003 -9.999E+003 -9.999E+003 -9.999E+003 -9.999E+003 -9.999E+003 -9.999E+003 -9.999E+003 -9.999E+003 -9.999E+003 -9.999E+003 -9.999E+003 -9.999E+003 -9.999E+003 -9.999E+003 -9.999E+003 -9.999E+003 -9.999E+003 -9.999E+003 -9.999E+003 -9.999E+003 -9.999E+003 -9.999E+003 -9.999E+003 -9.999E+003 -9.999E+003 -9.999E+003 -9.999E+003 -9.999E+003 -9.999E+003 -9.999E+003 -9.999E+003 -9.999E+003 -9.999E+003 -9.999E+003 -9.999E+003 -9.999E+003 -9.999E+003 -9.999E+003 -9.999E+003 -9.999E+003 -9.999E+003 -9.999E+003 -9.999E+003 -9.999E+003 -9.999E+003 -9.999E+003 -9.999E+003 -9.999E+003 -9.999E+003 -9.999E+003 -9.999E+003 -9.999E+003 -9.999E+003 -9.999E+003 -9.999E+003 -9.999E+003 -9.999E+003 -9.999E+003 -9.999E+003 -9.999E+003 -9.999E+003 -9.999E+003 -9.999E+003 -9.999E+003 -9.999E+003 -9.999E+003 -9.999E+003 -9.999E+003 -9.999E+003 -9.999E+003 -9.999E+003 -9.999E+003 -9.999E+003 -9.999E+003 -9.999E+003 -9.999E+003 -9.999E+003 -9.999E+003 -9.999E+003 -9.999E+003 -9.999E+003 -9.999E+003 -9.999E+003 -9.999E+003 -9.999E+003 -9.999E+003 -9.999E+003 -9.999E+003 -9.999E+003 -9.999E+003
 -9.999E+003 -9.999E+003 -9.999E+003 -9.999E+003 -9.999E+003 -9.999E+003 -9.999E+003 -9.999E+003 -9.999E+003 -9.999E+003 -9.999E+003 -9.999E+003 -9.999E+003 -9.999E+003 -9.999E+003 -9.999E+003 -9.999E+003 -9.999E+003 -9.999E+003 -9.999E+003 -9.999E+003 -9.999E+003 -9.999E+003 -9.999E+003 -9.999E+003 -9.999E+003 -9.999E+003 -9.999E+003 -9.999E+003 -9.999E+003 -9.999E+003 -9.999E+003 -9.999E+003 -9.999E+003 -9.999E+003 -9.999E+003 -9.999E+003 -9.999E+003 -9.999E+003 -9.999E+003 -9.999E+003 -9.999E+003 -9.999E+003 -9.999E+003 -9.999E+003 -9.999E+003 -9.999E+003 -9.999E+003 -9.999E+003 -9.999E+003 -9.999E+003 -9.999E+003 -9.999E+003 -9.999E+003 -9.999E+003 -9.999E+003 -9.999E+003 -9.999E+003 -9.999E+003 -9.999E+003 -9.999E+003 -9.999E+003 -9.999E+003 -9.999E+003 -9.999E+003 -9.999E+003 -9.999E+003 -9.999E+003 -9.999E+003 -9.999E+003 -9.999E+003 -9.999E+003 -9.999E+003 -9.999E+003 -9.999E+003 -9.999E+003 -9.999E+003 -9.999E+003 -9.999E+003 -9.999E+003 -9.999E+003 -9.999E+003 -9.999E+003 -9.999E+003 -9.999E+003 -9.999E+003 -9.999E+003 -9.999E+003 -9.999E+003 -9.999E+003 -9.999E+003 -9.999E+003 -9.999E+003 -9.999E+003 -9.999E+003 -9.999E+003 -9.999E+003 -9.999E+003 -9.999E+003 -9.999E+003 -9.999E+003 -9.999E+003 -9.999E+003 -9.999E+003 -9.999E+003 -9.999E+003 -9.999E+003 -9.999E+003 -9.999E+003 -9.999E+003 -9.999E+003 -9.999E+003 -9.999E+003 -9.999E+003 -9.999E+003 -9.999E+003 -9.999E+003 -9.999E+003 -9.999E+003 -9.999E+003 -9.999E+003 -9.999E+003 -9.999E+003 -9.999E+003 -9.999E+003 -9.999E+003 -9.999E+003 -9.999E+003 -9.999E+003 -9.999E+003 -9.999E+003 -9.999E+003 -9.999E+003 -9.999E+003 -9.999E+003 -9.999E+003 -9.999E+003 -9.999E+003 -9.999E+003 -9.999E+003 -9.999E+003 -9.999E+003 -9.999E+003 -9.999E+003 -9.999E+003 -9.999E+003 -9.999E+003 -9.999E+003 -9.999E+003 -9.999E+003
 -9.999E+003 -9.999E+003 -9.999E+003 -9.999E+003 -9.999E+003 -9.999E+003 -9.999E+003 -9.999E+003 -9.999E+003 -9.999E+003 -9.999E+003 -9.999E+003 -9.999E+003 -9.999E+003 -9.999E+003 -9.999E+003 -9.999E+003 -9.999E+003 -9.999E+003 -9.999E+003 -9.999E+003 -9.999E+003 -9.999E+003 -9.999E+003 -9.999E+003 -9.999E+003 -9.999E+003 -9.999E+003 -9.999E+003 -9.999E+003 -9.999E+003 -9.999E+003 -9.999E+003 -9.999E+003 -9.999E+003 -9.999E+003 -9.999E+003 -9.999E+003 -9.999E+003 -9.999E+003 -9.999E+003 -9.999E+003 -9.999E+003 -9.999E+003 -9.999E+003 -9.999E+003 -9.999E+003 -9.999E+003 -9.999E+003 -9.999E+003 -9.999E+003 -9.999E+003 -9.999E+003 -9.999E+003 -9.999E+003 -9.999E+003 -9.999E+003 -9.999E+003 -9.999E+003 -9.999E+003 -9.999E+003 -9.999E+003 -9.999E+003 -9.999E+003 -9.999E+003 -9.999E+003 -9.999E+003 -9.999E+003 -9.999E+003 -9.999E+003 -9.999E+003 -9.999E+003 -9.999E+003 -9.999E+003 -9.999E+003 -9.999E+003 -9.999E+003 -9.999E+003 -9.999E+003 -9.999E+003 -9.999E+003 -9.999E+003 -9.999E+003 -9.999E+003 -9.999E+003 -9.999E+003 -9.999E+003 -9.999E+003 -9.999E+003 -9.999E+003 -9.999E+003 -9.999E+003 -9.999E+003 -9.999E+003 -9.999E+003 -9.999E+003 -9.999E+003 -9.999E+003 -9.999E+003 -9.999E+003 -9.999E+003 -9.999E+003 -9.999E+003 -9.999E+003 -9.999E+003 -9.999E+003 -9.999E+003 -9.999E+003 -9.999E+003 -9.999E+003 -9.999E+003 -9.999E+003 -9.999E+003 -9.999E+003 -9.999E+003 -9.999E+003 -9.999E+003 -9.999E+003 -9.999E+003 -9.999E+003 -9.999E+003 -9.999E+003 -9.999E+003 -9.999E+003 -9.999E+003 -9.999E+003 -9.999E+003 -9.999E+003 -9.999E+003 -9.999E+003 -9.999E+003 -9.999E+003 -9.999E+003 -9.999E+003 -9.999E+003 -9.999E+003 -9.999E+003 -9.999E+003 -9.999E+003 -9.999E+003 -9.999E+003 -9.999E+003 -9.999E+003 -9.999E+003 -9.999E+003 -9.999E+003 -9.999E+003 -9.999E+003 -9.999E+003 -9.999E+003
 -9.999E+003 -9.999E+003 -9.999E+003 -9.999E+003 -9.999E+003 -9.999E+003 -9.999E+003 -9.999E+003 -9.999E+003 -9.999E+003 -9.999E+003 -9.999E+003 -9.999E+003 -9.999E+003 -9.999E+003 -9.999E+003 -9.999E+003 -9.999E+003 -9.999E+003 -9.999E+003 -9.999E+003 -9.999E+003 -9.999E+003 -9.999E+003 -9.999E+003 -9.999E+003 -9.999E+003 -9.999E+003 -9.999E+003 -9.999E+003 -9.999E+003 -9.999E+003 -9.999E+003 -9.999E+003 -9.999E+003 -9.999E+003 -9.999E+003 -9.999E+003 -9.999E+003 -9.999E+003 -9.999E+003 -9.999E+003 -9.999E+003 -9.999E+003 -9.999E+003 -9.999E+003 -9.999E+003 -9.999E+003 -9.999E+003 -9.999E+003 -9.999E+003 -9.999E+003 -9.999E+003 -9.999E+003 -9.999E+003 -9.999E+003 -9.999E+003 -9.999E+003 -9.999E+003 -9.999E+003 -9.999E+003 -9.999E+003 -9.999E+003 -9.999E+003 -9.999E+003 -9.999E+003 -9.999E+003 -9.999E+003 -9.999E+003 -9.999E+003 -9.999E+003 -9.999E+003 -9.999E+003 -9.999E+003 -9.999E+003 -9.999E+003 -9.999E+003 -9.999E+003 -9.999E+003 -9.999E+003 -9.999E+003 -9.999E+003 -9.999E+003 -9.999E+003 -9.999E+003 -9.999E+003 -9.999E+003 -9.999E+003 -9.999E+003 -9.999E+003 -9.999E+003 -9.999E+003 -9.999E+003 -9.999E+003 -9.999E+003 -9.999E+003 -9.999E+003 -9.999E+003 -9.999E+003 -9.999E+003 -9.999E+003 -9.999E+003 -9.999E+003 -9.999E+003 -9.999E+003 -9.999E+003 -9.999E+003 -9.999E+003 -9.999E+003 -9.999E+003 -9.999E+003 -9.999E+003 -9.999E+003 -9.999E+003 -9.999E+003 -9.999E+003 -9.999E+003 -9.999E+003 -9.999E+003 -9.999E+003 -9.999E+003 -9.999E+003 -9.999E+003 -9.999E+003 -9.999E+003 -9.999E+003 -9.999E+003 -9.999E+003 -9.999E+003 -9.999E+003 -9.999E+003 -9.999E+003 -9.999E+003 -9.999E+003 -9.999E+003 -9.999E+003 -9.999E+003 -9.999E+003 -9.999E+003 -9.999E+003 -9.999E+003 -9.999E+003 -9.999E+003 -9.999E+003 -9.999E+003 -9.999E+003 -9.999E+003 -9.999E+003 -9.999E+003 -9.999E+003
 -9.999E+003 -9.999E+003 -9.999E+003 -9.999E+003 -9.999E+003 -9.999E+003 -9.999E+003 -9.999E+003 -9.999E+003 -9.999E+003 -9.999E+003 -9.999E+003 -9.999E+003 -9.999E+003 -9.999E+003 -9.999E+003 -9.999E+003 -9.999E+003 -9.999E+003 -9.999E+003 -9.999E+003 -9.999E+003 -9.999E+003 -9.999E+003 -9.999E+003 -9.999E+003 -9.999E+003 -9.999E+003 -9.999E+003 -9.999E+003 -9.999E+003 -9.999E+003 -9.999E+003 -9.999E+003 -9.999E+003 -9.999E+003 -9.999E+003 -9.999E+003 -9.999E+003 -9.999E+003 -9.999E+003 -9.999E+003 -9.999E+003 -9.999E+003 -9.999E+003 -9.999E+003 -9.999E+003 -9.999E+003 -9.999E+003 -9.999E+003 -9.999E+003 -9.999E+003 -9.999E+003 -9.999E+003 -9.999E+003 -9.999E+003 -9.999E+003 -9.999E+003 -9.999E+003 -9.999E+003 -9.999E+003 -9.999E+003 -9.999E+003 -9.999E+003 -9.999E+003 -9.999E+003 -9.999E+003 -9.999E+003 -9.999E+003 -9.999E+003 -9.999E+003 -9.999E+003 -9.999E+003 -9.999E+003 -9.999E+003 -9.999E+003 -9.999E+003 -9.999E+003 -9.999E+003 -9.999E+003 -9.999E+003 -9.999E+003 -9.999E+003 -9.999E+003 -9.999E+003 -9.999E+003 -9.999E+003 -9.999E+003 -9.999E+003 -9.999E+003 -9.999E+003 -9.999E+003 -9.999E+003 -9.999E+003 -9.999E+003 -9.999E+003 -9.999E+003 -9.999E+003 -9.999E+003 -9.999E+003 -9.999E+003 -9.999E+003 -9.999E+003 -9.999E+003 -9.999E+003 -9.999E+003 -9.999E+003 -9.999E+003 -9.999E+003 -9.999E+003 -9.999E+003 -9.999E+003 -9.999E+003 -9.999E+003 -9.999E+003 -9.999E+003 -9.999E+003 -9.999E+003 -9.999E+003 -9.999E+003 -9.999E+003 -9.999E+003 -9.999E+003 -9.999E+003 -9.999E+003 -9.999E+003 -9.999E+003 -9.999E+003 -9.999E+003 -9.999E+003 -9.999E+003 -9.999E+003 -9.999E+003 -9.999E+003 -9.999E+003 -9.999E+003 -9.999E+003 -9.999E+003 -9.999E+003 -9.999E+003 -9.999E+003 -9.999E+003 -9.999E+003 -9.999E+003 -9.999E+003 -9.999E+003 -9.999E+003 -9.999E+003 -9.999E+003 -9.999E+003
 -9.999E+003 -9.999E+003 -9.999E+003 -9.999E+003 -9.999E+003 -9.999E+003 -9.999E+003 -9.999E+003 -9.999E+003 -9.999E+003 -9.999E+003 -9.999E+003 -9.999E+003 -9.999E+003 -9.999E+003 -9.999E+003 -9.999E+003 -9.999E+003 -9.999E+003 -9.999E+003 -9.999E+003 -9.999E+003 -9.999E+003 -9.999E+003 -9.999E+003 -9.999E+003 -9.999E+003 -9.999E+003 -9.999E+003 -9.999E+003 -9.999E+003 -9.999E+003 -9.999E+003 -9.999E+003 -9.999E+003 -9.999E+003 -9.999E+003 -9.999E+003 -9.999E+003 -9.999E+003 -9.999E+003 -9.999E+003 -9.999E+003 -9.999E+003 -9.999E+003 -9.999E+003 -9.999E+003 -9.999E+003 -9.999E+003 -9.999E+003 -9.999E+003 -9.999E+003 -9.999E+003 -9.999E+003 -9.999E+003 -9.999E+003 -9.999E+003 -9.999E+003 -9.999E+003 -9.999E+003 -9.999E+003 -9.999E+003 -9.999E+003 -9.999E+003 -9.999E+003 -9.999E+003 -9.999E+003 -9.999E+003 -9.999E+003 -9.999E+003 -9.999E+003 -9.999E+003 -9.999E+003 -9.999E+003 -9.999E+003 -9.999E+003 -9.999E+003 -9.999E+003 -9.999E+003 -9.999E+003 -9.999E+003 -9.999E+003 -9.999E+003 -9.999E+003 -9.999E+003 -9.999E+003 -9.999E+003 -9.999E+003 -9.999E+003 -9.999E+003 -9.999E+003 -9.999E+003 -9.999E+003 -9.999E+003 -9.999E+003 -9.999E+003 -9.999E+003 -9.999E+003 -9.999E+003 -9.999E+003 -9.999E+003 -9.999E+003 -9.999E+003 -9.999E+003 -9.999E+003 -9.999E+003 -9.999E+003 -9.999E+003 -9.999E+003 -9.999E+003 -9.999E+003 -9.999E+003 -9.999E+003 -9.999E+003 -9.999E+003 -9.999E+003 -9.999E+003 -9.999E+003 -9.999E+003 -9.999E+003 -9.999E+003 -9.999E+003 -9.999E+003 -9.999E+003 -9.999E+003 -9.999E+003 -9.999E+003 -9.999E+003 -9.999E+003 -9.999E+003 -9.999E+003 -9.999E+003 -9.999E+003 -9.999E+003 -9.999E+003 -9.999E+003 -9.999E+003 -9.999E+003 -9.999E+003 -9.999E+003 -9.999E+003 -9.999E+003 -9.999E+003 -9.999E+003 -9.999E+003 -9.999E+003 -9.999E+003 -9.999E+003 -9.999E+003 -9.999E+003
 -9.999E+003 -9.999E+003 -9.999E+003 -9.999E+003 -9.999E+003 -9.999E+003 -9.999E+003 -9.999E+003 -9.999E+003 -9.999E+003 -9.999E+003 -9.999E+003 -9.999E+003 -9.999E+003 -9.999E+003 -9.999E+003 -9.999E+003 -9.999E+003 -9.999E+003 -9.999E+003 -9.999E+003 -9.999E+003 -9.999E+003 -9.999E+003 -9.999E+003 -9.999E+003 -9.999E+003 -9.999E+003 -9.999E+003 -9.999E+003 -9.999E+003 -9.999E+003 -9.999E+003 -9.999E+003 -9.999E+003 -9.999E+003 -9.999E+003 -9.999E+003 -9.999E+003 -9.999E+003 -9.999E+003 -9.999E+003 -9.999E+003 -9.999E+003 -9.999E+003 -9.999E+003 -9.999E+003 -9.999E+003 -9.999E+003 -9.999E+003 -9.999E+003 -9.999E+003 -9.999E+003 -9.999E+003 -9.999E+003 -9.999E+003 -9.999E+003 -9.999E+003 -9.999E+003 -9.999E+003 -9.999E+003 -9.999E+003 -9.999E+003 -9.999E+003 -9.999E+003 -9.999E+003 -9.999E+003 -9.999E+003 -9.999E+003 -9.999E+003 -9.999E+003 -9.999E+003 -9.999E+003 -9.999E+003 -9.999E+003 -9.999E+003 -9.999E+003 -9.999E+003 -9.999E+003 -9.999E+003 -9.999E+003 -9.999E+003 -9.999E+003 -9.999E+003 -9.999E+003 -9.999E+003 -9.999E+003 -9.999E+003 -9.999E+003 -9.999E+003 -9.999E+003 -9.999E+003 -9.999E+003 -9.999E+003 -9.999E+003 -9.999E+003 -9.999E+003 -9.999E+003 -9.999E+003 -9.999E+003 -9.999E+003 -9.999E+003 -9.999E+003 -9.999E+003 -9.999E+003 -9.999E+003 -9.999E+003 -9.999E+003 -9.999E+003 -9.999E+003 -9.999E+003 -9.999E+003 -9.999E+003 -9.999E+003 -9.999E+003 -9.999E+003 -9.999E+003 -9.999E+003 -9.999E+003 -9.999E+003 -9.999E+003 -9.999E+003 -9.999E+003 -9.999E+003 -9.999E+003 -9.999E+003 -9.999E+003 -9.999E+003 -9.999E+003 -9.999E+003 -9.999E+003 -9.999E+003 -9.999E+003 -9.999E+003 -9.999E+003 -9.999E+003 -9.999E+003 -9.999E+003 -9.999E+003 -9.999E+003 -9.999E+003 -9.999E+003 -9.999E+003 -9.999E+003 -9.999E+003 -9.999E+003 -9.999E+003 -9.999E+003 -9.999E+003 -9.999E+003
 -9.999E+003 -9.999E+003 -9.999E+003 -9.999E+003 -9.999E+003 -9.999E+003 -9.999E+003 -9.999E+003 -9.999E+003 -9.999E+003 -9.999E+003 -9.999E+003 -9.999E+003 -9.999E+003 -9.999E+003 -9.999E+003 -9.999E+003 -9.999E+003 -9.999E+003 -9.999E+003 -9.999E+003 -9.999E+003 -9.999E+003 -9.999E+003 -9.999E+003 -9.999E+003 -9.999E+003 -9.999E+003 -9.999E+003 -9.999E+003 -9.999E+003 -9.999E+003 -9.999E+003 -9.999E+003 -9.999E+003 -9.999E+003 -9.999E+003 -9.999E+003 -9.999E+003 -9.999E+003 -9.999E+003 -9.999E+003 -9.999E+003 -9.999E+003 -9.999E+003 -9.999E+003 -9.999E+003 -9.999E+003 -9.999E+003 -9.999E+003 -9.999E+003 -9.999E+003 -9.999E+003 -9.999E+003 -9.999E+003 -9.999E+003 -9.999E+003 -9.999E+003 -9.999E+003 -9.999E+003 -9.999E+003 -9.999E+003 -9.999E+003 -9.999E+003 -9.999E+003 -9.999E+003 -9.999E+003 -9.999E+003 -9.999E+003 -9.999E+003 -9.999E+003 -9.999E+003 -9.999E+003 -9.999E+003 -9.999E+003 -9.999E+003 -9.999E+003 -9.999E+003 -9.999E+003 -9.999E+003 -9.999E+003 -9.999E+003 -9.999E+003 -9.999E+003 -9.999E+003 -9.999E+003 -9.999E+003 -9.999E+003 -9.999E+003 -9.999E+003 -9.999E+003 -9.999E+003 -9.999E+003 -9.999E+003 -9.999E+003 -9.999E+003 -9.999E+003 -9.999E+003 -9.999E+003 -9.999E+003 -9.999E+003 -9.999E+003 -9.999E+003 -9.999E+003 -9.999E+003 -9.999E+003 -9.999E+003 -9.999E+003 -9.999E+003 -9.999E+003 -9.999E+003 -9.999E+003 -9.999E+003 -9.999E+003 -9.999E+003 -9.999E+003 -9.999E+003 -9.999E+003 -9.999E+003 -9.999E+003 -9.999E+003 -9.999E+003 -9.999E+003 -9.999E+003 -9.999E+003 -9.999E+003 -9.999E+003 -9.999E+003 -9.999E+003 -9.999E+003 -9.999E+003 -9.999E+003 -9.999E+003 -9.999E+003 -9.999E+003 -9.999E+003 -9.999E+003 -9.999E+003 -9.999E+003 -9.999E+003 -9.999E+003 -9.999E+003 -9.999E+003 -9.999E+003 -9.999E+003 -9.999E+003 -9.999E+003 -9.999E+003 -9.999E+003 -9.999E+003
 -9.999E+003 -9.999E+003 -9.999E+003 -9.999E+003 -9.999E+003 -9.999E+003 -9.999E+003 -9.999E+003 -9.999E+003 -9.999E+003 -9.999E+003 -9.999E+003 -9.999E+003 -9.999E+003 -9.999E+003 -9.999E+003 -9.999E+003 -9.999E+003 -9.999E+003 -9.999E+003 -9.999E+003 -9.999E+003 -9.999E+003 -9.999E+003 -9.999E+003 -9.999E+003 -9.999E+003 -9.999E+003 -9.999E+003 -9.999E+003 -9.999E+003 -9.999E+003 -9.999E+003 -9.999E+003 -9.999E+003 -9.999E+003 -9.999E+003 -9.999E+003 -9.999E+003 -9.999E+003 -9.999E+003 -9.999E+003 -9.999E+003 -9.999E+003 -9.999E+003 -9.999E+003 -9.999E+003 -9.999E+003 -9.999E+003 -9.999E+003 -9.999E+003 -9.999E+003 -9.999E+003 -9.999E+003 -9.999E+003 -9.999E+003 -9.999E+003 -9.999E+003 -9.999E+003 -9.999E+003 -9.999E+003 -9.999E+003 -9.999E+003 -9.999E+003 -9.999E+003 -9.999E+003 -9.999E+003 -9.999E+003 -9.999E+003 -9.999E+003 -9.999E+003 -9.999E+003 -9.999E+003 -9.999E+003 -9.999E+003 -9.999E+003 -9.999E+003 -9.999E+003 -9.999E+003 -9.999E+003 -9.999E+003 -9.999E+003 -9.999E+003 -9.999E+003 -9.999E+003 -9.999E+003 -9.999E+003 -9.999E+003 -9.999E+003 -9.999E+003 -9.999E+003 -9.999E+003 -9.999E+003 -9.999E+003 -9.999E+003 -9.999E+003 -9.999E+003 -9.999E+003 -9.999E+003 -9.999E+003 -9.999E+003 -9.999E+003 -9.999E+003 -9.999E+003 -9.999E+003 -9.999E+003 -9.999E+003 -9.999E+003 -9.999E+003 -9.999E+003 -9.999E+003 -9.999E+003 -9.999E+003 -9.999E+003 -9.999E+003 -9.999E+003 -9.999E+003 -9.999E+003 -9.999E+003 -9.999E+003 -9.999E+003 -9.999E+003 -9.999E+003 -9.999E+003 -9.999E+003 -9.999E+003 -9.999E+003 -9.999E+003 -9.999E+003 -9.999E+003 -9.999E+003 -9.999E+003 -9.999E+003 -9.999E+003 -9.999E+003 -9.999E+003 -9.999E+003 -9.999E+003 -9.999E+003 -9.999E+003 -9.999E+003 -9.999E+003 -9.999E+003 -9.999E+003 -9.999E+003 -9.999E+003 -9.999E+003 -9.999E+003 -9.999E+003 -9.999E+003
 -9.999E+003 -9.999E+003 -9.999E+003 -9.999E+003 -9.999E+003 -9.999E+003 -9.999E+003 -9.999E+003 -9.999E+003 -9.999E+003 -9.999E+003 -9.999E+003 -9.999E+003 -9.999E+003 -9.999E+003 -9.999E+003 -9.999E+003 -9.999E+003 -9.999E+003 -9.999E+003 -9.999E+003 -9.999E+003 -9.999E+003 -9.999E+003 -9.999E+003 -9.999E+003 -9.999E+003 -9.999E+003 -9.999E+003 -9.999E+003 -9.999E+003 -9.999E+003 -9.999E+003 -9.999E+003 -9.999E+003 -9.999E+003 -9.999E+003 -9.999E+003 -9.999E+003 -9.999E+003 -9.999E+003 -9.999E+003 -9.999E+003 -9.999E+003 -9.999E+003 -9.999E+003 -9.999E+003 -9.999E+003 -9.999E+003 -9.999E+003 -9.999E+003 -9.999E+003 -9.999E+003 -9.999E+003 -9.999E+003 -9.999E+003 -9.999E+003 -9.999E+003 -9.999E+003 -9.999E+003 -9.999E+003 -9.999E+003 -9.999E+003 -9.999E+003 -9.999E+003 -9.999E+003 -9.999E+003 -9.999E+003 -9.999E+003 -9.999E+003 -9.999E+003 -9.999E+003 -9.999E+003 -9.999E+003 -9.999E+003 -9.999E+003 -9.999E+003 -9.999E+003 -9.999E+003 -9.999E+003 -9.999E+003 -9.999E+003 -9.999E+003 -9.999E+003 -9.999E+003 -9.999E+003 -9.999E+003 -9.999E+003 -9.999E+003 -9.999E+003 -9.999E+003 -9.999E+003 -9.999E+003 -9.999E+003 -9.999E+003 -9.999E+003 -9.999E+003 -9.999E+003 -9.999E+003 -9.999E+003 -9.999E+003 -9.999E+003 -9.999E+003 -9.999E+003 -9.999E+003 -9.999E+003 -9.999E+003 -9.999E+003 -9.999E+003 -9.999E+003 -9.999E+003 -9.999E+003 -9.999E+003 -9.999E+003 -9.999E+003 -9.999E+003 -9.999E+003 -9.999E+003 -9.999E+003 -9.999E+003 -9.999E+003 -9.999E+003 -9.999E+003 -9.999E+003 -9.999E+003 -9.999E+003 -9.999E+003 -9.999E+003 -9.999E+003 -9.999E+003 -9.999E+003 -9.999E+003 -9.999E+003 -9.999E+003 -9.999E+003 -9.999E+003 -9.999E+003 -9.999E+003 -9.999E+003 -9.999E+003 -9.999E+003 -9.999E+003 -9.999E+003 -9.999E+003 -9.999E+003 -9.999E+003 -9.999E+003 -9.999E+003 -9.999E+003 -9.999E+003
 -9.999E+003 -9.999E+003 -9.999E+003 -9.999E+003 -9.999E+003 -9.999E+003 -9.999E+003 -9.999E+003 -9.999E+003 -9.999E+003 -9.999E+003 -9.999E+003 -9.999E+003 -9.999E+003 -9.999E+003 -9.999E+003 -9.999E+003 -9.999E+003 -9.999E+003 -9.999E+003 -9.999E+003 -9.999E+003 -9.999E+003 -9.999E+003 -9.999E+003 -9.999E+003 -9.999E+003 -9.999E+003 -9.999E+003 -9.999E+003 -9.999E+003 -9.999E+003 -9.999E+003 -9.999E+003 -9.999E+003 -9.999E+003 -9.999E+003 -9.999E+003 -9.999E+003 -9.999E+003 -9.999E+003 -9.999E+003 -9.999E+003 -9.999E+003 -9.999E+003 -9.999E+003 -9.999E+003 -9.999E+003 -9.999E+003 -9.999E+003 -9.999E+003 -9.999E+003 -9.999E+003 -9.999E+003 -9.999E+003 -9.999E+003 -9.999E+003 -9.999E+003 -9.999E+003 -9.999E+003 -9.999E+003 -9.999E+003 -9.999E+003 -9.999E+003 -9.999E+003 -9.999E+003 -9.999E+003 -9.999E+003 -9.999E+003 -9.999E+003 -9.999E+003 -9.999E+003 -9.999E+003 -9.999E+003 -9.999E+003 -9.999E+003 -9.999E+003 -9.999E+003 -9.999E+003 -9.999E+003 -9.999E+003 -9.999E+003 -9.999E+003 -9.999E+003 -9.999E+003 -9.999E+003 -9.999E+003 -9.999E+003 -9.999E+003 -9.999E+003 -9.999E+003 -9.999E+003 -9.999E+003 -9.999E+003 -9.999E+003 -9.999E+003 -9.999E+003 -9.999E+003 -9.999E+003 -9.999E+003 -9.999E+003 -9.999E+003 -9.999E+003 -9.999E+003 -9.999E+003 -9.999E+003 -9.999E+003 -9.999E+003 -9.999E+003 -9.999E+003 -9.999E+003 -9.999E+003 -9.999E+003 -9.999E+003 -9.999E+003 -9.999E+003 -9.999E+003 -9.999E+003 -9.999E+003 -9.999E+003 -9.999E+003 -9.999E+003 -9.999E+003 -9.999E+003 -9.999E+003 -9.999E+003 -9.999E+003 -9.999E+003 -9.999E+003 -9.999E+003 -9.999E+003 -9.999E+003 -9.999E+003 -9.999E+003 -9.999E+003 -9.999E+003 -9.999E+003 -9.999E+003 -9.999E+003 -9.999E+003 -9.999E+003 -9.999E+003 -9.999E+003 -9.999E+003 -9.999E+003 -9.999E+003 -9.999E+003 -9.999E+003 -9.999E+003 -9.999E+003
 -9.999E+003 -9.999E+003 -9.999E+003 -9.999E+003 -9.999E+003 -9.999E+003 -9.999E+003 -9.999E+003 -9.999E+003 -9.999E+003 -9.999E+003 -9.999E+003 -9.999E+003 -9.999E+003 -9.999E+003 -9.999E+003 -9.999E+003 -9.999E+003 -9.999E+003 -9.999E+003 -9.999E+003 -9.999E+003 -9.999E+003 -9.999E+003 -9.999E+003 -9.999E+003 -9.999E+003 -9.999E+003 -9.999E+003 -9.999E+003 -9.999E+003 -9.999E+003 -9.999E+003 -9.999E+003 -9.999E+003 -9.999E+003 -9.999E+003 -9.999E+003 -9.999E+003 -9.999E+003 -9.999E+003 -9.999E+003 -9.999E+003 -9.999E+003 -9.999E+003 -9.999E+003 -9.999E+003 -9.999E+003 -9.999E+003 -9.999E+003 -9.999E+003 -9.999E+003 -9.999E+003 -9.999E+003 -9.999E+003 -9.999E+003 -9.999E+003 -9.999E+003 -9.999E+003 -9.999E+003 -9.999E+003 -9.999E+003 -9.999E+003 -9.999E+003 -9.999E+003 -9.999E+003 -9.999E+003 -9.999E+003 -9.999E+003 -9.999E+003 -9.999E+003 -9.999E+003 -9.999E+003 -9.999E+003 -9.999E+003 -9.999E+003 -9.999E+003 -9.999E+003 -9.999E+003 -9.999E+003 -9.999E+003 -9.999E+003 -9.999E+003 -9.999E+003 -9.999E+003 -9.999E+003 -9.999E+003 -9.999E+003 -9.999E+003 -9.999E+003 -9.999E+003 -9.999E+003 -9.999E+003 -9.999E+003 -9.999E+003 -9.999E+003 -9.999E+003 -9.999E+003 -9.999E+003 -9.999E+003 -9.999E+003 -9.999E+003 -9.999E+003 -9.999E+003 -9.999E+003 -9.999E+003 -9.999E+003 -9.999E+003 -9.999E+003 -9.999E+003 -9.999E+003 -9.999E+003 -9.999E+003 -9.999E+003 -9.999E+003 -9.999E+003 -9.999E+003 -9.999E+003 -9.999E+003 -9.999E+003 -9.999E+003 -9.999E+003 -9.999E+003 -9.999E+003 -9.999E+003 -9.999E+003 -9.999E+003 -9.999E+003 -9.999E+003 -9.999E+003 -9.999E+003 -9.999E+003 -9.999E+003 -9.999E+003 -9.999E+003 -9.999E+003 -9.999E+003 -9.999E+003 -9.999E+003 -9.999E+003 -9.999E+003 -9.999E+003 -9.999E+003 -9.999E+003 -9.999E+003 -9.999E+003 -9.999E+003 -9.999E+003 -9.999E+003 -9.999E+003
 -9.999E+003 -9.999E+003 -9.999E+003 -9.999E+003 -9.999E+003 -9.999E+003 -9.999E+003 -9.999E+003 -9.999E+003 -9.999E+003 -9.999E+003 -9.999E+003 -9.999E+003 -9.999E+003 -9.999E+003 -9.999E+003 -9.999E+003 -9.999E+003 -9.999E+003 -9.999E+003 -9.999E+003 -9.999E+003 -9.999E+003 -9.999E+003 -9.999E+003 -9.999E+003 -9.999E+003 -9.999E+003 -9.999E+003 -9.999E+003 -9.999E+003 -9.999E+003 -9.999E+003 -9.999E+003 -9.999E+003 -9.999E+003 -9.999E+003 -9.999E+003 -9.999E+003 -9.999E+003 -9.999E+003 -9.999E+003 -9.999E+003 -9.999E+003 -9.999E+003 -9.999E+003 -9.999E+003 -9.999E+003 -9.999E+003 -9.999E+003 -9.999E+003 -9.999E+003 -9.999E+003 -9.999E+003 -9.999E+003 -9.999E+003 -9.999E+003 -9.999E+003 -9.999E+003 -9.999E+003 -9.999E+003 -9.999E+003 -9.999E+003 -9.999E+003 -9.999E+003 -9.999E+003 -9.999E+003 -9.999E+003 -9.999E+003 -9.999E+003 -9.999E+003 -9.999E+003 -9.999E+003 -9.999E+003 -9.999E+003 -9.999E+003 -9.999E+003 -9.999E+003 -9.999E+003 -9.999E+003 -9.999E+003 -9.999E+003 -9.999E+003 -9.999E+003 -9.999E+003 -9.999E+003 -9.999E+003 -9.999E+003 -9.999E+003 -9.999E+003 -9.999E+003 -9.999E+003 -9.999E+003 -9.999E+003 -9.999E+003 -9.999E+003 -9.999E+003 -9.999E+003 -9.999E+003 -9.999E+003 -9.999E+003 -9.999E+003 -9.999E+003 -9.999E+003 -9.999E+003 -9.999E+003 -9.999E+003 -9.999E+003 -9.999E+003 -9.999E+003 -9.999E+003 -9.999E+003 -9.999E+003 -9.999E+003 -9.999E+003 -9.999E+003 -9.999E+003 -9.999E+003 -9.999E+003 -9.999E+003 -9.999E+003 -9.999E+003 -9.999E+003 -9.999E+003 -9.999E+003 -9.999E+003 -9.999E+003 -9.999E+003 -9.999E+003 -9.999E+003 -9.999E+003 -9.999E+003 -9.999E+003 -9.999E+003 -9.999E+003 -9.999E+003 -9.999E+003 -9.999E+003 -9.999E+003 -9.999E+003 -9.999E+003 -9.999E+003 -9.999E+003 -9.999E+003 -9.999E+003 -9.999E+003 -9.999E+003 -9.999E+003 -9.999E+003 -9.999E+003
 -9.999E+003 -9.999E+003 -9.999E+003 -9.999E+003 -9.999E+003 -9.999E+003 -9.999E+003 -9.999E+003 -9.999E+003 -9.999E+003 -9.999E+003 -9.999E+003 -9.999E+003 -9.999E+003 -9.999E+003 -9.999E+003 -9.999E+003 -9.999E+003 -9.999E+003 -9.999E+003 -9.999E+003 -9.999E+003 -9.999E+003 -9.999E+003 -9.999E+003 -9.999E+003 -9.999E+003 -9.999E+003 -9.999E+003 -9.999E+003 -9.999E+003 -9.999E+003 -9.999E+003 -9.999E+003 -9.999E+003 -9.999E+003 -9.999E+003 -9.999E+003 -9.999E+003 -9.999E+003 -9.999E+003 -9.999E+003 -9.999E+003 -9.999E+003 -9.999E+003 -9.999E+003 -9.999E+003 -9.999E+003 -9.999E+003 -9.999E+003 -9.999E+003 -9.999E+003 -9.999E+003 -9.999E+003 -9.999E+003 -9.999E+003 -9.999E+003 -9.999E+003 -9.999E+003 -9.999E+003 -9.999E+003 -9.999E+003 -9.999E+003 -9.999E+003 -9.999E+003 -9.999E+003 -9.999E+003 -9.999E+003 -9.999E+003 -9.999E+003 -9.999E+003 -9.999E+003 -9.999E+003 -9.999E+003 -9.999E+003 -9.999E+003 -9.999E+003 -9.999E+003 -9.999E+003 -9.999E+003 -9.999E+003 -9.999E+003 -9.999E+003 -9.999E+003 -9.999E+003 -9.999E+003 -9.999E+003 -9.999E+003 -9.999E+003 -9.999E+003 -9.999E+003 -9.999E+003 -9.999E+003 -9.999E+003 -9.999E+003 -9.999E+003 -9.999E+003 -9.999E+003 -9.999E+003 -9.999E+003 -9.999E+003 -9.999E+003 -9.999E+003 -9.999E+003 -9.999E+003 -9.999E+003 -9.999E+003 -9.999E+003 -9.999E+003 -9.999E+003 -9.999E+003 -9.999E+003 -9.999E+003 -9.999E+003 -9.999E+003 -9.999E+003 -9.999E+003 -9.999E+003 -9.999E+003 -9.999E+003 -9.999E+003 -9.999E+003 -9.999E+003 -9.999E+003 -9.999E+003 -9.999E+003 -9.999E+003 -9.999E+003 -9.999E+003 -9.999E+003 -9.999E+003 -9.999E+003 -9.999E+003 -9.999E+003 -9.999E+003 -9.999E+003 -9.999E+003 -9.999E+003 -9.999E+003 -9.999E+003 -9.999E+003 -9.999E+003 -9.999E+003 -9.999E+003 -9.999E+003 -9.999E+003 -9.999E+003 -9.999E+003 -9.999E+003 -9.999E+003
 -9.999E+003 -9.999E+003 -9.999E+003 -9.999E+003 -9.999E+003 -9.999E+003 -9.999E+003 -9.999E+003 -9.999E+003 -9.999E+003 -9.999E+003 -9.999E+003 -9.999E+003 -9.999E+003 -9.999E+003 -9.999E+003 -9.999E+003 -9.999E+003 -9.999E+003 -9.999E+003 -9.999E+003 -9.999E+003 -9.999E+003 -9.999E+003 -9.999E+003 -9.999E+003 -9.999E+003 -9.999E+003 -9.999E+003 -9.999E+003 -9.999E+003 -9.999E+003 -9.999E+003 -9.999E+003 -9.999E+003 -9.999E+003 -9.999E+003 -9.999E+003 -9.999E+003 -9.999E+003 -9.999E+003 -9.999E+003 -9.999E+003 -9.999E+003 -9.999E+003 -9.999E+003 -9.999E+003 -9.999E+003 -9.999E+003 -9.999E+003 -9.999E+003 -9.999E+003 -9.999E+003 -9.999E+003 -9.999E+003 -9.999E+003 -9.999E+003 -9.999E+003 -9.999E+003 -9.999E+003 -9.999E+003 -9.999E+003 -9.999E+003 -9.999E+003 -9.999E+003 -9.999E+003 -9.999E+003 -9.999E+003 -9.999E+003 -9.999E+003 -9.999E+003 -9.999E+003 -9.999E+003 -9.999E+003 -9.999E+003 -9.999E+003 -9.999E+003 -9.999E+003 -9.999E+003 -9.999E+003 -9.999E+003 -9.999E+003 -9.999E+003 -9.999E+003 -9.999E+003 -9.999E+003 -9.999E+003 -9.999E+003 -9.999E+003 -9.999E+003 -9.999E+003 -9.999E+003 -9.999E+003 -9.999E+003 -9.999E+003 -9.999E+003 -9.999E+003 -9.999E+003 -9.999E+003 -9.999E+003 -9.999E+003 -9.999E+003 -9.999E+003 -9.999E+003 -9.999E+003 -9.999E+003 -9.999E+003 -9.999E+003 -9.999E+003 -9.999E+003 -9.999E+003 -9.999E+003 -9.999E+003 -9.999E+003 -9.999E+003 -9.999E+003 -9.999E+003 -9.999E+003 -9.999E+003 -9.999E+003 -9.999E+003 -9.999E+003 -9.999E+003 -9.999E+003 -9.999E+003 -9.999E+003 -9.999E+003 -9.999E+003 -9.999E+003 -9.999E+003 -9.999E+003 -9.999E+003 -9.999E+003 -9.999E+003 -9.999E+003 -9.999E+003 -9.999E+003 -9.999E+003 -9.999E+003 -9.999E+003 -9.999E+003 -9.999E+003 -9.999E+003 -9.999E+003 -9.999E+003 -9.999E+003 -9.999E+003 -9.999E+003 -9.999E+003 -9.999E+003
 -9.999E+003 -9.999E+003 -9.999E+003 -9.999E+003 -9.999E+003 -9.999E+003 -9.999E+003 -9.999E+003 -9.999E+003 -9.999E+003 -9.999E+003 -9.999E+003 -9.999E+003 -9.999E+003 -9.999E+003 -9.999E+003 -9.999E+003 -9.999E+003 -9.999E+003 -9.999E+003 -9.999E+003 -9.999E+003 -9.999E+003 -9.999E+003 -9.999E+003 -9.999E+003 -9.999E+003 -9.999E+003 -9.999E+003 -9.999E+003 -9.999E+003 -9.999E+003 -9.999E+003 -9.999E+003 -9.999E+003 -9.999E+003 -9.999E+003 -9.999E+003 -9.999E+003 -9.999E+003 -9.999E+003 -9.999E+003 -9.999E+003 -9.999E+003 -9.999E+003 -9.999E+003 -9.999E+003 -9.999E+003 -9.999E+003 -9.999E+003 -9.999E+003 -9.999E+003 -9.999E+003 -9.999E+003 -9.999E+003 -9.999E+003 -9.999E+003 -9.999E+003 -9.999E+003 -9.999E+003 -9.999E+003 -9.999E+003 -9.999E+003 -9.999E+003 -9.999E+003 -9.999E+003 -9.999E+003 -9.999E+003 -9.999E+003 -9.999E+003 -9.999E+003 -9.999E+003 -9.999E+003 -9.999E+003 -9.999E+003 -9.999E+003 -9.999E+003 -9.999E+003 -9.999E+003 -9.999E+003 -9.999E+003 -9.999E+003 -9.999E+003 -9.999E+003 -9.999E+003 -9.999E+003 -9.999E+003 -9.999E+003 -9.999E+003 -9.999E+003 -9.999E+003 -9.999E+003 -9.999E+003 -9.999E+003 -9.999E+003 -9.999E+003 -9.999E+003 -9.999E+003 -9.999E+003 -9.999E+003 -9.999E+003 -9.999E+003 -9.999E+003 -9.999E+003 -9.999E+003 -9.999E+003 -9.999E+003 -9.999E+003 -9.999E+003 -9.999E+003 -9.999E+003 -9.999E+003 -9.999E+003 -9.999E+003 -9.999E+003 -9.999E+003 -9.999E+003 -9.999E+003 -9.999E+003 -9.999E+003 -9.999E+003 -9.999E+003 -9.999E+003 -9.999E+003 -9.999E+003 -9.999E+003 -9.999E+003 -9.999E+003 -9.999E+003 -9.999E+003 -9.999E+003 -9.999E+003 -9.999E+003 -9.999E+003 -9.999E+003 -9.999E+003 -9.999E+003 -9.999E+003 -9.999E+003 -9.999E+003 -9.999E+003 -9.999E+003 -9.999E+003 -9.999E+003 -9.999E+003 -9.999E+003 -9.999E+003 -9.999E+003 -9.999E+003 -9.999E+003
 -9.999E+003 -9.999E+003 -9.999E+003 -9.999E+003 -9.999E+003 -9.999E+003 -9.999E+003 -9.999E+003 -9.999E+003 -9.999E+003 -9.999E+003 -9.999E+003 -9.999E+003 -9.999E+003 -9.999E+003 -9.999E+003 -9.999E+003 -9.999E+003 -9.999E+003 -9.999E+003 -9.999E+003 -9.999E+003 -9.999E+003 -9.999E+003 -9.999E+003 -9.999E+003 -9.999E+003 -9.999E+003 -9.999E+003 -9.999E+003 -9.999E+003 -9.999E+003 -9.999E+003 -9.999E+003 -9.999E+003 -9.999E+003 -9.999E+003 -9.999E+003 -9.999E+003 -9.999E+003 -9.999E+003 -9.999E+003 -9.999E+003 -9.999E+003 -9.999E+003 -9.999E+003 -9.999E+003 -9.999E+003 -9.999E+003 -9.999E+003 -9.999E+003 -9.999E+003 -9.999E+003 -9.999E+003 -9.999E+003 -9.999E+003 -9.999E+003 -9.999E+003 -9.999E+003 -9.999E+003 -9.999E+003 -9.999E+003 -9.999E+003 -9.999E+003 -9.999E+003 -9.999E+003 -9.999E+003 -9.999E+003 -9.999E+003 -9.999E+003 -9.999E+003 -9.999E+003 -9.999E+003 -9.999E+003 -9.999E+003 -9.999E+003 -9.999E+003 -9.999E+003 -9.999E+003 -9.999E+003 -9.999E+003 -9.999E+003 -9.999E+003 -9.999E+003 -9.999E+003 -9.999E+003 -9.999E+003 -9.999E+003 -9.999E+003 -9.999E+003 -9.999E+003 -9.999E+003 -9.999E+003 -9.999E+003 -9.999E+003 -9.999E+003 -9.999E+003 -9.999E+003 -9.999E+003 -9.999E+003 -9.999E+003 -9.999E+003 -9.999E+003 -9.999E+003 -9.999E+003 -9.999E+003 -9.999E+003 -9.999E+003 -9.999E+003 -9.999E+003 -9.999E+003 -9.999E+003 -9.999E+003 -9.999E+003 -9.999E+003 -9.999E+003 -9.999E+003 -9.999E+003 -9.999E+003 -9.999E+003 -9.999E+003 -9.999E+003 -9.999E+003 -9.999E+003 -9.999E+003 -9.999E+003 -9.999E+003 -9.999E+003 -9.999E+003 -9.999E+003 -9.999E+003 -9.999E+003 -9.999E+003 -9.999E+003 -9.999E+003 -9.999E+003 -9.999E+003 -9.999E+003 -9.999E+003 -9.999E+003 -9.999E+003 -9.999E+003 -9.999E+003 -9.999E+003 -9.999E+003 -9.999E+003 -9.999E+003 -9.999E+003 -9.999E+003 -9.999E+003
 -9.999E+003 -9.999E+003 -9.999E+003 -9.999E+003 -9.999E+003 -9.999E+003 -9.999E+003 -9.999E+003 -9.999E+003 -9.999E+003 -9.999E+003 -9.999E+003 -9.999E+003 -9.999E+003 -9.999E+003 -9.999E+003 -9.999E+003 -9.999E+003 -9.999E+003 -9.999E+003 -9.999E+003 -9.999E+003 -9.999E+003 -9.999E+003 -9.999E+003 -9.999E+003 -9.999E+003 -9.999E+003 -9.999E+003 -9.999E+003 -9.999E+003 -9.999E+003 -9.999E+003 -9.999E+003 -9.999E+003 -9.999E+003 -9.999E+003 -9.999E+003 -9.999E+003 -9.999E+003 -9.999E+003 -9.999E+003 -9.999E+003 -9.999E+003 -9.999E+003 -9.999E+003 -9.999E+003 -9.999E+003 -9.999E+003 -9.999E+003 -9.999E+003 -9.999E+003 -9.999E+003 -9.999E+003 -9.999E+003 -9.999E+003 -9.999E+003 -9.999E+003 -9.999E+003 -9.999E+003 -9.999E+003 -9.999E+003 -9.999E+003 -9.999E+003 -9.999E+003 -9.999E+003 -9.999E+003 -9.999E+003 -9.999E+003 -9.999E+003 -9.999E+003 -9.999E+003 -9.999E+003 -9.999E+003 -9.999E+003 -9.999E+003 -9.999E+003 -9.999E+003 -9.999E+003 -9.999E+003 -9.999E+003 -9.999E+003 -9.999E+003 -9.999E+003 -9.999E+003 -9.999E+003 -9.999E+003 -9.999E+003 -9.999E+003 -9.999E+003 -9.999E+003 -9.999E+003 -9.999E+003 -9.999E+003 -9.999E+003 -9.999E+003 -9.999E+003 -9.999E+003 -9.999E+003 -9.999E+003 -9.999E+003 -9.999E+003 -9.999E+003 -9.999E+003 -9.999E+003 -9.999E+003 -9.999E+003 -9.999E+003 -9.999E+003 -9.999E+003 -9.999E+003 -9.999E+003 -9.999E+003 -9.999E+003 -9.999E+003 -9.999E+003 -9.999E+003 -9.999E+003 -9.999E+003 -9.999E+003 -9.999E+003 -9.999E+003 -9.999E+003 -9.999E+003 -9.999E+003 -9.999E+003 -9.999E+003 -9.999E+003 -9.999E+003 -9.999E+003 -9.999E+003 -9.999E+003 -9.999E+003 -9.999E+003 -9.999E+003 -9.999E+003 -9.999E+003 -9.999E+003 -9.999E+003 -9.999E+003 -9.999E+003 -9.999E+003 -9.999E+003 -9.999E+003 -9.999E+003 -9.999E+003 -9.999E+003 -9.999E+003 -9.999E+003 -9.999E+003
 -9.999E+003 -9.999E+003 -9.999E+003 -9.999E+003 -9.999E+003 -9.999E+003 -9.999E+003 -9.999E+003 -9.999E+003 -9.999E+003 -9.999E+003 -9.999E+003 -9.999E+003 -9.999E+003 -9.999E+003 -9.999E+003 -9.999E+003 -9.999E+003 -9.999E+003 -9.999E+003 -9.999E+003 -9.999E+003 -9.999E+003 -9.999E+003 -9.999E+003 -9.999E+003 -9.999E+003 -9.999E+003 -9.999E+003 -9.999E+003 -9.999E+003 -9.999E+003 -9.999E+003 -9.999E+003 -9.999E+003 -9.999E+003 -9.999E+003 -9.999E+003 -9.999E+003 -9.999E+003 -9.999E+003 -9.999E+003 -9.999E+003 -9.999E+003 -9.999E+003 -9.999E+003 -9.999E+003 -9.999E+003 -9.999E+003 -9.999E+003 -9.999E+003 -9.999E+003 -9.999E+003 -9.999E+003 -9.999E+003 -9.999E+003 -9.999E+003 -9.999E+003 -9.999E+003 -9.999E+003 -9.999E+003 -9.999E+003 -9.999E+003 -9.999E+003 -9.999E+003 -9.999E+003 -9.999E+003 -9.999E+003 -9.999E+003 -9.999E+003 -9.999E+003 -9.999E+003 -9.999E+003 -9.999E+003 -9.999E+003 -9.999E+003 -9.999E+003 -9.999E+003 -9.999E+003 -9.999E+003 -9.999E+003 -9.999E+003 -9.999E+003 -9.999E+003 -9.999E+003 -9.999E+003 -9.999E+003 -9.999E+003 -9.999E+003 -9.999E+003 -9.999E+003 -9.999E+003 -9.999E+003 -9.999E+003 -9.999E+003 -9.999E+003 -9.999E+003 -9.999E+003 -9.999E+003 -9.999E+003 -9.999E+003 -9.999E+003 -9.999E+003 -9.999E+003 -9.999E+003 -9.999E+003 -9.999E+003 -9.999E+003 -9.999E+003 -9.999E+003 -9.999E+003 -9.999E+003 -9.999E+003 -9.999E+003 -9.999E+003 -9.999E+003 -9.999E+003 -9.999E+003 -9.999E+003 -9.999E+003 -9.999E+003 -9.999E+003 -9.999E+003 -9.999E+003 -9.999E+003 -9.999E+003 -9.999E+003 -9.999E+003 -9.999E+003 -9.999E+003 -9.999E+003 -9.999E+003 -9.999E+003 -9.999E+003 -9.999E+003 -9.999E+003 -9.999E+003 -9.999E+003 -9.999E+003 -9.999E+003 -9.999E+003 -9.999E+003 -9.999E+003 -9.999E+003 -9.999E+003 -9.999E+003 -9.999E+003 -9.999E+003 -9.999E+003 -9.999E+003
 -9.999E+003 -9.999E+003 -9.999E+003 -9.999E+003 -9.999E+003 -9.999E+003 -9.999E+003 -9.999E+003 -9.999E+003 -9.999E+003 -9.999E+003 -9.999E+003 -9.999E+003 -9.999E+003 -9.999E+003 -9.999E+003 -9.999E+003 -9.999E+003 -9.999E+003 -9.999E+003 -9.999E+003 -9.999E+003 -9.999E+003 -9.999E+003 -9.999E+003 -9.999E+003 -9.999E+003 -9.999E+003 -9.999E+003 -9.999E+003 -9.999E+003 -9.999E+003 -9.999E+003 -9.999E+003 -9.999E+003 -9.999E+003 -9.999E+003 -9.999E+003 -9.999E+003 -9.999E+003 -9.999E+003 -9.999E+003 -9.999E+003 -9.999E+003 -9.999E+003 -9.999E+003 -9.999E+003 -9.999E+003 -9.999E+003 -9.999E+003 -9.999E+003 -9.999E+003 -9.999E+003 -9.999E+003 -9.999E+003 -9.999E+003 -9.999E+003 -9.999E+003 -9.999E+003 -9.999E+003 -9.999E+003 -9.999E+003 -9.999E+003 -9.999E+003 -9.999E+003 -9.999E+003 -9.999E+003 -9.999E+003 -9.999E+003 -9.999E+003 -9.999E+003 -9.999E+003 -9.999E+003 -9.999E+003 -9.999E+003 -9.999E+003 -9.999E+003 -9.999E+003 -9.999E+003 -9.999E+003 -9.999E+003 -9.999E+003 -9.999E+003 -9.999E+003 -9.999E+003 -9.999E+003 -9.999E+003 -9.999E+003 -9.999E+003 -9.999E+003 -9.999E+003 -9.999E+003 -9.999E+003 -9.999E+003 -9.999E+003 -9.999E+003 -9.999E+003 -9.999E+003 -9.999E+003 -9.999E+003 -9.999E+003 -9.999E+003 -9.999E+003 -9.999E+003 -9.999E+003 -9.999E+003 -9.999E+003 -9.999E+003 -9.999E+003 -9.999E+003 -9.999E+003 -9.999E+003 -9.999E+003 -9.999E+003 -9.999E+003 -9.999E+003 -9.999E+003 -9.999E+003 -9.999E+003 -9.999E+003 -9.999E+003 -9.999E+003 -9.999E+003 -9.999E+003 -9.999E+003 -9.999E+003 -9.999E+003 -9.999E+003 -9.999E+003 -9.999E+003 -9.999E+003 -9.999E+003 -9.999E+003 -9.999E+003 -9.999E+003 -9.999E+003 -9.999E+003 -9.999E+003 -9.999E+003 -9.999E+003 -9.999E+003 -9.999E+003 -9.999E+003 -9.999E+003 -9.999E+003 -9.999E+003 -9.999E+003 -9.999E+003 -9.999E+003 -9.999E+003
 -9.999E+003 -9.999E+003 -9.999E+003 -9.999E+003 -9.999E+003 -9.999E+003 -9.999E+003 -9.999E+003 -9.999E+003 -9.999E+003 -9.999E+003 -9.999E+003 -9.999E+003 -9.999E+003 -9.999E+003 -9.999E+003 -9.999E+003 -9.999E+003 -9.999E+003 -9.999E+003 -9.999E+003 -9.999E+003 -9.999E+003 -9.999E+003 -9.999E+003 -9.999E+003 -9.999E+003 -9.999E+003 -9.999E+003 -9.999E+003 -9.999E+003 -9.999E+003 -9.999E+003 -9.999E+003 -9.999E+003 -9.999E+003 -9.999E+003 -9.999E+003 -9.999E+003 -9.999E+003 -9.999E+003 -9.999E+003 -9.999E+003 -9.999E+003 -9.999E+003 -9.999E+003 -9.999E+003 -9.999E+003 -9.999E+003 -9.999E+003 -9.999E+003 -9.999E+003 -9.999E+003 -9.999E+003 -9.999E+003 -9.999E+003 -9.999E+003 -9.999E+003 -9.999E+003 -9.999E+003 -9.999E+003 -9.999E+003 -9.999E+003 -9.999E+003 -9.999E+003 -9.999E+003 -9.999E+003 -9.999E+003 -9.999E+003 -9.999E+003 -9.999E+003 -9.999E+003 -9.999E+003 -9.999E+003 -9.999E+003 -9.999E+003 -9.999E+003 -9.999E+003 -9.999E+003 -9.999E+003 -9.999E+003 -9.999E+003 -9.999E+003 -9.999E+003 -9.999E+003 -9.999E+003 -9.999E+003 -9.999E+003 -9.999E+003 -9.999E+003 -9.999E+003 -9.999E+003 -9.999E+003 -9.999E+003 -9.999E+003 -9.999E+003 -9.999E+003 -9.999E+003 -9.999E+003 -9.999E+003 -9.999E+003 -9.999E+003 -9.999E+003 -9.999E+003 -9.999E+003 -9.999E+003 -9.999E+003 -9.999E+003 -9.999E+003 -9.999E+003 -9.999E+003 -9.999E+003 -9.999E+003 -9.999E+003 -9.999E+003 -9.999E+003 -9.999E+003 -9.999E+003 -9.999E+003 -9.999E+003 -9.999E+003 -9.999E+003 -9.999E+003 -9.999E+003 -9.999E+003 -9.999E+003 -9.999E+003 -9.999E+003 -9.999E+003 -9.999E+003 -9.999E+003 -9.999E+003 -9.999E+003 -9.999E+003 -9.999E+003 -9.999E+003 -9.999E+003 -9.999E+003 -9.999E+003 -9.999E+003 -9.999E+003 -9.999E+003 -9.999E+003 -9.999E+003 -9.999E+003 -9.999E+003 -9.999E+003 -9.999E+003 -9.999E+003 -9.999E+003
 -9.999E+003 -9.999E+003 -9.999E+003 -9.999E+003 -9.999E+003 -9.999E+003 -9.999E+003 -9.999E+003 -9.999E+003 -9.999E+003 -9.999E+003 -9.999E+003 -9.999E+003 -9.999E+003 -9.999E+003 -9.999E+003 -9.999E+003 -9.999E+003 -9.999E+003 -9.999E+003 -9.999E+003 -9.999E+003 -9.999E+003 -9.999E+003 -9.999E+003 -9.999E+003 -9.999E+003 -9.999E+003 -9.999E+003 -9.999E+003 -9.999E+003 -9.999E+003 -9.999E+003 -9.999E+003 -9.999E+003 -9.999E+003 -9.999E+003 -9.999E+003 -9.999E+003 -9.999E+003 -9.999E+003 -9.999E+003 -9.999E+003 -9.999E+003 -9.999E+003 -9.999E+003 -9.999E+003 -9.999E+003 -9.999E+003 -9.999E+003 -9.999E+003 -9.999E+003 -9.999E+003 -9.999E+003 -9.999E+003 -9.999E+003 -9.999E+003 -9.999E+003 -9.999E+003 -9.999E+003 -9.999E+003 -9.999E+003 -9.999E+003 -9.999E+003 -9.999E+003 -9.999E+003 -9.999E+003 -9.999E+003 -9.999E+003 -9.999E+003 -9.999E+003 -9.999E+003 -9.999E+003 -9.999E+003 -9.999E+003 -9.999E+003 -9.999E+003 -9.999E+003 -9.999E+003 -9.999E+003 -9.999E+003 -9.999E+003 -9.999E+003 -9.999E+003 -9.999E+003 -9.999E+003 -9.999E+003 -9.999E+003 -9.999E+003 -9.999E+003 -9.999E+003 -9.999E+003 -9.999E+003 -9.999E+003 -9.999E+003 -9.999E+003 -9.999E+003 -9.999E+003 -9.999E+003 -9.999E+003 -9.999E+003 -9.999E+003 -9.999E+003 -9.999E+003 -9.999E+003 -9.999E+003 -9.999E+003 -9.999E+003 -9.999E+003 -9.999E+003 -9.999E+003 -9.999E+003 -9.999E+003 -9.999E+003 -9.999E+003 -9.999E+003 -9.999E+003 -9.999E+003 -9.999E+003 -9.999E+003 -9.999E+003 -9.999E+003 -9.999E+003 -9.999E+003 -9.999E+003 -9.999E+003 -9.999E+003 -9.999E+003 -9.999E+003 -9.999E+003 -9.999E+003 -9.999E+003 -9.999E+003 -9.999E+003 -9.999E+003 -9.999E+003 -9.999E+003 -9.999E+003 -9.999E+003 -9.999E+003 -9.999E+003 -9.999E+003 -9.999E+003 -9.999E+003 -9.999E+003 -9.999E+003 -9.999E+003 -9.999E+003 -9.999E+003 -9.999E+003
 -9.999E+003 -9.999E+003 -9.999E+003 -9.999E+003 -9.999E+003 -9.999E+003 -9.999E+003 -9.999E+003 -9.999E+003 -9.999E+003 -9.999E+003 -9.999E+003 -9.999E+003 -9.999E+003 -9.999E+003 -9.999E+003 -9.999E+003 -9.999E+003 -9.999E+003 -9.999E+003 -9.999E+003 -9.999E+003 -9.999E+003 -9.999E+003 -9.999E+003 -9.999E+003 -9.999E+003 -9.999E+003 -9.999E+003 -9.999E+003 -9.999E+003 -9.999E+003 -9.999E+003 -9.999E+003 -9.999E+003 -9.999E+003 -9.999E+003 -9.999E+003 -9.999E+003 -9.999E+003 -9.999E+003 -9.999E+003 -9.999E+003 -9.999E+003 -9.999E+003 -9.999E+003 -9.999E+003 -9.999E+003 -9.999E+003 -9.999E+003 -9.999E+003 -9.999E+003 -9.999E+003 -9.999E+003 -9.999E+003 -9.999E+003 -9.999E+003 -9.999E+003 -9.999E+003 -9.999E+003 -9.999E+003 -9.999E+003 -9.999E+003 -9.999E+003 -9.999E+003 -9.999E+003 -9.999E+003 -9.999E+003 -9.999E+003 -9.999E+003 -9.999E+003 -9.999E+003 -9.999E+003 -9.999E+003 -9.999E+003 -9.999E+003 -9.999E+003 -9.999E+003 -9.999E+003 -9.999E+003 -9.999E+003 -9.999E+003 -9.999E+003 -9.999E+003 -9.999E+003 -9.999E+003 -9.999E+003 -9.999E+003 -9.999E+003 -9.999E+003 -9.999E+003 -9.999E+003 -9.999E+003 -9.999E+003 -9.999E+003 -9.999E+003 -9.999E+003 -9.999E+003 -9.999E+003 -9.999E+003 -9.999E+003 -9.999E+003 -9.999E+003 -9.999E+003 -9.999E+003 -9.999E+003 -9.999E+003 -9.999E+003 -9.999E+003 -9.999E+003 -9.999E+003 -9.999E+003 -9.999E+003 -9.999E+003 -9.999E+003 -9.999E+003 -9.999E+003 -9.999E+003 -9.999E+003 -9.999E+003 -9.999E+003 -9.999E+003 -9.999E+003 -9.999E+003 -9.999E+003 -9.999E+003 -9.999E+003 -9.999E+003 -9.999E+003 -9.999E+003 -9.999E+003 -9.999E+003 -9.999E+003 -9.999E+003 -9.999E+003 -9.999E+003 -9.999E+003 -9.999E+003 -9.999E+003 -9.999E+003 -9.999E+003 -9.999E+003 -9.999E+003 -9.999E+003 -9.999E+003 -9.999E+003 -9.999E+003 -9.999E+003 -9.999E+003 -9.999E+003
 -9.999E+003 -9.999E+003 -9.999E+003 -9.999E+003 -9.999E+003 -9.999E+003 -9.999E+003 -9.999E+003 -9.999E+003 -9.999E+003 -9.999E+003 -9.999E+003 -9.999E+003 -9.999E+003 -9.999E+003 -9.999E+003 -9.999E+003 -9.999E+003 -9.999E+003 -9.999E+003 -9.999E+003 -9.999E+003 -9.999E+003 -9.999E+003 -9.999E+003 -9.999E+003 -9.999E+003 -9.999E+003 -9.999E+003 -9.999E+003 -9.999E+003 -9.999E+003 -9.999E+003 -9.999E+003 -9.999E+003 -9.999E+003 -9.999E+003 -9.999E+003 -9.999E+003 -9.999E+003 -9.999E+003 -9.999E+003 -9.999E+003 -9.999E+003 -9.999E+003 -9.999E+003 -9.999E+003 -9.999E+003 -9.999E+003 -9.999E+003 -9.999E+003 -9.999E+003 -9.999E+003 -9.999E+003 -9.999E+003 -9.999E+003 -9.999E+003 -9.999E+003 -9.999E+003 -9.999E+003 -9.999E+003 -9.999E+003 -9.999E+003 -9.999E+003 -9.999E+003 -9.999E+003 -9.999E+003 -9.999E+003 -9.999E+003 -9.999E+003 -9.999E+003 -9.999E+003 -9.999E+003 -9.999E+003 -9.999E+003 -9.999E+003 -9.999E+003 -9.999E+003 -9.999E+003 -9.999E+003 -9.999E+003 -9.999E+003 -9.999E+003 -9.999E+003 -9.999E+003 -9.999E+003 -9.999E+003 -9.999E+003 -9.999E+003 -9.999E+003 -9.999E+003 -9.999E+003 -9.999E+003 -9.999E+003 -9.999E+003 -9.999E+003 -9.999E+003 -9.999E+003 -9.999E+003 -9.999E+003 -9.999E+003 -9.999E+003 -9.999E+003 -9.999E+003 -9.999E+003 -9.999E+003 -9.999E+003 -9.999E+003 -9.999E+003 -9.999E+003 -9.999E+003 -9.999E+003 -9.999E+003 -9.999E+003 -9.999E+003 -9.999E+003 -9.999E+003 -9.999E+003 -9.999E+003 -9.999E+003 -9.999E+003 -9.999E+003 -9.999E+003 -9.999E+003 -9.999E+003 -9.999E+003 -9.999E+003 -9.999E+003 -9.999E+003 -9.999E+003 -9.999E+003 -9.999E+003 -9.999E+003 -9.999E+003 -9.999E+003 -9.999E+003 -9.999E+003 -9.999E+003 -9.999E+003 -9.999E+003 -9.999E+003 -9.999E+003 -9.999E+003 -9.999E+003 -9.999E+003 -9.999E+003 -9.999E+003 -9.999E+003 -9.999E+003 -9.999E+003
 -9.999E+003 -9.999E+003 -9.999E+003 -9.999E+003 -9.999E+003 -9.999E+003 -9.999E+003 -9.999E+003 -9.999E+003 -9.999E+003 -9.999E+003 -9.999E+003 -9.999E+003 -9.999E+003 -9.999E+003 -9.999E+003 -9.999E+003 -9.999E+003 -9.999E+003 -9.999E+003 -9.999E+003 -9.999E+003 -9.999E+003 -9.999E+003 -9.999E+003 -9.999E+003 -9.999E+003 -9.999E+003 -9.999E+003 -9.999E+003 -9.999E+003 -9.999E+003 -9.999E+003 -9.999E+003 -9.999E+003 -9.999E+003 -9.999E+003 -9.999E+003 -9.999E+003 -9.999E+003 -9.999E+003 -9.999E+003 -9.999E+003 -9.999E+003 -9.999E+003 -9.999E+003 -9.999E+003 -9.999E+003 -9.999E+003 -9.999E+003 -9.999E+003 -9.999E+003 -9.999E+003 -9.999E+003 -9.999E+003 -9.999E+003 -9.999E+003 -9.999E+003 -9.999E+003 -9.999E+003 -9.999E+003 -9.999E+003 -9.999E+003 -9.999E+003 -9.999E+003 -9.999E+003 -9.999E+003 -9.999E+003 -9.999E+003 -9.999E+003 -9.999E+003 -9.999E+003 -9.999E+003 -9.999E+003 -9.999E+003 -9.999E+003 -9.999E+003 -9.999E+003 -9.999E+003 -9.999E+003 -9.999E+003 -9.999E+003 -9.999E+003 -9.999E+003 -9.999E+003 -9.999E+003 -9.999E+003 -9.999E+003 -9.999E+003 -9.999E+003 -9.999E+003 -9.999E+003 -9.999E+003 -9.999E+003 -9.999E+003 -9.999E+003 -9.999E+003 -9.999E+003 -9.999E+003 -9.999E+003 -9.999E+003 -9.999E+003 -9.999E+003 -9.999E+003 -9.999E+003 -9.999E+003 -9.999E+003 -9.999E+003 -9.999E+003 -9.999E+003 -9.999E+003 -9.999E+003 -9.999E+003 -9.999E+003 -9.999E+003 -9.999E+003 -9.999E+003 -9.999E+003 -9.999E+003 -9.999E+003 -9.999E+003 -9.999E+003 -9.999E+003 -9.999E+003 -9.999E+003 -9.999E+003 -9.999E+003 -9.999E+003 -9.999E+003 -9.999E+003 -9.999E+003 -9.999E+003 -9.999E+003 -9.999E+003 -9.999E+003 -9.999E+003 -9.999E+003 -9.999E+003 -9.999E+003 -9.999E+003 -9.999E+003 -9.999E+003 -9.999E+003 -9.999E+003 -9.999E+003 -9.999E+003 -9.999E+003 -9.999E+003 -9.999E+003 -9.999E+003
 -9.999E+003 -9.999E+003 -9.999E+003 -9.999E+003 -9.999E+003 -9.999E+003 -9.999E+003 -9.999E+003 -9.999E+003 -9.999E+003 -9.999E+003 -9.999E+003 -9.999E+003 -9.999E+003 -9.999E+003 -9.999E+003 -9.999E+003 -9.999E+003 -9.999E+003 -9.999E+003 -9.999E+003 -9.999E+003 -9.999E+003 -9.999E+003 -9.999E+003 -9.999E+003 -9.999E+003 -9.999E+003 -9.999E+003 -9.999E+003 -9.999E+003 -9.999E+003 -9.999E+003 -9.999E+003 -9.999E+003 -9.999E+003 -9.999E+003 -9.999E+003 -9.999E+003 -9.999E+003 -9.999E+003 -9.999E+003 -9.999E+003 -9.999E+003 -9.999E+003 -9.999E+003 -9.999E+003 -9.999E+003 -9.999E+003 -9.999E+003 -9.999E+003 -9.999E+003 -9.999E+003 -9.999E+003 -9.999E+003 -9.999E+003 -9.999E+003 -9.999E+003 -9.999E+003 -9.999E+003 -9.999E+003 -9.999E+003 -9.999E+003 -9.999E+003 -9.999E+003 -9.999E+003 -9.999E+003 -9.999E+003 -9.999E+003 -9.999E+003 -9.999E+003 -9.999E+003 -9.999E+003 -9.999E+003 -9.999E+003 -9.999E+003 -9.999E+003 -9.999E+003 -9.999E+003 -9.999E+003 -9.999E+003 -9.999E+003 -9.999E+003 -9.999E+003 -9.999E+003 -9.999E+003 -9.999E+003 -9.999E+003 -9.999E+003 -9.999E+003 -9.999E+003 -9.999E+003 -9.999E+003 -9.999E+003 -9.999E+003 -9.999E+003 -9.999E+003 -9.999E+003 -9.999E+003 -9.999E+003 -9.999E+003 -9.999E+003 -9.999E+003 -9.999E+003 -9.999E+003 -9.999E+003 -9.999E+003 -9.999E+003 -9.999E+003 -9.999E+003 -9.999E+003 -9.999E+003 -9.999E+003 -9.999E+003 -9.999E+003 -9.999E+003 -9.999E+003 -9.999E+003 -9.999E+003 -9.999E+003 -9.999E+003 -9.999E+003 -9.999E+003 -9.999E+003 -9.999E+003 -9.999E+003 -9.999E+003 -9.999E+003 -9.999E+003 -9.999E+003 -9.999E+003 -9.999E+003 -9.999E+003 -9.999E+003 -9.999E+003 -9.999E+003 -9.999E+003 -9.999E+003 -9.999E+003 -9.999E+003 -9.999E+003 -9.999E+003 -9.999E+003 -9.999E+003 -9.999E+003 -9.999E+003 -9.999E+003 -9.999E+003 -9.999E+003 -9.999E+003
 -9.999E+003 -9.999E+003 -9.999E+003 -9.999E+003 -9.999E+003 -9.999E+003 -9.999E+003 -9.999E+003 -9.999E+003 -9.999E+003 -9.999E+003 -9.999E+003 -9.999E+003 -9.999E+003 -9.999E+003 -9.999E+003 -9.999E+003 -9.999E+003 -9.999E+003 -9.999E+003 -9.999E+003 -9.999E+003 -9.999E+003 -9.999E+003 -9.999E+003 -9.999E+003 -9.999E+003 -9.999E+003 -9.999E+003 -9.999E+003 -9.999E+003 -9.999E+003 -9.999E+003 -9.999E+003 -9.999E+003 -9.999E+003 -9.999E+003 -9.999E+003 -9.999E+003 -9.999E+003 -9.999E+003 -9.999E+003 -9.999E+003 -9.999E+003 -9.999E+003 -9.999E+003 -9.999E+003 -9.999E+003 -9.999E+003 -9.999E+003 -9.999E+003 -9.999E+003 -9.999E+003 -9.999E+003 -9.999E+003 -9.999E+003 -9.999E+003 -9.999E+003 -9.999E+003 -9.999E+003 -9.999E+003 -9.999E+003 -9.999E+003 -9.999E+003 -9.999E+003 -9.999E+003 -9.999E+003 -9.999E+003 -9.999E+003 -9.999E+003 -9.999E+003 -9.999E+003 -9.999E+003 -9.999E+003 -9.999E+003 -9.999E+003 -9.999E+003 -9.999E+003 -9.999E+003 -9.999E+003 -9.999E+003 -9.999E+003 -9.999E+003 -9.999E+003 -9.999E+003 -9.999E+003 -9.999E+003 -9.999E+003 -9.999E+003 -9.999E+003 -9.999E+003 -9.999E+003 -9.999E+003 -9.999E+003 -9.999E+003 -9.999E+003 -9.999E+003 -9.999E+003 -9.999E+003 -9.999E+003 -9.999E+003 -9.999E+003 -9.999E+003 -9.999E+003 -9.999E+003 -9.999E+003 -9.999E+003 -9.999E+003 -9.999E+003 -9.999E+003 -9.999E+003 -9.999E+003 -9.999E+003 -9.999E+003 -9.999E+003 -9.999E+003 -9.999E+003 -9.999E+003 -9.999E+003 -9.999E+003 -9.999E+003 -9.999E+003 -9.999E+003 -9.999E+003 -9.999E+003 -9.999E+003 -9.999E+003 -9.999E+003 -9.999E+003 -9.999E+003 -9.999E+003 -9.999E+003 -9.999E+003 -9.999E+003 -9.999E+003 -9.999E+003 -9.999E+003 -9.999E+003 -9.999E+003 -9.999E+003 -9.999E+003 -9.999E+003 -9.999E+003 -9.999E+003 -9.999E+003 -9.999E+003 -9.999E+003 -9.999E+003 -9.999E+003 -9.999E+003
 -9.999E+003 -9.999E+003 -9.999E+003 -9.999E+003 -9.999E+003 -9.999E+003 -9.999E+003 -9.999E+003 -9.999E+003 -9.999E+003 -9.999E+003 -9.999E+003 -9.999E+003 -9.999E+003 -9.999E+003 -9.999E+003 -9.999E+003 -9.999E+003 -9.999E+003 -9.999E+003 -9.999E+003 -9.999E+003 -9.999E+003 -9.999E+003 -9.999E+003 -9.999E+003 -9.999E+003 -9.999E+003 -9.999E+003 -9.999E+003 -9.999E+003 -9.999E+003 -9.999E+003 -9.999E+003 -9.999E+003 -9.999E+003 -9.999E+003 -9.999E+003 -9.999E+003 -9.999E+003 -9.999E+003 -9.999E+003 -9.999E+003 -9.999E+003 -9.999E+003 -9.999E+003 -9.999E+003 -9.999E+003 -9.999E+003 -9.999E+003 -9.999E+003 -9.999E+003 -9.999E+003 -9.999E+003 -9.999E+003 -9.999E+003 -9.999E+003 -9.999E+003 -9.999E+003 -9.999E+003 -9.999E+003 -9.999E+003 -9.999E+003 -9.999E+003 -9.999E+003 -9.999E+003 -9.999E+003 -9.999E+003 -9.999E+003 -9.999E+003 -9.999E+003 -9.999E+003 -9.999E+003 -9.999E+003 -9.999E+003 -9.999E+003 -9.999E+003 -9.999E+003 -9.999E+003 -9.999E+003 -9.999E+003 -9.999E+003 -9.999E+003 -9.999E+003 -9.999E+003 -9.999E+003 -9.999E+003 -9.999E+003 -9.999E+003 -9.999E+003 -9.999E+003 -9.999E+003 -9.999E+003 -9.999E+003 -9.999E+003 -9.999E+003 -9.999E+003 -9.999E+003 -9.999E+003 -9.999E+003 -9.999E+003 -9.999E+003 -9.999E+003 -9.999E+003 -9.999E+003 -9.999E+003 -9.999E+003 -9.999E+003 -9.999E+003 -9.999E+003 -9.999E+003 -9.999E+003 -9.999E+003 -9.999E+003 -9.999E+003 -9.999E+003 -9.999E+003 -9.999E+003 -9.999E+003 -9.999E+003 -9.999E+003 -9.999E+003 -9.999E+003 -9.999E+003 -9.999E+003 -9.999E+003 -9.999E+003 -9.999E+003 -9.999E+003 -9.999E+003 -9.999E+003 -9.999E+003 -9.999E+003 -9.999E+003 -9.999E+003 -9.999E+003 -9.999E+003 -9.999E+003 -9.999E+003 -9.999E+003 -9.999E+003 -9.999E+003 -9.999E+003 -9.999E+003 -9.999E+003 -9.999E+003 -9.999E+003 -9.999E+003 -9.999E+003 -9.999E+003
 -9.999E+003 -9.999E+003 -9.999E+003 -9.999E+003 -9.999E+003 -9.999E+003 -9.999E+003 -9.999E+003 -9.999E+003 -9.999E+003 -9.999E+003 -9.999E+003 -9.999E+003 -9.999E+003 -9.999E+003 -9.999E+003 -9.999E+003 -9.999E+003 -9.999E+003 -9.999E+003 -9.999E+003 -9.999E+003 -9.999E+003 -9.999E+003 -9.999E+003 -9.999E+003 -9.999E+003 -9.999E+003 -9.999E+003 -9.999E+003 -9.999E+003 -9.999E+003 -9.999E+003 -9.999E+003 -9.999E+003 -9.999E+003 -9.999E+003 -9.999E+003 -9.999E+003 -9.999E+003 -9.999E+003 -9.999E+003 -9.999E+003 -9.999E+003 -9.999E+003 -9.999E+003 -9.999E+003 -9.999E+003 -9.999E+003 -9.999E+003 -9.999E+003 -9.999E+003 -9.999E+003 -9.999E+003 -9.999E+003 -9.999E+003 -9.999E+003 -9.999E+003 -9.999E+003 -9.999E+003 -9.999E+003 -9.999E+003 -9.999E+003 -9.999E+003 -9.999E+003 -9.999E+003 -9.999E+003 -9.999E+003 -9.999E+003 -9.999E+003 -9.999E+003 -9.999E+003 -9.999E+003 -9.999E+003 -9.999E+003 -9.999E+003 -9.999E+003 -9.999E+003 -9.999E+003 -9.999E+003 -9.999E+003 -9.999E+003 -9.999E+003 -9.999E+003 -9.999E+003 -9.999E+003 -9.999E+003 -9.999E+003 -9.999E+003 -9.999E+003 -9.999E+003 -9.999E+003 -9.999E+003 -9.999E+003 -9.999E+003 -9.999E+003 -9.999E+003 -9.999E+003 -9.999E+003 -9.999E+003 -9.999E+003 -9.999E+003 -9.999E+003 -9.999E+003 -9.999E+003 -9.999E+003 -9.999E+003 -9.999E+003 -9.999E+003 -9.999E+003 -9.999E+003 -9.999E+003 -9.999E+003 -9.999E+003 -9.999E+003 -9.999E+003 -9.999E+003 -9.999E+003 -9.999E+003 -9.999E+003 -9.999E+003 -9.999E+003 -9.999E+003 -9.999E+003 -9.999E+003 -9.999E+003 -9.999E+003 -9.999E+003 -9.999E+003 -9.999E+003 -9.999E+003 -9.999E+003 -9.999E+003 -9.999E+003 -9.999E+003 -9.999E+003 -9.999E+003 -9.999E+003 -9.999E+003 -9.999E+003 -9.999E+003 -9.999E+003 -9.999E+003 -9.999E+003 -9.999E+003 -9.999E+003 -9.999E+003 -9.999E+003 -9.999E+003 -9.999E+003
 -9.999E+003 -9.999E+003 -9.999E+003 -9.999E+003 -9.999E+003 -9.999E+003 -9.999E+003 -9.999E+003 -9.999E+003 -9.999E+003 -9.999E+003 -9.999E+003 -9.999E+003 -9.999E+003 -9.999E+003 -9.999E+003 -9.999E+003 -9.999E+003 -9.999E+003 -9.999E+003 -9.999E+003 -9.999E+003 -9.999E+003 -9.999E+003 -9.999E+003 -9.999E+003 -9.999E+003 -9.999E+003 -9.999E+003 -9.999E+003 -9.999E+003 -9.999E+003 -9.999E+003 -9.999E+003 -9.999E+003 -9.999E+003 -9.999E+003 -9.999E+003 -9.999E+003 -9.999E+003 -9.999E+003 -9.999E+003 -9.999E+003 -9.999E+003 -9.999E+003 -9.999E+003 -9.999E+003 -9.999E+003 -9.999E+003 -9.999E+003 -9.999E+003 -9.999E+003 -9.999E+003 -9.999E+003 -9.999E+003 -9.999E+003 -9.999E+003 -9.999E+003 -9.999E+003 -9.999E+003 -9.999E+003 -9.999E+003 -9.999E+003 -9.999E+003 -9.999E+003 -9.999E+003 -9.999E+003 -9.999E+003 -9.999E+003 -9.999E+003 -9.999E+003 -9.999E+003 -9.999E+003 -9.999E+003 -9.999E+003 -9.999E+003 -9.999E+003 -9.999E+003 -9.999E+003 -9.999E+003 -9.999E+003 -9.999E+003 -9.999E+003 -9.999E+003 -9.999E+003 -9.999E+003 -9.999E+003 -9.999E+003 -9.999E+003 -9.999E+003 -9.999E+003 -9.999E+003 -9.999E+003 -9.999E+003 -9.999E+003 -9.999E+003 -9.999E+003 -9.999E+003 -9.999E+003 -9.999E+003 -9.999E+003 -9.999E+003 -9.999E+003 -9.999E+003 -9.999E+003 -9.999E+003 -9.999E+003 -9.999E+003 -9.999E+003 -9.999E+003 -9.999E+003 -9.999E+003 -9.999E+003 -9.999E+003 -9.999E+003 -9.999E+003 -9.999E+003 -9.999E+003 -9.999E+003 -9.999E+003 -9.999E+003 -9.999E+003 -9.999E+003 -9.999E+003 -9.999E+003 -9.999E+003 -9.999E+003 -9.999E+003 -9.999E+003 -9.999E+003 -9.999E+003 -9.999E+003 -9.999E+003 -9.999E+003 -9.999E+003 -9.999E+003 -9.999E+003 -9.999E+003 -9.999E+003 -9.999E+003 -9.999E+003 -9.999E+003 -9.999E+003 -9.999E+003 -9.999E+003 -9.999E+003 -9.999E+003 -9.999E+003 -9.999E+003 -9.999E+003
 -9.999E+003 -9.999E+003 -9.999E+003 -9.999E+003 -9.999E+003 -9.999E+003 -9.999E+003 -9.999E+003 -9.999E+003 -9.999E+003 -9.999E+003 -9.999E+003 -9.999E+003 -9.999E+003 -9.999E+003 -9.999E+003 -9.999E+003 -9.999E+003 -9.999E+003 -9.999E+003 -9.999E+003 -9.999E+003 -9.999E+003 -9.999E+003 -9.999E+003 -9.999E+003 -9.999E+003 -9.999E+003 -9.999E+003 -9.999E+003 -9.999E+003 -9.999E+003 -9.999E+003 -9.999E+003 -9.999E+003 -9.999E+003 -9.999E+003 -9.999E+003 -9.999E+003 -9.999E+003 -9.999E+003 -9.999E+003 -9.999E+003 -9.999E+003 -9.999E+003 -9.999E+003 -9.999E+003 -9.999E+003 -9.999E+003 -9.999E+003 -9.999E+003 -9.999E+003 -9.999E+003 -9.999E+003 -9.999E+003 -9.999E+003 -9.999E+003 -9.999E+003 -9.999E+003 -9.999E+003 -9.999E+003 -9.999E+003 -9.999E+003 -9.999E+003 -9.999E+003 -9.999E+003 -9.999E+003 -9.999E+003 -9.999E+003 -9.999E+003 -9.999E+003 -9.999E+003 -9.999E+003 -9.999E+003 -9.999E+003 -9.999E+003 -9.999E+003 -9.999E+003 -9.999E+003 -9.999E+003 -9.999E+003 -9.999E+003 -9.999E+003 -9.999E+003 -9.999E+003 -9.999E+003 -9.999E+003 -9.999E+003 -9.999E+003 -9.999E+003 -9.999E+003 -9.999E+003 -9.999E+003 -9.999E+003 -9.999E+003 -9.999E+003 -9.999E+003 -9.999E+003 -9.999E+003 -9.999E+003 -9.999E+003 -9.999E+003 -9.999E+003 -9.999E+003 -9.999E+003 -9.999E+003 -9.999E+003 -9.999E+003 -9.999E+003 -9.999E+003 -9.999E+003 -9.999E+003 -9.999E+003 -9.999E+003 -9.999E+003 -9.999E+003 -9.999E+003 -9.999E+003 -9.999E+003 -9.999E+003 -9.999E+003 -9.999E+003 -9.999E+003 -9.999E+003 -9.999E+003 -9.999E+003 -9.999E+003 -9.999E+003 -9.999E+003 -9.999E+003 -9.999E+003 -9.999E+003 -9.999E+003 -9.999E+003 -9.999E+003 -9.999E+003 -9.999E+003 -9.999E+003 -9.999E+003 -9.999E+003 -9.999E+003 -9.999E+003 -9.999E+003 -9.999E+003 -9.999E+003 -9.999E+003 -9.999E+003 -9.999E+003 -9.999E+003 -9.999E+003
 -9.999E+003 -9.999E+003 -9.999E+003 -9.999E+003 -9.999E+003 -9.999E+003 -9.999E+003 -9.999E+003 -9.999E+003 -9.999E+003 -9.999E+003 -9.999E+003 -9.999E+003 -9.999E+003 -9.999E+003 -9.999E+003 -9.999E+003 -9.999E+003 -9.999E+003 -9.999E+003 -9.999E+003 -9.999E+003 -9.999E+003 -9.999E+003 -9.999E+003 -9.999E+003 -9.999E+003 -9.999E+003 -9.999E+003 -9.999E+003 -9.999E+003 -9.999E+003 -9.999E+003 -9.999E+003 -9.999E+003 -9.999E+003 -9.999E+003 -9.999E+003 -9.999E+003 -9.999E+003 -9.999E+003 -9.999E+003 -9.999E+003 -9.999E+003 -9.999E+003 -9.999E+003 -9.999E+003 -9.999E+003 -9.999E+003 -9.999E+003 -9.999E+003 -9.999E+003 -9.999E+003 -9.999E+003 -9.999E+003 -9.999E+003 -9.999E+003 -9.999E+003 -9.999E+003 -9.999E+003 -9.999E+003 -9.999E+003 -9.999E+003 -9.999E+003 -9.999E+003 -9.999E+003 -9.999E+003 -9.999E+003 -9.999E+003 -9.999E+003 -9.999E+003 -9.999E+003 -9.999E+003 -9.999E+003 -9.999E+003 -9.999E+003 -9.999E+003 -9.999E+003 -9.999E+003 -9.999E+003 -9.999E+003 -9.999E+003 -9.999E+003 -9.999E+003 -9.999E+003 -9.999E+003 -9.999E+003 -9.999E+003 -9.999E+003 -9.999E+003 -9.999E+003 -9.999E+003 -9.999E+003 -9.999E+003 -9.999E+003 -9.999E+003 -9.999E+003 -9.999E+003 -9.999E+003 -9.999E+003 -9.999E+003 -9.999E+003 -9.999E+003 -9.999E+003 -9.999E+003 -9.999E+003 -9.999E+003 -9.999E+003 -9.999E+003 -9.999E+003 -9.999E+003 -9.999E+003 -9.999E+003 -9.999E+003 -9.999E+003 -9.999E+003 -9.999E+003 -9.999E+003 -9.999E+003 -9.999E+003 -9.999E+003 -9.999E+003 -9.999E+003 -9.999E+003 -9.999E+003 -9.999E+003 -9.999E+003 -9.999E+003 -9.999E+003 -9.999E+003 -9.999E+003 -9.999E+003 -9.999E+003 -9.999E+003 -9.999E+003 -9.999E+003 -9.999E+003 -9.999E+003 -9.999E+003 -9.999E+003 -9.999E+003 -9.999E+003 -9.999E+003 -9.999E+003 -9.999E+003 -9.999E+003 -9.999E+003 -9.999E+003 -9.999E+003 -9.999E+003
 -9.999E+003 -9.999E+003 -9.999E+003 -9.999E+003 -9.999E+003 -9.999E+003 -9.999E+003 -9.999E+003 -9.999E+003 -9.999E+003 -9.999E+003 -9.999E+003 -9.999E+003 -9.999E+003 -9.999E+003 -9.999E+003 -9.999E+003 -9.999E+003 -9.999E+003 -9.999E+003 -9.999E+003 -9.999E+003 -9.999E+003 -9.999E+003 -9.999E+003 -9.999E+003 -9.999E+003 -9.999E+003 -9.999E+003 -9.999E+003 -9.999E+003 -9.999E+003 -9.999E+003 -9.999E+003 -9.999E+003 -9.999E+003 -9.999E+003 -9.999E+003 -9.999E+003 -9.999E+003 -9.999E+003 -9.999E+003 -9.999E+003 -9.999E+003 -9.999E+003 -9.999E+003 -9.999E+003 -9.999E+003 -9.999E+003 -9.999E+003 -9.999E+003 -9.999E+003 -9.999E+003 -9.999E+003 -9.999E+003 -9.999E+003 -9.999E+003 -9.999E+003 -9.999E+003 -9.999E+003 -9.999E+003 -9.999E+003 -9.999E+003 -9.999E+003 -9.999E+003 -9.999E+003 -9.999E+003 -9.999E+003 -9.999E+003 -9.999E+003 -9.999E+003 -9.999E+003 -9.999E+003 -9.999E+003 -9.999E+003 -9.999E+003 -9.999E+003 -9.999E+003 -9.999E+003 -9.999E+003 -9.999E+003 -9.999E+003 -9.999E+003 -9.999E+003 -9.999E+003 -9.999E+003 -9.999E+003 -9.999E+003 -9.999E+003 -9.999E+003 -9.999E+003 -9.999E+003 -9.999E+003 -9.999E+003 -9.999E+003 -9.999E+003 -9.999E+003 -9.999E+003 -9.999E+003 -9.999E+003 -9.999E+003 -9.999E+003 -9.999E+003 -9.999E+003 -9.999E+003 -9.999E+003 -9.999E+003 -9.999E+003 -9.999E+003 -9.999E+003 -9.999E+003 -9.999E+003 -9.999E+003 -9.999E+003 -9.999E+003 -9.999E+003 -9.999E+003 -9.999E+003 -9.999E+003 -9.999E+003 -9.999E+003 -9.999E+003 -9.999E+003 -9.999E+003 -9.999E+003 -9.999E+003 -9.999E+003 -9.999E+003 -9.999E+003 -9.999E+003 -9.999E+003 -9.999E+003 -9.999E+003 -9.999E+003 -9.999E+003 -9.999E+003 -9.999E+003 -9.999E+003 -9.999E+003 -9.999E+003 -9.999E+003 -9.999E+003 -9.999E+003 -9.999E+003 -9.999E+003 -9.999E+003 -9.999E+003 -9.999E+003 -9.999E+003 -9.999E+003
 -9.999E+003 -9.999E+003 -9.999E+003 -9.999E+003 -9.999E+003 -9.999E+003 -9.999E+003 -9.999E+003 -9.999E+003 -9.999E+003 -9.999E+003 -9.999E+003 -9.999E+003 -9.999E+003 -9.999E+003 -9.999E+003 -9.999E+003 -9.999E+003 -9.999E+003 -9.999E+003 -9.999E+003 -9.999E+003 -9.999E+003 -9.999E+003 -9.999E+003 -9.999E+003 -9.999E+003 -9.999E+003 -9.999E+003 -9.999E+003 -9.999E+003 -9.999E+003 -9.999E+003 -9.999E+003 -9.999E+003 -9.999E+003 -9.999E+003 -9.999E+003 -9.999E+003 -9.999E+003 -9.999E+003 -9.999E+003 -9.999E+003 -9.999E+003 -9.999E+003 -9.999E+003 -9.999E+003 -9.999E+003 -9.999E+003 -9.999E+003 -9.999E+003 -9.999E+003 -9.999E+003 -9.999E+003 -9.999E+003 -9.999E+003 -9.999E+003 -9.999E+003 -9.999E+003 -9.999E+003 -9.999E+003 -9.999E+003 -9.999E+003 -9.999E+003 -9.999E+003 -9.999E+003 -9.999E+003 -9.999E+003 -9.999E+003 -9.999E+003 -9.999E+003 -9.999E+003 -9.999E+003 -9.999E+003 -9.999E+003 -9.999E+003 -9.999E+003 -9.999E+003 -9.999E+003 -9.999E+003 -9.999E+003 -9.999E+003 -9.999E+003 -9.999E+003 -9.999E+003 -9.999E+003 -9.999E+003 -9.999E+003 -9.999E+003 -9.999E+003 -9.999E+003 -9.999E+003 -9.999E+003 -9.999E+003 -9.999E+003 -9.999E+003 -9.999E+003 -9.999E+003 -9.999E+003 -9.999E+003 -9.999E+003 -9.999E+003 -9.999E+003 -9.999E+003 -9.999E+003 -9.999E+003 -9.999E+003 -9.999E+003 -9.999E+003 -9.999E+003 -9.999E+003 -9.999E+003 -9.999E+003 -9.999E+003 -9.999E+003 -9.999E+003 -9.999E+003 -9.999E+003 -9.999E+003 -9.999E+003 -9.999E+003 -9.999E+003 -9.999E+003 -9.999E+003 -9.999E+003 -9.999E+003 -9.999E+003 -9.999E+003 -9.999E+003 -9.999E+003 -9.999E+003 -9.999E+003 -9.999E+003 -9.999E+003 -9.999E+003 -9.999E+003 -9.999E+003 -9.999E+003 -9.999E+003 -9.999E+003 -9.999E+003 -9.999E+003 -9.999E+003 -9.999E+003 -9.999E+003 -9.999E+003 -9.999E+003 -9.999E+003 -9.999E+003 -9.999E+003
 -9.999E+003 -9.999E+003 -9.999E+003 -9.999E+003 -9.999E+003 -9.999E+003 -9.999E+003 -9.999E+003 -9.999E+003 -9.999E+003 -9.999E+003 -9.999E+003 -9.999E+003 -9.999E+003 -9.999E+003 -9.999E+003 -9.999E+003 -9.999E+003 -9.999E+003 -9.999E+003 -9.999E+003 -9.999E+003 -9.999E+003 -9.999E+003 -9.999E+003 -9.999E+003 -9.999E+003 -9.999E+003 -9.999E+003 -9.999E+003 -9.999E+003 -9.999E+003 -9.999E+003 -9.999E+003 -9.999E+003 -9.999E+003 -9.999E+003 -9.999E+003 -9.999E+003 -9.999E+003 -9.999E+003 -9.999E+003 -9.999E+003 -9.999E+003 -9.999E+003 -9.999E+003 -9.999E+003 -9.999E+003 -9.999E+003 -9.999E+003 -9.999E+003 -9.999E+003 -9.999E+003 -9.999E+003 -9.999E+003 -9.999E+003 -9.999E+003 -9.999E+003 -9.999E+003 -9.999E+003 -9.999E+003 -9.999E+003 -9.999E+003 -9.999E+003 -9.999E+003 -9.999E+003 -9.999E+003 -9.999E+003 -9.999E+003 -9.999E+003 -9.999E+003 -9.999E+003 -9.999E+003 -9.999E+003 -9.999E+003 -9.999E+003 -9.999E+003 -9.999E+003 -9.999E+003 -9.999E+003 -9.999E+003 -9.999E+003 -9.999E+003 -9.999E+003 -9.999E+003 -9.999E+003 -9.999E+003 -9.999E+003 -9.999E+003 -9.999E+003 -9.999E+003 -9.999E+003 -9.999E+003 -9.999E+003 -9.999E+003 -9.999E+003 -9.999E+003 -9.999E+003 -9.999E+003 -9.999E+003 -9.999E+003 -9.999E+003 -9.999E+003 -9.999E+003 -9.999E+003 -9.999E+003 -9.999E+003 -9.999E+003 -9.999E+003 -9.999E+003 -9.999E+003 -9.999E+003 -9.999E+003 -9.999E+003 -9.999E+003 -9.999E+003 -9.999E+003 -9.999E+003 -9.999E+003 -9.999E+003 -9.999E+003 -9.999E+003 -9.999E+003 -9.999E+003 -9.999E+003 -9.999E+003 -9.999E+003 -9.999E+003 -9.999E+003 -9.999E+003 -9.999E+003 -9.999E+003 -9.999E+003 -9.999E+003 -9.999E+003 -9.999E+003 -9.999E+003 -9.999E+003 -9.999E+003 -9.999E+003 -9.999E+003 -9.999E+003 -9.999E+003 -9.999E+003 -9.999E+003 -9.999E+003 -9.999E+003 -9.999E+003 -9.999E+003 -9.999E+003
 -9.999E+003 -9.999E+003 -9.999E+003 -9.999E+003 -9.999E+003 -9.999E+003 -9.999E+003 -9.999E+003 -9.999E+003 -9.999E+003 -9.999E+003 -9.999E+003 -9.999E+003 -9.999E+003 -9.999E+003 -9.999E+003 -9.999E+003 -9.999E+003 -9.999E+003 -9.999E+003 -9.999E+003 -9.999E+003 -9.999E+003 -9.999E+003 -9.999E+003 -9.999E+003 -9.999E+003 -9.999E+003 -9.999E+003 -9.999E+003 -9.999E+003 -9.999E+003 -9.999E+003 -9.999E+003 -9.999E+003 -9.999E+003 -9.999E+003 -9.999E+003 -9.999E+003 -9.999E+003 -9.999E+003 -9.999E+003 -9.999E+003 -9.999E+003 -9.999E+003 -9.999E+003 -9.999E+003 -9.999E+003 -9.999E+003 -9.999E+003 -9.999E+003 -9.999E+003 -9.999E+003 -9.999E+003 -9.999E+003 -9.999E+003 -9.999E+003 -9.999E+003 -9.999E+003 -9.999E+003 -9.999E+003 -9.999E+003 -9.999E+003 -9.999E+003 -9.999E+003 -9.999E+003 -9.999E+003 -9.999E+003 -9.999E+003 -9.999E+003 -9.999E+003 -9.999E+003 -9.999E+003 -9.999E+003 -9.999E+003 -9.999E+003 -9.999E+003 -9.999E+003 -9.999E+003 -9.999E+003 -9.999E+003 -9.999E+003 -9.999E+003 -9.999E+003 -9.999E+003 -9.999E+003 -9.999E+003 -9.999E+003 -9.999E+003 -9.999E+003 -9.999E+003 -9.999E+003 -9.999E+003 -9.999E+003 -9.999E+003 -9.999E+003 -9.999E+003 -9.999E+003 -9.999E+003 -9.999E+003 -9.999E+003 -9.999E+003 -9.999E+003 -9.999E+003 -9.999E+003 -9.999E+003 -9.999E+003 -9.999E+003 -9.999E+003 -9.999E+003 -9.999E+003 -9.999E+003 -9.999E+003 -9.999E+003 -9.999E+003 -9.999E+003 -9.999E+003 -9.999E+003 -9.999E+003 -9.999E+003 -9.999E+003 -9.999E+003 -9.999E+003 -9.999E+003 -9.999E+003 -9.999E+003 -9.999E+003 -9.999E+003 -9.999E+003 -9.999E+003 -9.999E+003 -9.999E+003 -9.999E+003 -9.999E+003 -9.999E+003 -9.999E+003 -9.999E+003 -9.999E+003 -9.999E+003 -9.999E+003 -9.999E+003 -9.999E+003 -9.999E+003 -9.999E+003 -9.999E+003 -9.999E+003 -9.999E+003 -9.999E+003 -9.999E+003 -9.999E+003
 -9.999E+003 -9.999E+003 -9.999E+003 -9.999E+003 -9.999E+003 -9.999E+003 -9.999E+003 -9.999E+003 -9.999E+003 -9.999E+003 -9.999E+003 -9.999E+003 -9.999E+003 -9.999E+003 -9.999E+003 -9.999E+003 -9.999E+003 -9.999E+003 -9.999E+003 -9.999E+003 -9.999E+003 -9.999E+003 -9.999E+003 -9.999E+003 -9.999E+003 -9.999E+003 -9.999E+003 -9.999E+003 -9.999E+003 -9.999E+003 -9.999E+003 -9.999E+003 -9.999E+003 -9.999E+003 -9.999E+003 -9.999E+003 -9.999E+003 -9.999E+003 -9.999E+003 -9.999E+003 -9.999E+003 -9.999E+003 -9.999E+003 -9.999E+003 -9.999E+003 -9.999E+003 -9.999E+003 -9.999E+003 -9.999E+003 -9.999E+003 -9.999E+003 -9.999E+003 -9.999E+003 -9.999E+003 -9.999E+003 -9.999E+003 -9.999E+003 -9.999E+003 -9.999E+003 -9.999E+003 -9.999E+003 -9.999E+003 -9.999E+003 -9.999E+003 -9.999E+003 -9.999E+003 -9.999E+003 -9.999E+003 -9.999E+003 -9.999E+003 -9.999E+003 -9.999E+003 -9.999E+003 -9.999E+003 -9.999E+003 -9.999E+003 -9.999E+003 -9.999E+003 -9.999E+003 -9.999E+003 -9.999E+003 -9.999E+003 -9.999E+003 -9.999E+003 -9.999E+003 -9.999E+003 -9.999E+003 -9.999E+003 -9.999E+003 -9.999E+003 -9.999E+003 -9.999E+003 -9.999E+003 -9.999E+003 -9.999E+003 -9.999E+003 -9.999E+003 -9.999E+003 -9.999E+003 -9.999E+003 -9.999E+003 -9.999E+003 -9.999E+003 -9.999E+003 -9.999E+003 -9.999E+003 -9.999E+003 -9.999E+003 -9.999E+003 -9.999E+003 -9.999E+003 -9.999E+003 -9.999E+003 -9.999E+003 -9.999E+003 -9.999E+003 -9.999E+003 -9.999E+003 -9.999E+003 -9.999E+003 -9.999E+003 -9.999E+003 -9.999E+003 -9.999E+003 -9.999E+003 -9.999E+003 -9.999E+003 -9.999E+003 -9.999E+003 -9.999E+003 -9.999E+003 -9.999E+003 -9.999E+003 -9.999E+003 -9.999E+003 -9.999E+003 -9.999E+003 -9.999E+003 -9.999E+003 -9.999E+003 -9.999E+003 -9.999E+003 -9.999E+003 -9.999E+003 -9.999E+003 -9.999E+003 -9.999E+003 -9.999E+003 -9.999E+003 -9.999E+003
 -9.999E+003 -9.999E+003 -9.999E+003 -9.999E+003 -9.999E+003 -9.999E+003 -9.999E+003 -9.999E+003 -9.999E+003 -9.999E+003 -9.999E+003 -9.999E+003 -9.999E+003 -9.999E+003 -9.999E+003 -9.999E+003 -9.999E+003 -9.999E+003 -9.999E+003 -9.999E+003 -9.999E+003 -9.999E+003 -9.999E+003 -9.999E+003 -9.999E+003 -9.999E+003 -9.999E+003 -9.999E+003 -9.999E+003 -9.999E+003 -9.999E+003 -9.999E+003 -9.999E+003 -9.999E+003 -9.999E+003 -9.999E+003 -9.999E+003 -9.999E+003 -9.999E+003 -9.999E+003 -9.999E+003 -9.999E+003 -9.999E+003 -9.999E+003 -9.999E+003 -9.999E+003 -9.999E+003 -9.999E+003 -9.999E+003 -9.999E+003 -9.999E+003 -9.999E+003 -9.999E+003 -9.999E+003 -9.999E+003 -9.999E+003 -9.999E+003 -9.999E+003 -9.999E+003 -9.999E+003 -9.999E+003 -9.999E+003 -9.999E+003 -9.999E+003 -9.999E+003 -9.999E+003 -9.999E+003 -9.999E+003 -9.999E+003 -9.999E+003 -9.999E+003 -9.999E+003 -9.999E+003 -9.999E+003 -9.999E+003 -9.999E+003 -9.999E+003 -9.999E+003 -9.999E+003 -9.999E+003 -9.999E+003 -9.999E+003 -9.999E+003 -9.999E+003 -9.999E+003 -9.999E+003 -9.999E+003 -9.999E+003 -9.999E+003 -9.999E+003 -9.999E+003 -9.999E+003 -9.999E+003 -9.999E+003 -9.999E+003 -9.999E+003 -9.999E+003 -9.999E+003 -9.999E+003 -9.999E+003 -9.999E+003 -9.999E+003 -9.999E+003 -9.999E+003 -9.999E+003 -9.999E+003 -9.999E+003 -9.999E+003 -9.999E+003 -9.999E+003 -9.999E+003 -9.999E+003 -9.999E+003 -9.999E+003 -9.999E+003 -9.999E+003 -9.999E+003 -9.999E+003 -9.999E+003 -9.999E+003 -9.999E+003 -9.999E+003 -9.999E+003 -9.999E+003 -9.999E+003 -9.999E+003 -9.999E+003 -9.999E+003 -9.999E+003 -9.999E+003 -9.999E+003 -9.999E+003 -9.999E+003 -9.999E+003 -9.999E+003 -9.999E+003 -9.999E+003 -9.999E+003 -9.999E+003 -9.999E+003 -9.999E+003 -9.999E+003 -9.999E+003 -9.999E+003 -9.999E+003 -9.999E+003 -9.999E+003 -9.999E+003 -9.999E+003 -9.999E+003
 -9.999E+003 -9.999E+003 -9.999E+003 -9.999E+003 -9.999E+003 -9.999E+003 -9.999E+003 -9.999E+003 -9.999E+003 -9.999E+003 -9.999E+003 -9.999E+003 -9.999E+003 -9.999E+003 -9.999E+003 -9.999E+003 -9.999E+003 -9.999E+003 -9.999E+003 -9.999E+003 -9.999E+003 -9.999E+003 -9.999E+003 -9.999E+003 -9.999E+003 -9.999E+003 -9.999E+003 -9.999E+003 -9.999E+003 -9.999E+003 -9.999E+003 -9.999E+003 -9.999E+003 -9.999E+003 -9.999E+003 -9.999E+003 -9.999E+003 -9.999E+003 -9.999E+003 -9.999E+003 -9.999E+003 -9.999E+003 -9.999E+003 -9.999E+003 -9.999E+003 -9.999E+003 -9.999E+003 -9.999E+003 -9.999E+003 -9.999E+003 -9.999E+003 -9.999E+003 -9.999E+003 -9.999E+003 -9.999E+003 -9.999E+003 -9.999E+003 -9.999E+003 -9.999E+003 -9.999E+003 -9.999E+003 -9.999E+003 -9.999E+003 -9.999E+003 -9.999E+003 -9.999E+003 -9.999E+003 -9.999E+003 -9.999E+003 -9.999E+003 -9.999E+003 -9.999E+003 -9.999E+003 -9.999E+003 -9.999E+003 -9.999E+003 -9.999E+003 -9.999E+003 -9.999E+003 -9.999E+003 -9.999E+003 -9.999E+003 -9.999E+003 -9.999E+003 -9.999E+003 -9.999E+003 -9.999E+003 -9.999E+003 -9.999E+003 -9.999E+003 -9.999E+003 -9.999E+003 -9.999E+003 -9.999E+003 -9.999E+003 -9.999E+003 -9.999E+003 -9.999E+003 -9.999E+003 -9.999E+003 -9.999E+003 -9.999E+003 -9.999E+003 -9.999E+003 -9.999E+003 -9.999E+003 -9.999E+003 -9.999E+003 -9.999E+003 -9.999E+003 -9.999E+003 -9.999E+003 -9.999E+003 -9.999E+003 -9.999E+003 -9.999E+003 -9.999E+003 -9.999E+003 -9.999E+003 -9.999E+003 -9.999E+003 -9.999E+003 -9.999E+003 -9.999E+003 -9.999E+003 -9.999E+003 -9.999E+003 -9.999E+003 -9.999E+003 -9.999E+003 -9.999E+003 -9.999E+003 -9.999E+003 -9.999E+003 -9.999E+003 -9.999E+003 -9.999E+003 -9.999E+003 -9.999E+003 -9.999E+003 -9.999E+003 -9.999E+003 -9.999E+003 -9.999E+003 -9.999E+003 -9.999E+003 -9.999E+003 -9.999E+003 -9.999E+003 -9.999E+003
 -9.999E+003 -9.999E+003 -9.999E+003 -9.999E+003 -9.999E+003 -9.999E+003 -9.999E+003 -9.999E+003 -9.999E+003 -9.999E+003 -9.999E+003 -9.999E+003 -9.999E+003 -9.999E+003 -9.999E+003 -9.999E+003 -9.999E+003 -9.999E+003 -9.999E+003 -9.999E+003 -9.999E+003 -9.999E+003 -9.999E+003 -9.999E+003 -9.999E+003 -9.999E+003 -9.999E+003 -9.999E+003 -9.999E+003 -9.999E+003 -9.999E+003 -9.999E+003 -9.999E+003 -9.999E+003 -9.999E+003 -9.999E+003 -9.999E+003 -9.999E+003 -9.999E+003 -9.999E+003 -9.999E+003 -9.999E+003 -9.999E+003 -9.999E+003 -9.999E+003 -9.999E+003 -9.999E+003 -9.999E+003 -9.999E+003 -9.999E+003 -9.999E+003 -9.999E+003 -9.999E+003 -9.999E+003 -9.999E+003 -9.999E+003 -9.999E+003 -9.999E+003 -9.999E+003 -9.999E+003 -9.999E+003 -9.999E+003 -9.999E+003 -9.999E+003 -9.999E+003 -9.999E+003 -9.999E+003 -9.999E+003 -9.999E+003 -9.999E+003 -9.999E+003  2.559E-005 -9.999E+003 -9.999E+003 -9.999E+003 -9.999E+003 -9.999E+003 -9.999E+003 -9.999E+003 -9.999E+003 -9.999E+003 -9.999E+003 -9.999E+003 -9.999E+003 -9.999E+003 -9.999E+003 -9.999E+003 -9.999E+003 -9.999E+003 -9.999E+003 -9.999E+003 -9.999E+003 -9.999E+003 -9.999E+003 -9.999E+003 -9.999E+003 -9.999E+003 -9.999E+003 -9.999E+003 -9.999E+003 -9.999E+003 -9.999E+003 -9.999E+003 -9.999E+003 -9.999E+003 -9.999E+003 -9.999E+003 -9.999E+003 -9.999E+003 -9.999E+003 -9.999E+003 -9.999E+003 -9.999E+003 -9.999E+003 -9.999E+003 -9.999E+003 -9.999E+003 -9.999E+003 -9.999E+003 -9.999E+003 -9.999E+003 -9.999E+003 -9.999E+003 -9.999E+003 -9.999E+003 -9.999E+003 -9.999E+003 -9.999E+003 -9.999E+003 -9.999E+003 -9.999E+003 -9.999E+003 -9.999E+003 -9.999E+003 -9.999E+003 -9.999E+003 -9.999E+003 -9.999E+003 -9.999E+003 -9.999E+003 -9.999E+003 -9.999E+003 -9.999E+003 -9.999E+003 -9.999E+003 -9.999E+003 -9.999E+003 -9.999E+003 -9.999E+003 -9.999E+003
 -9.999E+003 -9.999E+003 -9.999E+003 -9.999E+003 -9.999E+003 -9.999E+003 -9.999E+003 -9.999E+003 -9.999E+003 -9.999E+003 -9.999E+003 -9.999E+003 -9.999E+003 -9.999E+003 -9.999E+003 -9.999E+003 -9.999E+003 -9.999E+003 -9.999E+003 -9.999E+003 -9.999E+003 -9.999E+003 -9.999E+003 -9.999E+003 -9.999E+003 -9.999E+003 -9.999E+003 -9.999E+003 -9.999E+003 -9.999E+003 -9.999E+003 -9.999E+003 -9.999E+003 -9.999E+003 -9.999E+003 -9.999E+003 -9.999E+003 -9.999E+003 -9.999E+003 -9.999E+003 -9.999E+003 -9.999E+003 -9.999E+003 -9.999E+003 -9.999E+003 -9.999E+003 -9.999E+003 -9.999E+003 -9.999E+003 -9.999E+003 -9.999E+003 -9.999E+003 -9.999E+003 -9.999E+003 -9.999E+003 -9.999E+003 -9.999E+003 -9.999E+003 -9.999E+003 -9.999E+003 -9.999E+003 -9.999E+003 -9.999E+003 -9.999E+003 -9.999E+003 -9.999E+003 -9.999E+003 -9.999E+003 -9.999E+003 -9.999E+003  3.480E-001  3.524E-001  1.082E-001 -9.999E+003 -9.999E+003 -9.999E+003 -9.999E+003 -9.999E+003 -9.999E+003 -9.999E+003 -9.999E+003 -9.999E+003 -9.999E+003 -9.999E+003 -9.999E+003 -9.999E+003 -9.999E+003 -9.999E+003 -9.999E+003 -9.999E+003 -9.999E+003 -9.999E+003 -9.999E+003 -9.999E+003 -9.999E+003 -9.999E+003 -9.999E+003 -9.999E+003 -9.999E+003 -9.999E+003 -9.999E+003 -9.999E+003 -9.999E+003 -9.999E+003 -9.999E+003 -9.999E+003 -9.999E+003 -9.999E+003 -9.999E+003 -9.999E+003 -9.999E+003 -9.999E+003 -9.999E+003 -9.999E+003 -9.999E+003 -9.999E+003 -9.999E+003 -9.999E+003 -9.999E+003 -9.999E+003 -9.999E+003 -9.999E+003 -9.999E+003 -9.999E+003 -9.999E+003 -9.999E+003 -9.999E+003 -9.999E+003 -9.999E+003 -9.999E+003 -9.999E+003 -9.999E+003 -9.999E+003 -9.999E+003 -9.999E+003 -9.999E+003 -9.999E+003 -9.999E+003 -9.999E+003 -9.999E+003 -9.999E+003 -9.999E+003 -9.999E+003 -9.999E+003 -9.999E+003 -9.999E+003 -9.999E+003 -9.999E+003 -9.999E+003 -9.999E+003
 -9.999E+003 -9.999E+003 -9.999E+003 -9.999E+003 -9.999E+003 -9.999E+003 -9.999E+003 -9.999E+003 -9.999E+003 -9.999E+003 -9.999E+003 -9.999E+003 -9.999E+003 -9.999E+003 -9.999E+003 -9.999E+003 -9.999E+003 -9.999E+003 -9.999E+003 -9.999E+003 -9.999E+003 -9.999E+003 -9.999E+003 -9.999E+003 -9.999E+003 -9.999E+003 -9.999E+003 -9.999E+003 -9.999E+003 -9.999E+003 -9.999E+003 -9.999E+003 -9.999E+003 -9.999E+003 -9.999E+003 -9.999E+003 -9.999E+003 -9.999E+003 -9.999E+003 -9.999E+003 -9.999E+003 -9.999E+003 -9.999E+003 -9.999E+003 -9.999E+003 -9.999E+003 -9.999E+003 -9.999E+003 -9.999E+003 -9.999E+003 -9.999E+003 -9.999E+003 -9.999E+003 -9.999E+003 -9.999E+003 -9.999E+003 -9.999E+003 -9.999E+003 -9.999E+003 -9.999E+003 -9.999E+003 -9.999E+003 -9.999E+003 -9.999E+003 -9.999E+003 -9.999E+003  2.570E-005 -9.999E+003  4.616E-001  7.923E-001  7.770E-001  7.663E-001  6.588E-001  5.001E-001 -9.999E+003  2.788E-005 -9.999E+003 -9.999E+003 -9.999E+003 -9.999E+003 -9.999E+003 -9.999E+003 -9.999E+003 -9.999E+003 -9.999E+003 -9.999E+003 -9.999E+003 -9.999E+003 -9.999E+003 -9.999E+003 -9.999E+003 -9.999E+003 -9.999E+003 -9.999E+003 -9.999E+003 -9.999E+003 -9.999E+003 -9.999E+003 -9.999E+003 -9.999E+003 -9.999E+003 -9.999E+003 -9.999E+003 -9.999E+003 -9.999E+003 -9.999E+003 -9.999E+003 -9.999E+003 -9.999E+003 -9.999E+003 -9.999E+003 -9.999E+003 -9.999E+003 -9.999E+003 -9.999E+003 -9.999E+003 -9.999E+003 -9.999E+003 -9.999E+003 -9.999E+003 -9.999E+003 -9.999E+003 -9.999E+003 -9.999E+003 -9.999E+003 -9.999E+003 -9.999E+003 -9.999E+003 -9.999E+003 -9.999E+003 -9.999E+003 -9.999E+003 -9.999E+003 -9.999E+003 -9.999E+003 -9.999E+003 -9.999E+003 -9.999E+003 -9.999E+003 -9.999E+003 -9.999E+003 -9.999E+003 -9.999E+003 -9.999E+003 -9.999E+003 -9.999E+003 -9.999E+003 -9.999E+003 -9.999E+003 -9.999E+003
 -9.999E+003 -9.999E+003 -9.999E+003 -9.999E+003 -9.999E+003 -9.999E+003 -9.999E+003 -9.999E+003 -9.999E+003 -9.999E+003 -9.999E+003 -9.999E+003 -9.999E+003 -9.999E+003 -9.999E+003 -9.999E+003 -9.999E+003 -9.999E+003 -9.999E+003 -9.999E+003 -9.999E+003 -9.999E+003 -9.999E+003 -9.999E+003 -9.999E+003 -9.999E+003 -9.999E+003 -9.999E+003 -9.999E+003 -9.999E+003 -9.999E+003 -9.999E+003 -9.999E+003 -9.999E+003 -9.999E+003 -9.999E+003 -9.999E+003 -9.999E+003 -9.999E+003 -9.999E+003 -9.999E+003 -9.999E+003 -9.999E+003 -9.999E+003 -9.999E+003 -9.999E+003 -9.999E+003 -9.999E+003 -9.999E+003 -9.999E+003 -9.999E+003 -9.999E+003 -9.999E+003 -9.999E+003 -9.999E+003 -9.999E+003 -9.999E+003 -9.999E+003 -9.999E+003 -9.999E+003 -9.999E+003 -9.999E+003 -9.999E+003 -9.999E+003 -9.999E+003  2.202E-002  4.338E-001  7.021E-001  8.756E-001  9.738E-001  9.873E-001  1.004E+000  1.013E+000  9.184E-001  6.951E-001  3.132E-001  2.619E-005 -9.999E+003 -9.999E+003 -9.999E+003 -9.999E+003 -9.999E+003 -9.999E+003 -9.999E+003 -9.999E+003 -9.999E+003 -9.999E+003 -9.999E+003 -9.999E+003 -9.999E+003 -9.999E+003 -9.999E+003 -9.999E+003 -9.999E+003 -9.999E+003 -9.999E+003 -9.999E+003 -9.999E+003 -9.999E+003 -9.999E+003 -9.999E+003 -9.999E+003 -9.999E+003 -9.999E+003 -9.999E+003 -9.999E+003 -9.999E+003 -9.999E+003 -9.999E+003 -9.999E+003 -9.999E+003 -9.999E+003 -9.999E+003 -9.999E+003 -9.999E+003 -9.999E+003 -9.999E+003 -9.999E+003 -9.999E+003 -9.999E+003 -9.999E+003 -9.999E+003 -9.999E+003 -9.999E+003 -9.999E+003 -9.999E+003 -9.999E+003 -9.999E+003 -9.999E+003 -9.999E+003 -9.999E+003 -9.999E+003 -9.999E+003 -9.999E+003 -9.999E+003 -9.999E+003 -9.999E+003 -9.999E+003 -9.999E+003 -9.999E+003 -9.999E+003 -9.999E+003 -9.999E+003 -9.999E+003 -9.999E+003 -9.999E+003 -9.999E+003 -9.999E+003 -9.999E+003 -9.999E+003
 -9.999E+003 -9.999E+003 -9.999E+003 -9.999E+003 -9.999E+003 -9.999E+003 -9.999E+003 -9.999E+003 -9.999E+003 -9.999E+003 -9.999E+003 -9.999E+003 -9.999E+003 -9.999E+003 -9.999E+003 -9.999E+003 -9.999E+003 -9.999E+003 -9.999E+003 -9.999E+003 -9.999E+003 -9.999E+003 -9.999E+003 -9.999E+003 -9.999E+003 -9.999E+003 -9.999E+003 -9.999E+003 -9.999E+003 -9.999E+003 -9.999E+003 -9.999E+003 -9.999E+003 -9.999E+003 -9.999E+003 -9.999E+003 -9.999E+003 -9.999E+003 -9.999E+003 -9.999E+003 -9.999E+003 -9.999E+003 -9.999E+003 -9.999E+003 -9.999E+003 -9.999E+003 -9.999E+003 -9.999E+003 -9.999E+003 -9.999E+003 -9.999E+003 -9.999E+003 -9.999E+003 -9.999E+003 -9.999E+003 -9.999E+003 -9.999E+003 -9.999E+003 -9.999E+003 -9.999E+003 -9.999E+003 -9.999E+003 -9.999E+003 -9.999E+003  1.521E-002  4.542E-001  7.805E-001  9.614E-001  1.023E+000  1.009E+000  1.015E+000  1.063E+000  1.113E+000  1.119E+000  1.039E+000  7.649E-001  3.503E-001 -9.999E+003 -9.999E+003 -9.999E+003 -9.999E+003 -9.999E+003 -9.999E+003 -9.999E+003 -9.999E+003 -9.999E+003 -9.999E+003 -9.999E+003 -9.999E+003 -9.999E+003 -9.999E+003 -9.999E+003 -9.999E+003 -9.999E+003 -9.999E+003 -9.999E+003 -9.999E+003 -9.999E+003 -9.999E+003 -9.999E+003 -9.999E+003 -9.999E+003 -9.999E+003 -9.999E+003 -9.999E+003 -9.999E+003 -9.999E+003 -9.999E+003 -9.999E+003 -9.999E+003 -9.999E+003 -9.999E+003 -9.999E+003 -9.999E+003 -9.999E+003 -9.999E+003 -9.999E+003 -9.999E+003 -9.999E+003 -9.999E+003 -9.999E+003 -9.999E+003 -9.999E+003 -9.999E+003 -9.999E+003 -9.999E+003 -9.999E+003 -9.999E+003 -9.999E+003 -9.999E+003 -9.999E+003 -9.999E+003 -9.999E+003 -9.999E+003 -9.999E+003 -9.999E+003 -9.999E+003 -9.999E+003 -9.999E+003 -9.999E+003 -9.999E+003 -9.999E+003 -9.999E+003 -9.999E+003 -9.999E+003 -9.999E+003 -9.999E+003 -9.999E+003 -9.999E+003 -9.999E+003
 -9.999E+003 -9.999E+003 -9.999E+003 -9.999E+003 -9.999E+003 -9.999E+003 -9.999E+003 -9.999E+003 -9.999E+003 -9.999E+003 -9.999E+003 -9.999E+003 -9.999E+003 -9.999E+003 -9.999E+003 -9.999E+003 -9.999E+003 -9.999E+003 -9.999E+003 -9.999E+003 -9.999E+003 -9.999E+003 -9.999E+003 -9.999E+003 -9.999E+003 -9.999E+003 -9.999E+003 -9.999E+003 -9.999E+003 -9.999E+003 -9.999E+003 -9.999E+003 -9.999E+003 -9.999E+003 -9.999E+003 -9.999E+003 -9.999E+003 -9.999E+003 -9.999E+003 -9.999E+003 -9.999E+003 -9.999E+003 -9.999E+003 -9.999E+003 -9.999E+003 -9.999E+003 -9.999E+003 -9.999E+003 -9.999E+003 -9.999E+003 -9.999E+003 -9.999E+003 -9.999E+003 -9.999E+003 -9.999E+003 -9.999E+003 -9.999E+003 -9.999E+003 -9.999E+003 -9.999E+003 -9.999E+003 -9.999E+003 -9.999E+003 -9.999E+003  3.153E-001  6.482E-001  9.298E-001  1.051E+000  1.024E+000  9.911E-001  1.012E+000  1.070E+000  1.144E+000  1.188E+000  1.171E+000  1.049E+000  7.039E-001  2.008E-001 -9.999E+003 -9.999E+003 -9.999E+003 -9.999E+003 -9.999E+003 -9.999E+003 -9.999E+003 -9.999E+003 -9.999E+003 -9.999E+003 -9.999E+003 -9.999E+003 -9.999E+003 -9.999E+003 -9.999E+003 -9.999E+003 -9.999E+003 -9.999E+003 -9.999E+003 -9.999E+003 -9.999E+003 -9.999E+003 -9.999E+003 -9.999E+003 -9.999E+003 -9.999E+003 -9.999E+003 -9.999E+003 -9.999E+003 -9.999E+003 -9.999E+003 -9.999E+003 -9.999E+003 -9.999E+003 -9.999E+003 -9.999E+003 -9.999E+003 -9.999E+003 -9.999E+003 -9.999E+003 -9.999E+003 -9.999E+003 -9.999E+003 -9.999E+003 -9.999E+003 -9.999E+003 -9.999E+003 -9.999E+003 -9.999E+003 -9.999E+003 -9.999E+003 -9.999E+003 -9.999E+003 -9.999E+003 -9.999E+003 -9.999E+003 -9.999E+003 -9.999E+003 -9.999E+003 -9.999E+003 -9.999E+003 -9.999E+003 -9.999E+003 -9.999E+003 -9.999E+003 -9.999E+003 -9.999E+003 -9.999E+003 -9.999E+003 -9.999E+003 -9.999E+003 -9.999E+003
 -9.999E+003 -9.999E+003 -9.999E+003 -9.999E+003 -9.999E+003 -9.999E+003 -9.999E+003 -9.999E+003 -9.999E+003 -9.999E+003 -9.999E+003 -9.999E+003 -9.999E+003 -9.999E+003 -9.999E+003 -9.999E+003 -9.999E+003 -9.999E+003 -9.999E+003 -9.999E+003 -9.999E+003 -9.999E+003 -9.999E+003 -9.999E+003 -9.999E+003 -9.999E+003 -9.999E+003 -9.999E+003 -9.999E+003 -9.999E+003 -9.999E+003 -9.999E+003 -9.999E+003 -9.999E+003 -9.999E+003 -9.999E+003 -9.999E+003 -9.999E+003 -9.999E+003 -9.999E+003 -9.999E+003 -9.999E+003 -9.999E+003 -9.999E+003 -9.999E+003 -9.999E+003 -9.999E+003 -9.999E+003 -9.999E+003 -9.999E+003 -9.999E+003 -9.999E+003 -9.999E+003 -9.999E+003 -9.999E+003 -9.999E+003 -9.999E+003 -9.999E+003 -9.999E+003 -9.999E+003 -9.999E+003 -9.999E+003 -9.999E+003 -9.999E+003  1.446E-004  6.909E-001  9.885E-001  1.083E+000  1.035E+000  1.017E+000  1.050E+000  1.108E+000  1.193E+000  1.257E+000  1.252E+000  1.157E+000  9.082E-001 -9.999E+003 -9.999E+003 -9.999E+003 -9.999E+003 -9.999E+003 -9.999E+003 -9.999E+003 -9.999E+003 -9.999E+003 -9.999E+003 -9.999E+003 -9.999E+003 -9.999E+003 -9.999E+003 -9.999E+003 -9.999E+003 -9.999E+003 -9.999E+003 -9.999E+003 -9.999E+003 -9.999E+003 -9.999E+003 -9.999E+003 -9.999E+003 -9.999E+003 -9.999E+003 -9.999E+003 -9.999E+003 -9.999E+003 -9.999E+003 -9.999E+003 -9.999E+003 -9.999E+003 -9.999E+003 -9.999E+003 -9.999E+003 -9.999E+003 -9.999E+003 -9.999E+003 -9.999E+003 -9.999E+003 -9.999E+003 -9.999E+003 -9.999E+003 -9.999E+003 -9.999E+003 -9.999E+003 -9.999E+003 -9.999E+003 -9.999E+003 -9.999E+003 -9.999E+003 -9.999E+003 -9.999E+003 -9.999E+003 -9.999E+003 -9.999E+003 -9.999E+003 -9.999E+003 -9.999E+003 -9.999E+003 -9.999E+003 -9.999E+003 -9.999E+003 -9.999E+003 -9.999E+003 -9.999E+003 -9.999E+003 -9.999E+003 -9.999E+003 -9.999E+003 -9.999E+003 -9.999E+003
 -9.999E+003 -9.999E+003 -9.999E+003 -9.999E+003 -9.999E+003 -9.999E+003 -9.999E+003 -9.999E+003 -9.999E+003 -9.999E+003 -9.999E+003 -9.999E+003 -9.999E+003 -9.999E+003 -9.999E+003 -9.999E+003 -9.999E+003 -9.999E+003 -9.999E+003 -9.999E+003 -9.999E+003 -9.999E+003 -9.999E+003 -9.999E+003 -9.999E+003 -9.999E+003 -9.999E+003 -9.999E+003 -9.999E+003 -9.999E+003 -9.999E+003 -9.999E+003 -9.999E+003 -9.999E+003 -9.999E+003 -9.999E+003 -9.999E+003 -9.999E+003 -9.999E+003 -9.999E+003 -9.999E+003 -9.999E+003 -9.999E+003 -9.999E+003 -9.999E+003 -9.999E+003 -9.999E+003 -9.999E+003 -9.999E+003 -9.999E+003 -9.999E+003 -9.999E+003 -9.999E+003 -9.999E+003 -9.999E+003 -9.999E+003 -9.999E+003 -9.999E+003 -9.999E+003 -9.999E+003 -9.999E+003 -9.999E+003 -9.999E+003 -9.999E+003 -9.999E+003  7.141E-001  9.102E-001  1.003E+000  1.023E+000  1.058E+000  1.086E+000  1.123E+000  1.201E+000  1.279E+000  1.266E+000  1.169E+000  9.109E-001  3.135E-001 -9.999E+003 -9.999E+003 -9.999E+003 -9.999E+003 -9.999E+003 -9.999E+003 -9.999E+003 -9.999E+003 -9.999E+003 -9.999E+003 -9.999E+003 -9.999E+003 -9.999E+003 -9.999E+003 -9.999E+003 -9.999E+003 -9.999E+003 -9.999E+003 -9.999E+003 -9.999E+003 -9.999E+003 -9.999E+003 -9.999E+003 -9.999E+003 -9.999E+003 -9.999E+003 -9.999E+003 -9.999E+003 -9.999E+003 -9.999E+003 -9.999E+003 -9.999E+003 -9.999E+003 -9.999E+003 -9.999E+003 -9.999E+003 -9.999E+003 -9.999E+003 -9.999E+003 -9.999E+003 -9.999E+003 -9.999E+003 -9.999E+003 -9.999E+003 -9.999E+003 -9.999E+003 -9.999E+003 -9.999E+003 -9.999E+003 -9.999E+003 -9.999E+003 -9.999E+003 -9.999E+003 -9.999E+003 -9.999E+003 -9.999E+003 -9.999E+003 -9.999E+003 -9.999E+003 -9.999E+003 -9.999E+003 -9.999E+003 -9.999E+003 -9.999E+003 -9.999E+003 -9.999E+003 -9.999E+003 -9.999E+003 -9.999E+003 -9.999E+003 -9.999E+003 -9.999E+003
 -9.999E+003 -9.999E+003 -9.999E+003 -9.999E+003 -9.999E+003 -9.999E+003 -9.999E+003 -9.999E+003 -9.999E+003 -9.999E+003 -9.999E+003 -9.999E+003 -9.999E+003 -9.999E+003 -9.999E+003 -9.999E+003 -9.999E+003 -9.999E+003 -9.999E+003 -9.999E+003 -9.999E+003 -9.999E+003 -9.999E+003 -9.999E+003 -9.999E+003 -9.999E+003 -9.999E+003 -9.999E+003 -9.999E+003 -9.999E+003 -9.999E+003 -9.999E+003 -9.999E+003 -9.999E+003 -9.999E+003 -9.999E+003 -9.999E+003 -9.999E+003 -9.999E+003 -9.999E+003 -9.999E+003 -9.999E+003 -9.999E+003 -9.999E+003 -9.999E+003 -9.999E+003 -9.999E+003 -9.999E+003 -9.999E+003 -9.999E+003 -9.999E+003 -9.999E+003 -9.999E+003 -9.999E+003 -9.999E+003 -9.999E+003 -9.999E+003 -9.999E+003 -9.999E+003 -9.999E+003 -9.999E+003 -9.999E+003 -9.999E+003 -9.999E+003  4.260E-005  5.359E-001  7.985E-001  9.373E-001  1.014E+000  1.041E+000  1.049E+000  1.067E+000  1.126E+000  1.181E+000  1.169E+000  1.098E+000  8.963E-001  4.536E-001  1.831E-004 -9.999E+003 -9.999E+003 -9.999E+003 -9.999E+003 -9.999E+003 -9.999E+003 -9.999E+003 -9.999E+003 -9.999E+003 -9.999E+003 -9.999E+003 -9.999E+003 -9.999E+003 -9.999E+003 -9.999E+003 -9.999E+003 -9.999E+003 -9.999E+003 -9.999E+003 -9.999E+003 -9.999E+003 -9.999E+003 -9.999E+003 -9.999E+003 -9.999E+003 -9.999E+003 -9.999E+003 -9.999E+003 -9.999E+003 -9.999E+003 -9.999E+003 -9.999E+003 -9.999E+003 -9.999E+003 -9.999E+003 -9.999E+003 -9.999E+003 -9.999E+003 -9.999E+003 -9.999E+003 -9.999E+003 -9.999E+003 -9.999E+003 -9.999E+003 -9.999E+003 -9.999E+003 -9.999E+003 -9.999E+003 -9.999E+003 -9.999E+003 -9.999E+003 -9.999E+003 -9.999E+003 -9.999E+003 -9.999E+003 -9.999E+003 -9.999E+003 -9.999E+003 -9.999E+003 -9.999E+003 -9.999E+003 -9.999E+003 -9.999E+003 -9.999E+003 -9.999E+003 -9.999E+003 -9.999E+003 -9.999E+003 -9.999E+003 -9.999E+003 -9.999E+003
 -9.999E+003 -9.999E+003 -9.999E+003 -9.999E+003 -9.999E+003 -9.999E+003 -9.999E+003 -9.999E+003 -9.999E+003 -9.999E+003 -9.999E+003 -9.999E+003 -9.999E+003 -9.999E+003 -9.999E+003 -9.999E+003 -9.999E+003 -9.999E+003 -9.999E+003 -9.999E+003 -9.999E+003 -9.999E+003 -9.999E+003 -9.999E+003 -9.999E+003 -9.999E+003 -9.999E+003 -9.999E+003 -9.999E+003 -9.999E+003 -9.999E+003 -9.999E+003 -9.999E+003 -9.999E+003 -9.999E+003 -9.999E+003 -9.999E+003 -9.999E+003 -9.999E+003 -9.999E+003 -9.999E+003 -9.999E+003 -9.999E+003 -9.999E+003 -9.999E+003 -9.999E+003 -9.999E+003 -9.999E+003 -9.999E+003 -9.999E+003 -9.999E+003 -9.999E+003 -9.999E+003 -9.999E+003 -9.999E+003 -9.999E+003 -9.999E+003 -9.999E+003 -9.999E+003 -9.999E+003 -9.999E+003 -9.999E+003 -9.999E+003 -9.999E+003 -9.999E+003  4.737E-001  7.713E-001  9.288E-001  1.003E+000  1.000E+000  9.836E-001  9.779E-001  9.957E-001  1.035E+000  1.067E+000  1.047E+000  9.266E-001  5.753E-001 -9.999E+003 -9.999E+003 -9.999E+003 -9.999E+003 -9.999E+003 -9.999E+003 -9.999E+003 -9.999E+003 -9.999E+003 -9.999E+003 -9.999E+003 -9.999E+003 -9.999E+003 -9.999E+003 -9.999E+003 -9.999E+003 -9.999E+003 -9.999E+003 -9.999E+003 -9.999E+003 -9.999E+003 -9.999E+003 -9.999E+003 -9.999E+003 -9.999E+003 -9.999E+003 -9.999E+003 -9.999E+003 -9.999E+003 -9.999E+003 -9.999E+003 -9.999E+003 -9.999E+003 -9.999E+003 -9.999E+003 -9.999E+003 -9.999E+003 -9.999E+003 -9.999E+003 -9.999E+003 -9.999E+003 -9.999E+003 -9.999E+003 -9.999E+003 -9.999E+003 -9.999E+003 -9.999E+003 -9.999E+003 -9.999E+003 -9.999E+003 -9.999E+003 -9.999E+003 -9.999E+003 -9.999E+003 -9.999E+003 -9.999E+003 -9.999E+003 -9.999E+003 -9.999E+003 -9.999E+003 -9.999E+003 -9.999E+003 -9.999E+003 -9.999E+003 -9.999E+003 -9.999E+003 -9.999E+003 -9.999E+003 -9.999E+003 -9.999E+003 -9.999E+003 -9.999E+003
 -9.999E+003 -9.999E+003 -9.999E+003 -9.999E+003 -9.999E+003 -9.999E+003 -9.999E+003 -9.999E+003 -9.999E+003 -9.999E+003 -9.999E+003 -9.999E+003 -9.999E+003 -9.999E+003 -9.999E+003 -9.999E+003 -9.999E+003 -9.999E+003 -9.999E+003 -9.999E+003 -9.999E+003 -9.999E+003 -9.999E+003 -9.999E+003 -9.999E+003 -9.999E+003 -9.999E+003 -9.999E+003 -9.999E+003 -9.999E+003 -9.999E+003 -9.999E+003 -9.999E+003 -9.999E+003 -9.999E+003 -9.999E+003 -9.999E+003 -9.999E+003 -9.999E+003 -9.999E+003 -9.999E+003 -9.999E+003 -9.999E+003 -9.999E+003 -9.999E+003 -9.999E+003 -9.999E+003 -9.999E+003 -9.999E+003 -9.999E+003 -9.999E+003 -9.999E+003 -9.999E+003 -9.999E+003 -9.999E+003 -9.999E+003 -9.999E+003 -9.999E+003 -9.999E+003 -9.999E+003 -9.999E+003 -9.999E+003 -9.999E+003 -9.999E+003 -9.999E+003  5.353E-001  7.958E-001  9.336E-001  9.803E-001  9.693E-001  9.514E-001  9.275E-001  9.169E-001  9.467E-001  1.004E+000  1.019E+000  9.655E-001  3.710E-001  8.705E-004 -9.999E+003 -9.999E+003 -9.999E+003 -9.999E+003 -9.999E+003 -9.999E+003 -9.999E+003 -9.999E+003 -9.999E+003 -9.999E+003 -9.999E+003 -9.999E+003 -9.999E+003 -9.999E+003 -9.999E+003 -9.999E+003 -9.999E+003 -9.999E+003 -9.999E+003 -9.999E+003 -9.999E+003 -9.999E+003 -9.999E+003 -9.999E+003 -9.999E+003 -9.999E+003 -9.999E+003 -9.999E+003 -9.999E+003 -9.999E+003 -9.999E+003 -9.999E+003 -9.999E+003 -9.999E+003 -9.999E+003 -9.999E+003 -9.999E+003 -9.999E+003 -9.999E+003 -9.999E+003 -9.999E+003 -9.999E+003 -9.999E+003 -9.999E+003 -9.999E+003 -9.999E+003 -9.999E+003 -9.999E+003 -9.999E+003 -9.999E+003 -9.999E+003 -9.999E+003 -9.999E+003 -9.999E+003 -9.999E+003 -9.999E+003 -9.999E+003 -9.999E+003 -9.999E+003 -9.999E+003 -9.999E+003 -9.999E+003 -9.999E+003 -9.999E+003 -9.999E+003 -9.999E+003 -9.999E+003 -9.999E+003 -9.999E+003 -9.999E+003 -9.999E+003
 -9.999E+003 -9.999E+003 -9.999E+003 -9.999E+003 -9.999E+003 -9.999E+003 -9.999E+003 -9.999E+003 -9.999E+003 -9.999E+003 -9.999E+003 -9.999E+003 -9.999E+003 -9.999E+003 -9.999E+003 -9.999E+003 -9.999E+003 -9.999E+003 -9.999E+003 -9.999E+003 -9.999E+003 -9.999E+003 -9.999E+003 -9.999E+003 -9.999E+003 -9.999E+003 -9.999E+003 -9.999E+003 -9.999E+003 -9.999E+003 -9.999E+003 -9.999E+003 -9.999E+003 -9.999E+003 -9.999E+003 -9.999E+003 -9.999E+003 -9.999E+003 -9.999E+003 -9.999E+003 -9.999E+003 -9.999E+003 -9.999E+003 -9.999E+003 -9.999E+003 -9.999E+003 -9.999E+003 -9.999E+003 -9.999E+003 -9.999E+003 -9.999E+003 -9.999E+003 -9.999E+003 -9.999E+003 -9.999E+003 -9.999E+003 -9.999E+003 -9.999E+003 -9.999E+003 -9.999E+003 -9.999E+003 -9.999E+003 -9.999E+003 -9.999E+003  3.441E-001  7.109E-001  8.838E-001  9.744E-001  1.005E+000  9.942E-001  9.894E-001  9.585E-001  9.273E-001  9.426E-001  9.736E-001  9.869E-001  9.580E-001  4.495E-001 -9.999E+003 -9.999E+003 -9.999E+003 -9.999E+003 -9.999E+003 -9.999E+003 -9.999E+003 -9.999E+003 -9.999E+003 -9.999E+003 -9.999E+003 -9.999E+003 -9.999E+003 -9.999E+003 -9.999E+003 -9.999E+003 -9.999E+003 -9.999E+003 -9.999E+003 -9.999E+003 -9.999E+003 -9.999E+003 -9.999E+003 -9.999E+003 -9.999E+003 -9.999E+003 -9.999E+003 -9.999E+003 -9.999E+003 -9.999E+003 -9.999E+003 -9.999E+003 -9.999E+003 -9.999E+003 -9.999E+003 -9.999E+003 -9.999E+003 -9.999E+003 -9.999E+003 -9.999E+003 -9.999E+003 -9.999E+003 -9.999E+003 -9.999E+003 -9.999E+003 -9.999E+003 -9.999E+003 -9.999E+003 -9.999E+003 -9.999E+003 -9.999E+003 -9.999E+003 -9.999E+003 -9.999E+003 -9.999E+003 -9.999E+003 -9.999E+003 -9.999E+003 -9.999E+003 -9.999E+003 -9.999E+003 -9.999E+003 -9.999E+003 -9.999E+003 -9.999E+003 -9.999E+003 -9.999E+003 -9.999E+003 -9.999E+003 -9.999E+003 -9.999E+003 -9.999E+003
 -9.999E+003 -9.999E+003 -9.999E+003 -9.999E+003 -9.999E+003 -9.999E+003 -9.999E+003 -9.999E+003 -9.999E+003 -9.999E+003 -9.999E+003 -9.999E+003 -9.999E+003 -9.999E+003 -9.999E+003 -9.999E+003 -9.999E+003 -9.999E+003 -9.999E+003 -9.999E+003 -9.999E+003 -9.999E+003 -9.999E+003 -9.999E+003 -9.999E+003 -9.999E+003 -9.999E+003 -9.999E+003 -9.999E+003 -9.999E+003 -9.999E+003 -9.999E+003 -9.999E+003 -9.999E+003 -9.999E+003 -9.999E+003 -9.999E+003 -9.999E+003 -9.999E+003 -9.999E+003 -9.999E+003 -9.999E+003 -9.999E+003 -9.999E+003 -9.999E+003 -9.999E+003 -9.999E+003 -9.999E+003 -9.999E+003 -9.999E+003 -9.999E+003 -9.999E+003 -9.999E+003 -9.999E+003 -9.999E+003 -9.999E+003 -9.999E+003 -9.999E+003 -9.999E+003 -9.999E+003 -9.999E+003 -9.999E+003 -9.999E+003  2.790E-001  7.402E-001  9.403E-001  9.802E-001  1.019E+000  1.053E+000  1.068E+000  1.052E+000  1.021E+000  9.924E-001  9.723E-001  9.665E-001  9.463E-001  8.886E-001  1.437E-001  1.206E-003 -9.999E+003 -9.999E+003 -9.999E+003 -9.999E+003 -9.999E+003 -9.999E+003 -9.999E+003 -9.999E+003 -9.999E+003 -9.999E+003 -9.999E+003 -9.999E+003 -9.999E+003 -9.999E+003 -9.999E+003 -9.999E+003 -9.999E+003 -9.999E+003 -9.999E+003 -9.999E+003 -9.999E+003 -9.999E+003 -9.999E+003 -9.999E+003 -9.999E+003 -9.999E+003 -9.999E+003 -9.999E+003 -9.999E+003 -9.999E+003 -9.999E+003 -9.999E+003 -9.999E+003 -9.999E+003 -9.999E+003 -9.999E+003 -9.999E+003 -9.999E+003 -9.999E+003 -9.999E+003 -9.999E+003 -9.999E+003 -9.999E+003 -9.999E+003 -9.999E+003 -9.999E+003 -9.999E+003 -9.999E+003 -9.999E+003 -9.999E+003 -9.999E+003 -9.999E+003 -9.999E+003 -9.999E+003 -9.999E+003 -9.999E+003 -9.999E+003 -9.999E+003 -9.999E+003 -9.999E+003 -9.999E+003 -9.999E+003 -9.999E+003 -9.999E+003 -9.999E+003 -9.999E+003 -9.999E+003 -9.999E+003 -9.999E+003 -9.999E+003 -9.999E+003
 -9.999E+003 -9.999E+003 -9.999E+003 -9.999E+003 -9.999E+003 -9.999E+003 -9.999E+003 -9.999E+003 -9.999E+003 -9.999E+003 -9.999E+003 -9.999E+003 -9.999E+003 -9.999E+003 -9.999E+003 -9.999E+003 -9.999E+003 -9.999E+003 -9.999E+003 -9.999E+003 -9.999E+003 -9.999E+003 -9.999E+003 -9.999E+003 -9.999E+003 -9.999E+003 -9.999E+003 -9.999E+003 -9.999E+003 -9.999E+003 -9.999E+003 -9.999E+003 -9.999E+003 -9.999E+003 -9.999E+003 -9.999E+003 -9.999E+003 -9.999E+003 -9.999E+003 -9.999E+003 -9.999E+003 -9.999E+003 -9.999E+003 -9.999E+003 -9.999E+003 -9.999E+003 -9.999E+003 -9.999E+003 -9.999E+003 -9.999E+003 -9.999E+003 -9.999E+003 -9.999E+003 -9.999E+003 -9.999E+003 -9.999E+003 -9.999E+003 -9.999E+003 -9.999E+003 -9.999E+003 -9.999E+003 -9.999E+003 -9.999E+003  4.973E-001  7.989E-001  9.587E-001  1.013E+000  1.039E+000  1.077E+000  1.116E+000  1.120E+000  1.110E+000  1.092E+000  1.049E+000  1.002E+000  9.143E-001  4.966E-001  6.069E-004 -9.999E+003 -9.999E+003 -9.999E+003 -9.999E+003 -9.999E+003 -9.999E+003 -9.999E+003 -9.999E+003 -9.999E+003 -9.999E+003 -9.999E+003 -9.999E+003 -9.999E+003 -9.999E+003 -9.999E+003 -9.999E+003 -9.999E+003 -9.999E+003 -9.999E+003 -9.999E+003 -9.999E+003 -9.999E+003 -9.999E+003 -9.999E+003 -9.999E+003 -9.999E+003 -9.999E+003 -9.999E+003 -9.999E+003 -9.999E+003 -9.999E+003 -9.999E+003 -9.999E+003 -9.999E+003 -9.999E+003 -9.999E+003 -9.999E+003 -9.999E+003 -9.999E+003 -9.999E+003 -9.999E+003 -9.999E+003 -9.999E+003 -9.999E+003 -9.999E+003 -9.999E+003 -9.999E+003 -9.999E+003 -9.999E+003 -9.999E+003 -9.999E+003 -9.999E+003 -9.999E+003 -9.999E+003 -9.999E+003 -9.999E+003 -9.999E+003 -9.999E+003 -9.999E+003 -9.999E+003 -9.999E+003 -9.999E+003 -9.999E+003 -9.999E+003 -9.999E+003 -9.999E+003 -9.999E+003 -9.999E+003 -9.999E+003 -9.999E+003 -9.999E+003 -9.999E+003
 -9.999E+003 -9.999E+003 -9.999E+003 -9.999E+003 -9.999E+003 -9.999E+003 -9.999E+003 -9.999E+003 -9.999E+003 -9.999E+003 -9.999E+003 -9.999E+003 -9.999E+003 -9.999E+003 -9.999E+003 -9.999E+003 -9.999E+003 -9.999E+003 -9.999E+003 -9.999E+003 -9.999E+003 -9.999E+003 -9.999E+003 -9.999E+003 -9.999E+003 -9.999E+003 -9.999E+003 -9.999E+003 -9.999E+003 -9.999E+003 -9.999E+003 -9.999E+003 -9.999E+003 -9.999E+003 -9.999E+003 -9.999E+003 -9.999E+003 -9.999E+003 -9.999E+003 -9.999E+003 -9.999E+003 -9.999E+003 -9.999E+003 -9.999E+003 -9.999E+003 -9.999E+003 -9.999E+003 -9.999E+003 -9.999E+003 -9.999E+003 -9.999E+003 -9.999E+003 -9.999E+003 -9.999E+003 -9.999E+003 -9.999E+003 -9.999E+003 -9.999E+003 -9.999E+003 -9.999E+003 -9.999E+003 -9.999E+003  4.208E-005  4.927E-001  7.774E-001  9.283E-001  9.928E-001  1.031E+000  1.057E+000  1.092E+000  1.144E+000  1.162E+000  1.132E+000  1.088E+000  1.012E+000  8.702E-001  5.815E-001 -9.999E+003 -9.999E+003 -9.999E+003 -9.999E+003 -9.999E+003 -9.999E+003 -9.999E+003 -9.999E+003 -9.999E+003 -9.999E+003 -9.999E+003 -9.999E+003 -9.999E+003 -9.999E+003 -9.999E+003 -9.999E+003 -9.999E+003 -9.999E+003 -9.999E+003 -9.999E+003 -9.999E+003 -9.999E+003 -9.999E+003 -9.999E+003 -9.999E+003 -9.999E+003 -9.999E+003 -9.999E+003 -9.999E+003 -9.999E+003 -9.999E+003 -9.999E+003 -9.999E+003 -9.999E+003 -9.999E+003 -9.999E+003 -9.999E+003 -9.999E+003 -9.999E+003 -9.999E+003 -9.999E+003 -9.999E+003 -9.999E+003 -9.999E+003 -9.999E+003 -9.999E+003 -9.999E+003 -9.999E+003 -9.999E+003 -9.999E+003 -9.999E+003 -9.999E+003 -9.999E+003 -9.999E+003 -9.999E+003 -9.999E+003 -9.999E+003 -9.999E+003 -9.999E+003 -9.999E+003 -9.999E+003 -9.999E+003 -9.999E+003 -9.999E+003 -9.999E+003 -9.999E+003 -9.999E+003 -9.999E+003 -9.999E+003 -9.999E+003 -9.999E+003 -9.999E+003 -9.999E+003
 -9.999E+003 -9.999E+003 -9.999E+003 -9.999E+003 -9.999E+003 -9.999E+003 -9.999E+003 -9.999E+003 -9.999E+003 -9.999E+003 -9.999E+003 -9.999E+003 -9.999E+003 -9.999E+003 -9.999E+003 -9.999E+003 -9.999E+003 -9.999E+003 -9.999E+003 -9.999E+003 -9.999E+003 -9.999E+003 -9.999E+003 -9.999E+003 -9.999E+003 -9.999E+003 -9.999E+003 -9.999E+003 -9.999E+003 -9.999E+003 -9.999E+003 -9.999E+003 -9.999E+003 -9.999E+003 -9.999E+003 -9.999E+003 -9.999E+003 -9.999E+003 -9.999E+003 -9.999E+003 -9.999E+003 -9.999E+003 -9.999E+003 -9.999E+003 -9.999E+003 -9.999E+003 -9.999E+003 -9.999E+003 -9.999E+003 -9.999E+003 -9.999E+003 -9.999E+003 -9.999E+003 -9.999E+003 -9.999E+003 -9.999E+003 -9.999E+003 -9.999E+003 -9.999E+003 -9.999E+003 -9.999E+003 -9.999E+003 -9.999E+003  1.947E-004  7.630E-001  9.314E-001  1.019E+000  1.063E+000  1.067E+000  1.078E+000  1.141E+000  1.135E+000  1.057E+000  9.965E-001  9.165E-001  7.472E-001  4.375E-001  6.986E-005 -9.999E+003 -9.999E+003 -9.999E+003 -9.999E+003 -9.999E+003 -9.999E+003 -9.999E+003 -9.999E+003 -9.999E+003 -9.999E+003 -9.999E+003 -9.999E+003 -9.999E+003 -9.999E+003 -9.999E+003 -9.999E+003 -9.999E+003 -9.999E+003 -9.999E+003 -9.999E+003 -9.999E+003 -9.999E+003 -9.999E+003 -9.999E+003 -9.999E+003 -9.999E+003 -9.999E+003  7.377E-005 -9.999E+003 -9.999E+003 -9.999E+003 -9.999E+003 -9.999E+003 -9.999E+003 -9.999E+003 -9.999E+003 -9.999E+003 -9.999E+003 -9.999E+003 -9.999E+003 -9.999E+003 -9.999E+003 -9.999E+003 -9.999E+003 -9.999E+003 -9.999E+003 -9.999E+003 -9.999E+003 -9.999E+003 -9.999E+003 -9.999E+003 -9.999E+003 -9.999E+003 -9.999E+003 -9.999E+003 -9.999E+003 -9.999E+003 -9.999E+003 -9.999E+003 -9.999E+003 -9.999E+003 -9.999E+003 -9.999E+003 -9.999E+003 -9.999E+003 -9.999E+003 -9.999E+003 -9.999E+003 -9.999E+003 -9.999E+003 -9.999E+003 -9.999E+003
 -9.999E+003 -9.999E+003 -9.999E+003 -9.999E+003 -9.999E+003 -9.999E+003 -9.999E+003 -9.999E+003 -9.999E+003 -9.999E+003 -9.999E+003 -9.999E+003 -9.999E+003 -9.999E+003 -9.999E+003 -9.999E+003 -9.999E+003 -9.999E+003 -9.999E+003 -9.999E+003 -9.999E+003 -9.999E+003 -9.999E+003 -9.999E+003 -9.999E+003 -9.999E+003 -9.999E+003 -9.999E+003 -9.999E+003 -9.999E+003 -9.999E+003 -9.999E+003 -9.999E+003 -9.999E+003 -9.999E+003 -9.999E+003 -9.999E+003 -9.999E+003 -9.999E+003 -9.999E+003 -9.999E+003 -9.999E+003 -9.999E+003 -9.999E+003 -9.999E+003 -9.999E+003 -9.999E+003 -9.999E+003 -9.999E+003 -9.999E+003 -9.999E+003 -9.999E+003 -9.999E+003 -9.999E+003 -9.999E+003 -9.999E+003 -9.999E+003 -9.999E+003 -9.999E+003 -9.999E+003 -9.999E+003 -9.999E+003 -9.999E+003 -9.999E+003  7.874E-001  1.004E+000  1.120E+000  1.191E+000  1.220E+000  1.217E+000  1.222E+000  1.121E+000  9.096E-001  7.788E-001  7.297E-001  4.722E-001  2.240E-004 -9.999E+003 -9.999E+003 -9.999E+003 -9.999E+003 -9.999E+003 -9.999E+003 -9.999E+003 -9.999E+003 -9.999E+003 -9.999E+003 -9.999E+003 -9.999E+003 -9.999E+003 -9.999E+003 -9.999E+003 -9.999E+003 -9.999E+003 -9.999E+003 -9.999E+003 -9.999E+003 -9.999E+003 -9.999E+003 -9.999E+003 -9.999E+003 -9.999E+003  4.275E-004 -9.999E+003  2.689E-001  2.177E-001  5.821E-004 -9.999E+003 -9.999E+003 -9.999E+003 -9.999E+003 -9.999E+003 -9.999E+003 -9.999E+003 -9.999E+003 -9.999E+003 -9.999E+003 -9.999E+003 -9.999E+003 -9.999E+003 -9.999E+003 -9.999E+003 -9.999E+003 -9.999E+003 -9.999E+003 -9.999E+003 -9.999E+003 -9.999E+003 -9.999E+003 -9.999E+003 -9.999E+003 -9.999E+003 -9.999E+003 -9.999E+003 -9.999E+003 -9.999E+003 -9.999E+003 -9.999E+003 -9.999E+003 -9.999E+003 -9.999E+003 -9.999E+003 -9.999E+003 -9.999E+003 -9.999E+003 -9.999E+003 -9.999E+003 -9.999E+003 -9.999E+003 -9.999E+003
 -9.999E+003 -9.999E+003 -9.999E+003 -9.999E+003 -9.999E+003 -9.999E+003 -9.999E+003 -9.999E+003 -9.999E+003 -9.999E+003 -9.999E+003 -9.999E+003 -9.999E+003 -9.999E+003 -9.999E+003 -9.999E+003 -9.999E+003 -9.999E+003 -9.999E+003 -9.999E+003 -9.999E+003 -9.999E+003 -9.999E+003 -9.999E+003 -9.999E+003 -9.999E+003 -9.999E+003 -9.999E+003 -9.999E+003 -9.999E+003 -9.999E+003 -9.999E+003 -9.999E+003 -9.999E+003 -9.999E+003 -9.999E+003 -9.999E+003 -9.999E+003 -9.999E+003 -9.999E+003 -9.999E+003 -9.999E+003 -9.999E+003 -9.999E+003 -9.999E+003 -9.999E+003 -9.999E+003 -9.999E+003 -9.999E+003 -9.999E+003 -9.999E+003 -9.999E+003 -9.999E+003 -9.999E+003 -9.999E+003 -9.999E+003 -9.999E+003 -9.999E+003 -9.999E+003 -9.999E+003 -9.999E+003 -9.999E+003 -9.999E+003  1.949E-001  8.690E-001  1.097E+000  1.220E+000  1.333E+000  1.416E+000  1.398E+000  1.285E+000  1.027E+000  6.125E-001  5.001E-005 -9.999E+003  1.625E-004 -9.999E+003 -9.999E+003 -9.999E+003 -9.999E+003 -9.999E+003 -9.999E+003 -9.999E+003 -9.999E+003 -9.999E+003 -9.999E+003 -9.999E+003 -9.999E+003 -9.999E+003 -9.999E+003 -9.999E+003 -9.999E+003 -9.999E+003 -9.999E+003 -9.999E+003 -9.999E+003 -9.999E+003 -9.999E+003 -9.999E+003 -9.999E+003 -9.999E+003  3.405E-004  1.890E-001  7.941E-001  8.622E-001  8.489E-001  4.710E-001  3.731E-004 -9.999E+003 -9.999E+003 -9.999E+003 -9.999E+003 -9.999E+003 -9.999E+003 -9.999E+003 -9.999E+003 -9.999E+003 -9.999E+003 -9.999E+003 -9.999E+003 -9.999E+003 -9.999E+003 -9.999E+003 -9.999E+003 -9.999E+003 -9.999E+003 -9.999E+003 -9.999E+003 -9.999E+003 -9.999E+003 -9.999E+003 -9.999E+003 -9.999E+003 -9.999E+003 -9.999E+003 -9.999E+003 -9.999E+003 -9.999E+003 -9.999E+003 -9.999E+003 -9.999E+003 -9.999E+003 -9.999E+003 -9.999E+003 -9.999E+003 -9.999E+003 -9.999E+003 -9.999E+003 -9.999E+003 -9.999E+003
 -9.999E+003 -9.999E+003 -9.999E+003 -9.999E+003 -9.999E+003 -9.999E+003 -9.999E+003 -9.999E+003 -9.999E+003 -9.999E+003 -9.999E+003 -9.999E+003 -9.999E+003 -9.999E+003 -9.999E+003 -9.999E+003 -9.999E+003 -9.999E+003 -9.999E+003 -9.999E+003 -9.999E+003 -9.999E+003 -9.999E+003 -9.999E+003 -9.999E+003 -9.999E+003 -9.999E+003 -9.999E+003 -9.999E+003 -9.999E+003 -9.999E+003 -9.999E+003 -9.999E+003 -9.999E+003 -9.999E+003 -9.999E+003 -9.999E+003 -9.999E+003 -9.999E+003 -9.999E+003 -9.999E+003 -9.999E+003 -9.999E+003 -9.999E+003 -9.999E+003 -9.999E+003 -9.999E+003 -9.999E+003 -9.999E+003 -9.999E+003 -9.999E+003 -9.999E+003 -9.999E+003 -9.999E+003 -9.999E+003 -9.999E+003 -9.999E+003 -9.999E+003 -9.999E+003 -9.999E+003 -9.999E+003 -9.999E+003  1.678E-003  6.778E-001  1.055E+000  1.171E+000  1.283E+000  1.419E+000  1.506E+000  1.459E+000  1.223E+000  8.318E-001  1.727E-004 -9.999E+003 -9.999E+003 -9.999E+003 -9.999E+003 -9.999E+003 -9.999E+003 -9.999E+003 -9.999E+003 -9.999E+003 -9.999E+003 -9.999E+003 -9.999E+003 -9.999E+003 -9.999E+003 -9.999E+003 -9.999E+003 -9.999E+003 -9.999E+003 -9.999E+003 -9.999E+003 -9.999E+003 -9.999E+003 -9.999E+003 -9.999E+003 -9.999E+003 -9.999E+003  2.280E-004  1.386E-001  8.356E-001  9.026E-001  1.049E+000  1.190E+000  1.273E+000  1.058E+000  2.217E-001  3.194E-004 -9.999E+003 -9.999E+003 -9.999E+003 -9.999E+003 -9.999E+003 -9.999E+003 -9.999E+003 -9.999E+003 -9.999E+003 -9.999E+003 -9.999E+003 -9.999E+003 -9.999E+003 -9.999E+003 -9.999E+003 -9.999E+003 -9.999E+003 -9.999E+003 -9.999E+003 -9.999E+003 -9.999E+003 -9.999E+003 -9.999E+003 -9.999E+003 -9.999E+003 -9.999E+003 -9.999E+003 -9.999E+003 -9.999E+003 -9.999E+003 -9.999E+003 -9.999E+003 -9.999E+003 -9.999E+003 -9.999E+003 -9.999E+003 -9.999E+003 -9.999E+003 -9.999E+003 -9.999E+003 -9.999E+003
 -9.999E+003 -9.999E+003 -9.999E+003 -9.999E+003 -9.999E+003 -9.999E+003 -9.999E+003 -9.999E+003 -9.999E+003 -9.999E+003 -9.999E+003 -9.999E+003 -9.999E+003 -9.999E+003 -9.999E+003 -9.999E+003 -9.999E+003 -9.999E+003 -9.999E+003 -9.999E+003 -9.999E+003 -9.999E+003 -9.999E+003 -9.999E+003 -9.999E+003 -9.999E+003 -9.999E+003 -9.999E+003 -9.999E+003 -9.999E+003 -9.999E+003 -9.999E+003 -9.999E+003 -9.999E+003 -9.999E+003 -9.999E+003 -9.999E+003 -9.999E+003 -9.999E+003 -9.999E+003 -9.999E+003 -9.999E+003 -9.999E+003 -9.999E+003 -9.999E+003 -9.999E+003 -9.999E+003 -9.999E+003 -9.999E+003 -9.999E+003 -9.999E+003 -9.999E+003 -9.999E+003 -9.999E+003 -9.999E+003 -9.999E+003 -9.999E+003 -9.999E+003 -9.999E+003 -9.999E+003 -9.999E+003 -9.999E+003  4.362E-001  9.010E-001  1.079E+000  1.162E+000  1.258E+000  1.423E+000  1.482E+000  1.358E+000  1.058E+000  6.089E-001 -9.999E+003 -9.999E+003 -9.999E+003 -9.999E+003 -9.999E+003 -9.999E+003 -9.999E+003 -9.999E+003 -9.999E+003 -9.999E+003 -9.999E+003 -9.999E+003 -9.999E+003 -9.999E+003 -9.999E+003 -9.999E+003 -9.999E+003 -9.999E+003 -9.999E+003 -9.999E+003 -9.999E+003 -9.999E+003 -9.999E+003 -9.999E+003 -9.999E+003 -9.999E+003  9.374E-005  6.266E-001  1.013E+000  1.127E+000  1.141E+000  1.131E+000  1.170E+000  1.160E+000  9.123E-001  4.602E-001 -9.999E+003 -9.999E+003 -9.999E+003 -9.999E+003 -9.999E+003 -9.999E+003 -9.999E+003 -9.999E+003 -9.999E+003 -9.999E+003 -9.999E+003 -9.999E+003 -9.999E+003 -9.999E+003 -9.999E+003 -9.999E+003 -9.999E+003 -9.999E+003 -9.999E+003 -9.999E+003 -9.999E+003 -9.999E+003 -9.999E+003 -9.999E+003 -9.999E+003 -9.999E+003 -9.999E+003 -9.999E+003 -9.999E+003 -9.999E+003 -9.999E+003 -9.999E+003 -9.999E+003 -9.999E+003 -9.999E+003 -9.999E+003 -9.999E+003 -9.999E+003 -9.999E+003 -9.999E+003 -9.999E+003 -9.999E+003
 -9.999E+003 -9.999E+003 -9.999E+003 -9.999E+003 -9.999E+003 -9.999E+003 -9.999E+003 -9.999E+003 -9.999E+003 -9.999E+003 -9.999E+003 -9.999E+003 -9.999E+003 -9.999E+003 -9.999E+003 -9.999E+003 -9.999E+003 -9.999E+003 -9.999E+003 -9.999E+003 -9.999E+003 -9.999E+003 -9.999E+003 -9.999E+003 -9.999E+003 -9.999E+003 -9.999E+003 -9.999E+003 -9.999E+003 -9.999E+003 -9.999E+003 -9.999E+003 -9.999E+003 -9.999E+003 -9.999E+003 -9.999E+003 -9.999E+003 -9.999E+003 -9.999E+003 -9.999E+003 -9.999E+003 -9.999E+003 -9.999E+003 -9.999E+003 -9.999E+003 -9.999E+003 -9.999E+003 -9.999E+003 -9.999E+003 -9.999E+003 -9.999E+003 -9.999E+003 -9.999E+003 -9.999E+003 -9.999E+003 -9.999E+003 -9.999E+003 -9.999E+003 -9.999E+003 -9.999E+003 -9.999E+003  6.643E-005  5.161E-001  8.533E-001  1.038E+000  1.101E+000  1.180E+000  1.289E+000  1.311E+000  1.142E+000  7.791E-001 -9.999E+003 -9.999E+003 -9.999E+003 -9.999E+003 -9.999E+003 -9.999E+003 -9.999E+003 -9.999E+003 -9.999E+003 -9.999E+003 -9.999E+003 -9.999E+003 -9.999E+003 -9.999E+003 -9.999E+003 -9.999E+003 -9.999E+003 -9.999E+003 -9.999E+003 -9.999E+003 -9.999E+003 -9.999E+003 -9.999E+003 -9.999E+003 -9.999E+003 -9.999E+003 -9.999E+003  3.551E-001  7.983E-001  1.153E+000  1.248E+000  1.228E+000  1.208E+000  1.143E+000  9.106E-001  4.985E-001 -9.999E+003 -9.999E+003 -9.999E+003 -9.999E+003 -9.999E+003 -9.999E+003 -9.999E+003 -9.999E+003 -9.999E+003 -9.999E+003 -9.999E+003 -9.999E+003 -9.999E+003 -9.999E+003 -9.999E+003 -9.999E+003 -9.999E+003 -9.999E+003 -9.999E+003 -9.999E+003 -9.999E+003 -9.999E+003 -9.999E+003 -9.999E+003 -9.999E+003 -9.999E+003 -9.999E+003 -9.999E+003 -9.999E+003 -9.999E+003 -9.999E+003 -9.999E+003 -9.999E+003 -9.999E+003 -9.999E+003 -9.999E+003 -9.999E+003 -9.999E+003 -9.999E+003 -9.999E+003 -9.999E+003 -9.999E+003 -9.999E+003
 -9.999E+003 -9.999E+003 -9.999E+003 -9.999E+003 -9.999E+003 -9.999E+003 -9.999E+003 -9.999E+003 -9.999E+003 -9.999E+003 -9.999E+003 -9.999E+003 -9.999E+003 -9.999E+003 -9.999E+003 -9.999E+003 -9.999E+003 -9.999E+003 -9.999E+003 -9.999E+003 -9.999E+003 -9.999E+003 -9.999E+003 -9.999E+003 -9.999E+003 -9.999E+003 -9.999E+003 -9.999E+003 -9.999E+003 -9.999E+003 -9.999E+003 -9.999E+003 -9.999E+003 -9.999E+003 -9.999E+003 -9.999E+003 -9.999E+003 -9.999E+003 -9.999E+003 -9.999E+003 -9.999E+003 -9.999E+003 -9.999E+003 -9.999E+003 -9.999E+003 -9.999E+003 -9.999E+003 -9.999E+003 -9.999E+003 -9.999E+003 -9.999E+003 -9.999E+003 -9.999E+003 -9.999E+003 -9.999E+003 -9.999E+003 -9.999E+003 -9.999E+003 -9.999E+003 -9.999E+003 -9.999E+003 -9.999E+003  3.979E-001  7.378E-001  1.016E+000  1.145E+000  1.172E+000  1.136E+000  1.100E+000  9.748E-001  5.590E-005 -9.999E+003 -9.999E+003 -9.999E+003 -9.999E+003 -9.999E+003 -9.999E+003 -9.999E+003 -9.999E+003 -9.999E+003 -9.999E+003 -9.999E+003 -9.999E+003 -9.999E+003 -9.999E+003 -9.999E+003 -9.999E+003 -9.999E+003 -9.999E+003 -9.999E+003 -9.999E+003 -9.999E+003 -9.999E+003 -9.999E+003 -9.999E+003 -9.999E+003 -9.999E+003  2.939E-005  3.876E-001  7.719E-001  1.129E+000  1.256E+000  1.302E+000  1.319E+000  1.185E+000  8.826E-001 -9.999E+003 -9.999E+003 -9.999E+003 -9.999E+003 -9.999E+003 -9.999E+003 -9.999E+003 -9.999E+003 -9.999E+003 -9.999E+003 -9.999E+003 -9.999E+003 -9.999E+003 -9.999E+003 -9.999E+003 -9.999E+003 -9.999E+003 -9.999E+003 -9.999E+003 -9.999E+003 -9.999E+003 -9.999E+003 -9.999E+003 -9.999E+003 -9.999E+003 -9.999E+003 -9.999E+003 -9.999E+003 -9.999E+003 -9.999E+003 -9.999E+003 -9.999E+003 -9.999E+003 -9.999E+003 -9.999E+003 -9.999E+003 -9.999E+003 -9.999E+003 -9.999E+003 -9.999E+003 -9.999E+003 -9.999E+003 -9.999E+003 -9.999E+003
 -9.999E+003 -9.999E+003 -9.999E+003 -9.999E+003 -9.999E+003 -9.999E+003 -9.999E+003 -9.999E+003 -9.999E+003 -9.999E+003 -9.999E+003 -9.999E+003 -9.999E+003 -9.999E+003 -9.999E+003 -9.999E+003 -9.999E+003 -9.999E+003 -9.999E+003 -9.999E+003 -9.999E+003 -9.999E+003 -9.999E+003 -9.999E+003 -9.999E+003 -9.999E+003 -9.999E+003 -9.999E+003 -9.999E+003 -9.999E+003 -9.999E+003 -9.999E+003 -9.999E+003 -9.999E+003 -9.999E+003 -9.999E+003 -9.999E+003 -9.999E+003 -9.999E+003 -9.999E+003 -9.999E+003 -9.999E+003 -9.999E+003 -9.999E+003 -9.999E+003 -9.999E+003 -9.999E+003 -9.999E+003 -9.999E+003 -9.999E+003 -9.999E+003 -9.999E+003 -9.999E+003 -9.999E+003 -9.999E+003 -9.999E+003 -9.999E+003 -9.999E+003 -9.999E+003 -9.999E+003 -9.999E+003 -9.999E+003 -9.999E+003  6.384E-001  1.041E+000  1.251E+000  1.129E+000  9.471E-001  8.983E-001  7.953E-001  5.833E-002 -9.999E+003 -9.999E+003 -9.999E+003 -9.999E+003 -9.999E+003 -9.999E+003 -9.999E+003 -9.999E+003 -9.999E+003 -9.999E+003 -9.999E+003 -9.999E+003 -9.999E+003 -9.999E+003 -9.999E+003 -9.999E+003 -9.999E+003 -9.999E+003 -9.999E+003 -9.999E+003 -9.999E+003 -9.999E+003 -9.999E+003 -9.999E+003 -9.999E+003 -9.999E+003 -9.999E+003  3.212E-001  7.240E-001  1.033E+000  1.234E+000  1.386E+000  1.475E+000  1.304E+000  9.260E-001  1.101E-001 -9.999E+003 -9.999E+003 -9.999E+003 -9.999E+003 -9.999E+003 -9.999E+003 -9.999E+003 -9.999E+003 -9.999E+003 -9.999E+003 -9.999E+003 -9.999E+003 -9.999E+003 -9.999E+003 -9.999E+003 -9.999E+003 -9.999E+003 -9.999E+003 -9.999E+003 -9.999E+003 -9.999E+003 -9.999E+003 -9.999E+003 -9.999E+003 -9.999E+003 -9.999E+003 -9.999E+003 -9.999E+003 -9.999E+003 -9.999E+003 -9.999E+003 -9.999E+003 -9.999E+003 -9.999E+003 -9.999E+003 -9.999E+003 -9.999E+003 -9.999E+003 -9.999E+003 -9.999E+003 -9.999E+003 -9.999E+003 -9.999E+003
 -9.999E+003 -9.999E+003 -9.999E+003 -9.999E+003 -9.999E+003 -9.999E+003 -9.999E+003 -9.999E+003 -9.999E+003 -9.999E+003 -9.999E+003 -9.999E+003 -9.999E+003 -9.999E+003 -9.999E+003 -9.999E+003 -9.999E+003 -9.999E+003 -9.999E+003 -9.999E+003 -9.999E+003 -9.999E+003 -9.999E+003 -9.999E+003 -9.999E+003 -9.999E+003 -9.999E+003 -9.999E+003 -9.999E+003 -9.999E+003 -9.999E+003 -9.999E+003 -9.999E+003 -9.999E+003 -9.999E+003 -9.999E+003 -9.999E+003 -9.999E+003 -9.999E+003 -9.999E+003 -9.999E+003 -9.999E+003 -9.999E+003 -9.999E+003 -9.999E+003 -9.999E+003 -9.999E+003 -9.999E+003 -9.999E+003 -9.999E+003 -9.999E+003 -9.999E+003 -9.999E+003 -9.999E+003 -9.999E+003 -9.999E+003 -9.999E+003 -9.999E+003 -9.999E+003 -9.999E+003 -9.999E+003 -9.999E+003  2.720E-005  6.245E-001  1.036E+000  1.235E+000  1.049E+000  7.523E-001  5.488E-001  3.007E-001 -9.999E+003 -9.999E+003 -9.999E+003 -9.999E+003 -9.999E+003 -9.999E+003 -9.999E+003 -9.999E+003 -9.999E+003 -9.999E+003 -9.999E+003 -9.999E+003 -9.999E+003 -9.999E+003 -9.999E+003 -9.999E+003 -9.999E+003 -9.999E+003 -9.999E+003 -9.999E+003  1.396E-004 -9.999E+003 -9.999E+003 -9.999E+003 -9.999E+003 -9.999E+003  4.199E-003  1.141E-002  6.078E-001  9.002E-001  1.089E+000  1.232E+000  1.387E+000  1.497E+000  1.289E+000  8.496E-001  1.721E-001  7.974E-005 -9.999E+003 -9.999E+003 -9.999E+003 -9.999E+003 -9.999E+003 -9.999E+003 -9.999E+003 -9.999E+003 -9.999E+003 -9.999E+003 -9.999E+003 -9.999E+003 -9.999E+003 -9.999E+003 -9.999E+003 -9.999E+003 -9.999E+003 -9.999E+003 -9.999E+003 -9.999E+003 -9.999E+003 -9.999E+003 -9.999E+003 -9.999E+003 -9.999E+003 -9.999E+003 -9.999E+003 -9.999E+003 -9.999E+003 -9.999E+003 -9.999E+003 -9.999E+003 -9.999E+003 -9.999E+003 -9.999E+003 -9.999E+003 -9.999E+003 -9.999E+003 -9.999E+003 -9.999E+003 -9.999E+003 -9.999E+003
 -9.999E+003 -9.999E+003 -9.999E+003 -9.999E+003 -9.999E+003 -9.999E+003 -9.999E+003 -9.999E+003 -9.999E+003 -9.999E+003 -9.999E+003 -9.999E+003 -9.999E+003 -9.999E+003 -9.999E+003 -9.999E+003 -9.999E+003 -9.999E+003 -9.999E+003 -9.999E+003 -9.999E+003 -9.999E+003 -9.999E+003 -9.999E+003 -9.999E+003 -9.999E+003 -9.999E+003 -9.999E+003 -9.999E+003 -9.999E+003 -9.999E+003 -9.999E+003 -9.999E+003 -9.999E+003 -9.999E+003 -9.999E+003 -9.999E+003 -9.999E+003 -9.999E+003 -9.999E+003 -9.999E+003 -9.999E+003 -9.999E+003 -9.999E+003 -9.999E+003 -9.999E+003 -9.999E+003 -9.999E+003 -9.999E+003 -9.999E+003 -9.999E+003 -9.999E+003 -9.999E+003 -9.999E+003 -9.999E+003 -9.999E+003 -9.999E+003 -9.999E+003 -9.999E+003 -9.999E+003 -9.999E+003  1.201E-005  3.589E-001  7.303E-001  1.081E+000  1.151E+000  9.156E-001  5.667E-001  2.687E-001 -9.999E+003 -9.999E+003 -9.999E+003 -9.999E+003 -9.999E+003 -9.999E+003 -9.999E+003 -9.999E+003 -9.999E+003 -9.999E+003 -9.999E+003 -9.999E+003 -9.999E+003 -9.999E+003 -9.999E+003 -9.999E+003 -9.999E+003 -9.999E+003 -9.999E+003 -9.999E+003  1.440E-004  8.738E-002  1.440E-004 -9.999E+003 -9.999E+003  1.532E-005 -9.999E+003  3.986E-001  6.995E-001  9.821E-001  1.204E+000  1.260E+000  1.244E+000  1.210E+000  1.172E+000  1.018E+000  7.129E-001  1.005E-002 -9.999E+003 -9.999E+003 -9.999E+003 -9.999E+003 -9.999E+003 -9.999E+003 -9.999E+003 -9.999E+003 -9.999E+003 -9.999E+003 -9.999E+003 -9.999E+003 -9.999E+003 -9.999E+003 -9.999E+003 -9.999E+003 -9.999E+003 -9.999E+003 -9.999E+003 -9.999E+003 -9.999E+003 -9.999E+003 -9.999E+003 -9.999E+003 -9.999E+003 -9.999E+003 -9.999E+003 -9.999E+003 -9.999E+003 -9.999E+003 -9.999E+003 -9.999E+003 -9.999E+003 -9.999E+003 -9.999E+003 -9.999E+003 -9.999E+003 -9.999E+003 -9.999E+003 -9.999E+003 -9.999E+003 -9.999E+003 -9.999E+003
 -9.999E+003 -9.999E+003 -9.999E+003 -9.999E+003 -9.999E+003 -9.999E+003 -9.999E+003 -9.999E+003 -9.999E+003 -9.999E+003 -9.999E+003 -9.999E+003 -9.999E+003 -9.999E+003 -9.999E+003 -9.999E+003 -9.999E+003 -9.999E+003 -9.999E+003 -9.999E+003 -9.999E+003 -9.999E+003 -9.999E+003 -9.999E+003 -9.999E+003 -9.999E+003 -9.999E+003 -9.999E+003 -9.999E+003 -9.999E+003 -9.999E+003 -9.999E+003 -9.999E+003 -9.999E+003 -9.999E+003 -9.999E+003 -9.999E+003 -9.999E+003 -9.999E+003 -9.999E+003 -9.999E+003 -9.999E+003 -9.999E+003 -9.999E+003 -9.999E+003 -9.999E+003 -9.999E+003 -9.999E+003 -9.999E+003 -9.999E+003 -9.999E+003 -9.999E+003 -9.999E+003 -9.999E+003 -9.999E+003 -9.999E+003 -9.999E+003 -9.999E+003 -9.999E+003 -9.999E+003 -9.999E+003 -9.999E+003  3.587E-001  8.529E-001  1.253E+000  1.091E+000  6.955E-001  3.556E-001  1.289E-001 -9.999E+003 -9.999E+003 -9.999E+003 -9.999E+003 -9.999E+003 -9.999E+003 -9.999E+003 -9.999E+003 -9.999E+003 -9.999E+003 -9.999E+003 -9.999E+003 -9.999E+003 -9.999E+003 -9.999E+003 -9.999E+003 -9.999E+003 -9.999E+003 -9.999E+003 -9.999E+003  4.576E-001  6.597E-001  1.411E-001 -9.999E+003  2.189E-004  4.017E-001  5.528E-001  8.593E-001  1.076E+000  1.324E+000  1.441E+000  1.384E+000  1.164E+000  8.891E-001  6.629E-001  5.807E-001 -9.999E+003 -9.999E+003 -9.999E+003 -9.999E+003 -9.999E+003 -9.999E+003 -9.999E+003 -9.999E+003 -9.999E+003 -9.999E+003 -9.999E+003 -9.999E+003 -9.999E+003 -9.999E+003 -9.999E+003 -9.999E+003 -9.999E+003 -9.999E+003 -9.999E+003 -9.999E+003 -9.999E+003 -9.999E+003 -9.999E+003 -9.999E+003 -9.999E+003 -9.999E+003 -9.999E+003 -9.999E+003 -9.999E+003 -9.999E+003 -9.999E+003 -9.999E+003 -9.999E+003 -9.999E+003 -9.999E+003 -9.999E+003 -9.999E+003 -9.999E+003 -9.999E+003 -9.999E+003 -9.999E+003 -9.999E+003 -9.999E+003 -9.999E+003 -9.999E+003
 -9.999E+003 -9.999E+003 -9.999E+003 -9.999E+003 -9.999E+003 -9.999E+003 -9.999E+003 -9.999E+003 -9.999E+003 -9.999E+003 -9.999E+003 -9.999E+003 -9.999E+003 -9.999E+003 -9.999E+003 -9.999E+003 -9.999E+003 -9.999E+003 -9.999E+003 -9.999E+003 -9.999E+003 -9.999E+003 -9.999E+003 -9.999E+003 -9.999E+003 -9.999E+003 -9.999E+003 -9.999E+003 -9.999E+003 -9.999E+003 -9.999E+003 -9.999E+003 -9.999E+003 -9.999E+003 -9.999E+003 -9.999E+003 -9.999E+003 -9.999E+003 -9.999E+003 -9.999E+003 -9.999E+003 -9.999E+003 -9.999E+003 -9.999E+003 -9.999E+003 -9.999E+003 -9.999E+003 -9.999E+003 -9.999E+003 -9.999E+003 -9.999E+003 -9.999E+003 -9.999E+003 -9.999E+003 -9.999E+003 -9.999E+003 -9.999E+003 -9.999E+003 -9.999E+003 -9.999E+003 -9.999E+003 -9.999E+003  4.387E-001  9.828E-001  1.333E+000  9.405E-001  4.172E-001  1.511E-001 -9.999E+003 -9.999E+003 -9.999E+003 -9.999E+003 -9.999E+003 -9.999E+003 -9.999E+003 -9.999E+003 -9.999E+003 -9.999E+003 -9.999E+003 -9.999E+003 -9.999E+003 -9.999E+003 -9.999E+003 -9.999E+003 -9.999E+003 -9.999E+003 -9.999E+003  7.001E-001  8.512E-001  9.287E-001  9.565E-001  8.759E-001  7.750E-001  7.934E-001  8.261E-001  9.400E-001  1.090E+000  1.292E+000  1.482E+000  1.444E+000  1.280E+000  9.685E-001  5.265E-001  4.278E-004 -9.999E+003 -9.999E+003 -9.999E+003 -9.999E+003 -9.999E+003 -9.999E+003 -9.999E+003 -9.999E+003 -9.999E+003 -9.999E+003 -9.999E+003 -9.999E+003 -9.999E+003 -9.999E+003 -9.999E+003 -9.999E+003 -9.999E+003 -9.999E+003 -9.999E+003 -9.999E+003 -9.999E+003 -9.999E+003 -9.999E+003 -9.999E+003 -9.999E+003 -9.999E+003 -9.999E+003 -9.999E+003 -9.999E+003 -9.999E+003 -9.999E+003 -9.999E+003 -9.999E+003 -9.999E+003 -9.999E+003 -9.999E+003 -9.999E+003 -9.999E+003 -9.999E+003 -9.999E+003 -9.999E+003 -9.999E+003 -9.999E+003 -9.999E+003 -9.999E+003 -9.999E+003
 -9.999E+003 -9.999E+003 -9.999E+003 -9.999E+003 -9.999E+003 -9.999E+003 -9.999E+003 -9.999E+003 -9.999E+003 -9.999E+003 -9.999E+003 -9.999E+003 -9.999E+003 -9.999E+003 -9.999E+003 -9.999E+003 -9.999E+003 -9.999E+003 -9.999E+003 -9.999E+003 -9.999E+003 -9.999E+003 -9.999E+003 -9.999E+003 -9.999E+003 -9.999E+003 -9.999E+003 -9.999E+003 -9.999E+003 -9.999E+003 -9.999E+003 -9.999E+003 -9.999E+003 -9.999E+003 -9.999E+003 -9.999E+003 -9.999E+003 -9.999E+003 -9.999E+003 -9.999E+003 -9.999E+003 -9.999E+003 -9.999E+003 -9.999E+003 -9.999E+003 -9.999E+003 -9.999E+003 -9.999E+003 -9.999E+003 -9.999E+003 -9.999E+003 -9.999E+003 -9.999E+003 -9.999E+003 -9.999E+003 -9.999E+003 -9.999E+003 -9.999E+003 -9.999E+003 -9.999E+003 -9.999E+003  1.935E-001  5.491E-001  1.074E+000  1.191E+000  6.471E-001  2.208E-001 -9.999E+003 -9.999E+003 -9.999E+003 -9.999E+003  7.114E-002 -9.999E+003 -9.999E+003 -9.999E+003 -9.999E+003 -9.999E+003 -9.999E+003 -9.999E+003 -9.999E+003 -9.999E+003 -9.999E+003 -9.999E+003 -9.999E+003 -9.999E+003  4.510E-004  6.573E-001  8.875E-001  9.964E-001  1.027E+000  1.050E+000  1.173E+000  1.359E+000  1.388E+000  1.293E+000  1.229E+000  1.151E+000  1.159E+000  1.176E+000  1.034E+000  8.505E-001  5.860E-001  1.098E-004 -9.999E+003 -9.999E+003 -9.999E+003 -9.999E+003 -9.999E+003 -9.999E+003 -9.999E+003 -9.999E+003 -9.999E+003 -9.999E+003 -9.999E+003 -9.999E+003 -9.999E+003 -9.999E+003 -9.999E+003 -9.999E+003 -9.999E+003 -9.999E+003 -9.999E+003 -9.999E+003 -9.999E+003 -9.999E+003 -9.999E+003 -9.999E+003 -9.999E+003 -9.999E+003 -9.999E+003 -9.999E+003 -9.999E+003 -9.999E+003 -9.999E+003 -9.999E+003 -9.999E+003 -9.999E+003 -9.999E+003 -9.999E+003 -9.999E+003 -9.999E+003 -9.999E+003 -9.999E+003 -9.999E+003 -9.999E+003 -9.999E+003 -9.999E+003 -9.999E+003 -9.999E+003 -9.999E+003
 -9.999E+003 -9.999E+003 -9.999E+003 -9.999E+003 -9.999E+003 -9.999E+003 -9.999E+003 -9.999E+003 -9.999E+003 -9.999E+003 -9.999E+003 -9.999E+003 -9.999E+003 -9.999E+003 -9.999E+003 -9.999E+003 -9.999E+003 -9.999E+003 -9.999E+003 -9.999E+003 -9.999E+003 -9.999E+003 -9.999E+003 -9.999E+003 -9.999E+003 -9.999E+003 -9.999E+003 -9.999E+003 -9.999E+003 -9.999E+003 -9.999E+003 -9.999E+003 -9.999E+003 -9.999E+003 -9.999E+003 -9.999E+003 -9.999E+003 -9.999E+003 -9.999E+003 -9.999E+003 -9.999E+003 -9.999E+003 -9.999E+003 -9.999E+003 -9.999E+003 -9.999E+003 -9.999E+003 -9.999E+003 -9.999E+003 -9.999E+003 -9.999E+003 -9.999E+003 -9.999E+003 -9.999E+003 -9.999E+003 -9.999E+003 -9.999E+003 -9.999E+003 -9.999E+003 -9.999E+003 -9.999E+003  2.138E-001  6.427E-001  1.223E+000  9.115E-001  3.357E-001  1.110E-001 -9.999E+003 -9.999E+003 -9.999E+003  1.652E-001  3.786E-001  1.377E-001 -9.999E+003 -9.999E+003 -9.999E+003 -9.999E+003 -9.999E+003 -9.999E+003 -9.999E+003 -9.999E+003 -9.999E+003 -9.999E+003  1.503E-005  2.417E-002  6.212E-001  8.393E-001  9.883E-001  1.076E+000  1.070E+000  1.078E+000  1.324E+000  1.704E+000  1.739E+000  1.583E+000  1.363E+000  1.109E+000  8.595E-001  6.406E-001  4.902E-001  3.800E-001  4.945E-005 -9.999E+003 -9.999E+003 -9.999E+003 -9.999E+003 -9.999E+003 -9.999E+003 -9.999E+003 -9.999E+003 -9.999E+003 -9.999E+003 -9.999E+003 -9.999E+003 -9.999E+003 -9.999E+003 -9.999E+003 -9.999E+003 -9.999E+003 -9.999E+003 -9.999E+003 -9.999E+003 -9.999E+003 -9.999E+003 -9.999E+003 -9.999E+003 -9.999E+003 -9.999E+003 -9.999E+003 -9.999E+003 -9.999E+003 -9.999E+003 -9.999E+003 -9.999E+003 -9.999E+003 -9.999E+003 -9.999E+003 -9.999E+003 -9.999E+003 -9.999E+003 -9.999E+003 -9.999E+003 -9.999E+003 -9.999E+003 -9.999E+003 -9.999E+003 -9.999E+003 -9.999E+003 -9.999E+003 -9.999E+003
 -9.999E+003 -9.999E+003 -9.999E+003 -9.999E+003 -9.999E+003 -9.999E+003 -9.999E+003 -9.999E+003 -9.999E+003 -9.999E+003 -9.999E+003 -9.999E+003 -9.999E+003 -9.999E+003 -9.999E+003 -9.999E+003 -9.999E+003 -9.999E+003 -9.999E+003 -9.999E+003 -9.999E+003 -9.999E+003 -9.999E+003 -9.999E+003 -9.999E+003 -9.999E+003 -9.999E+003 -9.999E+003 -9.999E+003 -9.999E+003 -9.999E+003 -9.999E+003 -9.999E+003 -9.999E+003 -9.999E+003 -9.999E+003 -9.999E+003 -9.999E+003 -9.999E+003 -9.999E+003 -9.999E+003 -9.999E+003 -9.999E+003 -9.999E+003 -9.999E+003 -9.999E+003 -9.999E+003 -9.999E+003 -9.999E+003 -9.999E+003 -9.999E+003 -9.999E+003 -9.999E+003 -9.999E+003 -9.999E+003 -9.999E+003 -9.999E+003 -9.999E+003 -9.999E+003 -9.999E+003 -9.999E+003  3.320E-001  8.701E-001  1.303E+000  5.878E-001  1.627E-001 -9.999E+003 -9.999E+003 -9.999E+003  3.085E-002  3.869E-001  6.342E-001  7.247E-001  1.701E-001 -9.999E+003 -9.999E+003 -9.999E+003 -9.999E+003 -9.999E+003 -9.999E+003 -9.999E+003 -9.999E+003  1.715E-005  4.180E-001  8.091E-001  9.064E-001  9.527E-001  1.051E+000  1.134E+000  1.099E+000  9.795E-001  1.009E+000  1.260E+000  1.368E+000  1.305E+000  1.189E+000  8.801E-001  4.816E-001  2.464E-001 -9.999E+003  3.310E-005 -9.999E+003 -9.999E+003 -9.999E+003 -9.999E+003 -9.999E+003 -9.999E+003 -9.999E+003 -9.999E+003 -9.999E+003 -9.999E+003 -9.999E+003 -9.999E+003 -9.999E+003 -9.999E+003 -9.999E+003 -9.999E+003 -9.999E+003 -9.999E+003 -9.999E+003 -9.999E+003 -9.999E+003 -9.999E+003 -9.999E+003 -9.999E+003 -9.999E+003 -9.999E+003 -9.999E+003 -9.999E+003 -9.999E+003 -9.999E+003 -9.999E+003 -9.999E+003 -9.999E+003 -9.999E+003 -9.999E+003 -9.999E+003 -9.999E+003 -9.999E+003 -9.999E+003 -9.999E+003 -9.999E+003 -9.999E+003 -9.999E+003 -9.999E+003 -9.999E+003 -9.999E+003 -9.999E+003 -9.999E+003 -9.999E+003
 -9.999E+003 -9.999E+003 -9.999E+003 -9.999E+003 -9.999E+003 -9.999E+003 -9.999E+003 -9.999E+003 -9.999E+003 -9.999E+003 -9.999E+003 -9.999E+003 -9.999E+003 -9.999E+003 -9.999E+003 -9.999E+003 -9.999E+003 -9.999E+003 -9.999E+003 -9.999E+003 -9.999E+003 -9.999E+003 -9.999E+003 -9.999E+003 -9.999E+003 -9.999E+003 -9.999E+003 -9.999E+003 -9.999E+003 -9.999E+003 -9.999E+003 -9.999E+003 -9.999E+003 -9.999E+003 -9.999E+003 -9.999E+003 -9.999E+003 -9.999E+003 -9.999E+003 -9.999E+003 -9.999E+003 -9.999E+003 -9.999E+003 -9.999E+003 -9.999E+003 -9.999E+003 -9.999E+003 -9.999E+003 -9.999E+003 -9.999E+003 -9.999E+003 -9.999E+003 -9.999E+003 -9.999E+003 -9.999E+003 -9.999E+003 -9.999E+003 -9.999E+003 -9.999E+003 -9.999E+003  1.903E-001  5.658E-001  1.142E+000  1.123E+000  4.617E-001  1.394E-001 -9.999E+003 -9.999E+003 -9.999E+003  1.408E-001  3.507E-001  6.049E-001  7.442E-001  5.661E-001  1.319E-001 -9.999E+003 -9.999E+003 -9.999E+003 -9.999E+003 -9.999E+003 -9.999E+003 -9.999E+003  1.427E-001  3.852E-001  7.305E-001  9.851E-001  1.009E+000  9.661E-001  1.007E+000  9.055E-001  6.603E-001  5.095E-001  5.299E-001  6.050E-001  6.010E-001  5.306E-001  3.337E-001  1.564E-001  5.422E-002 -9.999E+003 -9.999E+003 -9.999E+003 -9.999E+003 -9.999E+003 -9.999E+003 -9.999E+003 -9.999E+003 -9.999E+003 -9.999E+003 -9.999E+003 -9.999E+003 -9.999E+003 -9.999E+003 -9.999E+003 -9.999E+003 -9.999E+003 -9.999E+003 -9.999E+003 -9.999E+003 -9.999E+003 -9.999E+003 -9.999E+003 -9.999E+003 -9.999E+003 -9.999E+003 -9.999E+003 -9.999E+003 -9.999E+003 -9.999E+003 -9.999E+003 -9.999E+003 -9.999E+003 -9.999E+003 -9.999E+003 -9.999E+003 -9.999E+003 -9.999E+003 -9.999E+003 -9.999E+003 -9.999E+003 -9.999E+003 -9.999E+003 -9.999E+003 -9.999E+003 -9.999E+003 -9.999E+003 -9.999E+003 -9.999E+003 -9.999E+003 -9.999E+003
 -9.999E+003 -9.999E+003 -9.999E+003 -9.999E+003 -9.999E+003 -9.999E+003 -9.999E+003 -9.999E+003 -9.999E+003 -9.999E+003 -9.999E+003 -9.999E+003 -9.999E+003 -9.999E+003 -9.999E+003 -9.999E+003 -9.999E+003 -9.999E+003 -9.999E+003 -9.999E+003 -9.999E+003 -9.999E+003 -9.999E+003 -9.999E+003 -9.999E+003 -9.999E+003 -9.999E+003 -9.999E+003 -9.999E+003 -9.999E+003 -9.999E+003 -9.999E+003 -9.999E+003 -9.999E+003 -9.999E+003 -9.999E+003 -9.999E+003 -9.999E+003 -9.999E+003 -9.999E+003 -9.999E+003 -9.999E+003 -9.999E+003 -9.999E+003 -9.999E+003 -9.999E+003 -9.999E+003 -9.999E+003 -9.999E+003 -9.999E+003 -9.999E+003 -9.999E+003 -9.999E+003 -9.999E+003 -9.999E+003 -9.999E+003 -9.999E+003 -9.999E+003 -9.999E+003 -9.999E+003  2.080E-001  7.006E-001  1.384E+000  1.134E+000  4.723E-001  1.552E-001 -9.999E+003 -9.999E+003 -9.999E+003  8.014E-002  3.341E-001  5.156E-001  6.300E-001  5.431E-001  2.230E-001  3.395E-005 -9.999E+003 -9.999E+003 -9.999E+003 -9.999E+003 -9.999E+003 -9.999E+003  1.267E-001  3.384E-001  6.330E-001  9.306E-001  9.035E-001  6.736E-001  5.063E-001  4.169E-001  3.151E-001  2.102E-001  1.797E-001  1.981E-001  1.660E-001  1.179E-001  7.995E-002  4.784E-002 -9.999E+003 -9.999E+003 -9.999E+003 -9.999E+003 -9.999E+003 -9.999E+003 -9.999E+003 -9.999E+003 -9.999E+003 -9.999E+003 -9.999E+003 -9.999E+003 -9.999E+003 -9.999E+003 -9.999E+003 -9.999E+003 -9.999E+003 -9.999E+003 -9.999E+003 -9.999E+003 -9.999E+003 -9.999E+003 -9.999E+003 -9.999E+003 -9.999E+003 -9.999E+003 -9.999E+003 -9.999E+003 -9.999E+003 -9.999E+003 -9.999E+003 -9.999E+003 -9.999E+003 -9.999E+003 -9.999E+003 -9.999E+003 -9.999E+003 -9.999E+003 -9.999E+003 -9.999E+003 -9.999E+003 -9.999E+003 -9.999E+003 -9.999E+003 -9.999E+003 -9.999E+003 -9.999E+003 -9.999E+003 -9.999E+003 -9.999E+003 -9.999E+003 -9.999E+003
 -9.999E+003 -9.999E+003 -9.999E+003 -9.999E+003 -9.999E+003 -9.999E+003 -9.999E+003 -9.999E+003 -9.999E+003 -9.999E+003 -9.999E+003 -9.999E+003 -9.999E+003 -9.999E+003 -9.999E+003 -9.999E+003 -9.999E+003 -9.999E+003 -9.999E+003 -9.999E+003 -9.999E+003 -9.999E+003 -9.999E+003 -9.999E+003 -9.999E+003 -9.999E+003 -9.999E+003 -9.999E+003 -9.999E+003 -9.999E+003 -9.999E+003 -9.999E+003 -9.999E+003 -9.999E+003 -9.999E+003 -9.999E+003 -9.999E+003 -9.999E+003 -9.999E+003 -9.999E+003 -9.999E+003 -9.999E+003 -9.999E+003 -9.999E+003 -9.999E+003 -9.999E+003 -9.999E+003 -9.999E+003 -9.999E+003 -9.999E+003 -9.999E+003 -9.999E+003 -9.999E+003 -9.999E+003 -9.999E+003 -9.999E+003 -9.999E+003 -9.999E+003 -9.999E+003 -9.999E+003  1.902E-001  7.667E-001  1.572E+000  1.258E+000  4.696E-001  1.511E-001 -9.999E+003 -9.999E+003 -9.999E+003  1.918E-001  4.217E-001  5.945E-001  5.615E-001  4.678E-001  2.856E-001 -9.999E+003 -9.999E+003 -9.999E+003 -9.999E+003 -9.999E+003 -9.999E+003 -9.999E+003  2.716E-001  5.024E-001  6.833E-001  6.736E-001  4.825E-001  2.928E-001  1.472E-001  1.327E-001  1.095E-001 -9.999E+003 -9.999E+003  6.784E-002  5.436E-002  3.882E-002  2.739E-002 -9.999E+003 -9.999E+003 -9.999E+003 -9.999E+003 -9.999E+003 -9.999E+003 -9.999E+003 -9.999E+003 -9.999E+003 -9.999E+003 -9.999E+003 -9.999E+003 -9.999E+003 -9.999E+003 -9.999E+003 -9.999E+003 -9.999E+003 -9.999E+003 -9.999E+003 -9.999E+003 -9.999E+003 -9.999E+003 -9.999E+003 -9.999E+003 -9.999E+003 -9.999E+003 -9.999E+003 -9.999E+003 -9.999E+003 -9.999E+003 -9.999E+003 -9.999E+003 -9.999E+003 -9.999E+003 -9.999E+003 -9.999E+003 -9.999E+003 -9.999E+003 -9.999E+003 -9.999E+003 -9.999E+003 -9.999E+003 -9.999E+003 -9.999E+003 -9.999E+003 -9.999E+003 -9.999E+003 -9.999E+003 -9.999E+003 -9.999E+003 -9.999E+003 -9.999E+003 -9.999E+003
 -9.999E+003 -9.999E+003 -9.999E+003 -9.999E+003 -9.999E+003 -9.999E+003 -9.999E+003 -9.999E+003 -9.999E+003 -9.999E+003 -9.999E+003 -9.999E+003 -9.999E+003 -9.999E+003 -9.999E+003 -9.999E+003 -9.999E+003 -9.999E+003 -9.999E+003 -9.999E+003 -9.999E+003 -9.999E+003 -9.999E+003 -9.999E+003 -9.999E+003 -9.999E+003 -9.999E+003 -9.999E+003 -9.999E+003 -9.999E+003 -9.999E+003 -9.999E+003 -9.999E+003 -9.999E+003 -9.999E+003 -9.999E+003 -9.999E+003 -9.999E+003 -9.999E+003 -9.999E+003 -9.999E+003 -9.999E+003 -9.999E+003 -9.999E+003 -9.999E+003 -9.999E+003 -9.999E+003 -9.999E+003 -9.999E+003 -9.999E+003 -9.999E+003 -9.999E+003 -9.999E+003 -9.999E+003 -9.999E+003 -9.999E+003 -9.999E+003 -9.999E+003 -9.999E+003 -9.999E+003  2.151E-001  7.705E-001  1.491E+000  8.094E-001  2.699E-001  8.958E-002 -9.999E+003 -9.999E+003 -9.999E+003  2.646E-001  4.921E-001  6.237E-001  5.501E-001  3.963E-001  2.102E-001 -9.999E+003 -9.999E+003 -9.999E+003 -9.999E+003 -9.999E+003 -9.999E+003  2.954E-001  5.580E-001  7.546E-001  6.775E-001  3.630E-001  1.548E-001  3.768E-002 -9.999E+003 -9.999E+003 -9.999E+003 -9.999E+003 -9.999E+003 -9.999E+003 -9.999E+003 -9.999E+003 -9.999E+003 -9.999E+003 -9.999E+003 -9.999E+003 -9.999E+003 -9.999E+003 -9.999E+003 -9.999E+003 -9.999E+003 -9.999E+003 -9.999E+003 -9.999E+003 -9.999E+003 -9.999E+003 -9.999E+003 -9.999E+003 -9.999E+003 -9.999E+003 -9.999E+003 -9.999E+003 -9.999E+003 -9.999E+003 -9.999E+003 -9.999E+003 -9.999E+003 -9.999E+003 -9.999E+003 -9.999E+003 -9.999E+003 -9.999E+003 -9.999E+003 -9.999E+003 -9.999E+003 -9.999E+003 -9.999E+003 -9.999E+003 -9.999E+003 -9.999E+003 -9.999E+003 -9.999E+003 -9.999E+003 -9.999E+003 -9.999E+003 -9.999E+003 -9.999E+003 -9.999E+003 -9.999E+003 -9.999E+003 -9.999E+003 -9.999E+003 -9.999E+003 -9.999E+003 -9.999E+003 -9.999E+003
 -9.999E+003 -9.999E+003 -9.999E+003 -9.999E+003 -9.999E+003 -9.999E+003 -9.999E+003 -9.999E+003 -9.999E+003 -9.999E+003 -9.999E+003 -9.999E+003 -9.999E+003 -9.999E+003 -9.999E+003 -9.999E+003 -9.999E+003 -9.999E+003 -9.999E+003 -9.999E+003 -9.999E+003 -9.999E+003 -9.999E+003 -9.999E+003 -9.999E+003 -9.999E+003 -9.999E+003 -9.999E+003 -9.999E+003 -9.999E+003 -9.999E+003 -9.999E+003 -9.999E+003 -9.999E+003 -9.999E+003 -9.999E+003 -9.999E+003 -9.999E+003 -9.999E+003 -9.999E+003 -9.999E+003 -9.999E+003 -9.999E+003 -9.999E+003 -9.999E+003 -9.999E+003 -9.999E+003 -9.999E+003 -9.999E+003 -9.999E+003 -9.999E+003 -9.999E+003 -9.999E+003 -9.999E+003 -9.999E+003 -9.999E+003 -9.999E+003 -9.999E+003 -9.999E+003  1.118E-001  3.414E-001  1.030E+000  1.385E+000  4.164E-001  1.084E-001 -9.999E+003 -9.999E+003 -9.999E+003 -9.999E+003  3.511E-001  5.160E-001  5.740E-001  5.281E-001  3.958E-001  1.017E-002 -9.999E+003 -9.999E+003 -9.999E+003 -9.999E+003 -9.999E+003  2.818E-001  5.549E-001  8.625E-001  8.433E-001  4.795E-001  1.684E-001 -9.999E+003 -9.999E+003 -9.999E+003 -9.999E+003 -9.999E+003 -9.999E+003 -9.999E+003 -9.999E+003 -9.999E+003 -9.999E+003 -9.999E+003 -9.999E+003 -9.999E+003 -9.999E+003 -9.999E+003 -9.999E+003 -9.999E+003 -9.999E+003 -9.999E+003 -9.999E+003 -9.999E+003 -9.999E+003 -9.999E+003 -9.999E+003 -9.999E+003 -9.999E+003 -9.999E+003 -9.999E+003 -9.999E+003 -9.999E+003 -9.999E+003 -9.999E+003 -9.999E+003 -9.999E+003 -9.999E+003 -9.999E+003 -9.999E+003 -9.999E+003 -9.999E+003 -9.999E+003 -9.999E+003 -9.999E+003 -9.999E+003 -9.999E+003 -9.999E+003 -9.999E+003 -9.999E+003 -9.999E+003 -9.999E+003 -9.999E+003 -9.999E+003 -9.999E+003 -9.999E+003 -9.999E+003 -9.999E+003 -9.999E+003 -9.999E+003 -9.999E+003 -9.999E+003 -9.999E+003 -9.999E+003 -9.999E+003 -9.999E+003 -9.999E+003
 -9.999E+003 -9.999E+003 -9.999E+003 -9.999E+003 -9.999E+003 -9.999E+003 -9.999E+003 -9.999E+003 -9.999E+003 -9.999E+003 -9.999E+003 -9.999E+003 -9.999E+003 -9.999E+003 -9.999E+003 -9.999E+003 -9.999E+003 -9.999E+003 -9.999E+003 -9.999E+003 -9.999E+003 -9.999E+003 -9.999E+003 -9.999E+003 -9.999E+003 -9.999E+003 -9.999E+003 -9.999E+003 -9.999E+003 -9.999E+003 -9.999E+003 -9.999E+003 -9.999E+003 -9.999E+003 -9.999E+003 -9.999E+003 -9.999E+003 -9.999E+003 -9.999E+003 -9.999E+003 -9.999E+003 -9.999E+003 -9.999E+003 -9.999E+003 -9.999E+003 -9.999E+003 -9.999E+003 -9.999E+003 -9.999E+003 -9.999E+003 -9.999E+003 -9.999E+003 -9.999E+003 -9.999E+003 -9.999E+003 -9.999E+003 -9.999E+003 -9.999E+003 -9.999E+003  1.335E-001  4.530E-001  1.304E+000  1.290E+000  3.406E-001  9.081E-002 -9.999E+003  3.631E-004 -9.999E+003 -9.999E+003  2.958E-001  4.717E-001  5.282E-001  5.320E-001  5.197E-001  6.622E-005 -9.999E+003 -9.999E+003 -9.999E+003 -9.999E+003  3.882E-001  6.386E-001  7.901E-001  8.320E-001  5.715E-001  2.760E-001 -9.999E+003 -9.999E+003 -9.999E+003 -9.999E+003 -9.999E+003 -9.999E+003 -9.999E+003 -9.999E+003 -9.999E+003 -9.999E+003 -9.999E+003 -9.999E+003 -9.999E+003 -9.999E+003 -9.999E+003 -9.999E+003 -9.999E+003 -9.999E+003 -9.999E+003 -9.999E+003 -9.999E+003 -9.999E+003 -9.999E+003 -9.999E+003 -9.999E+003 -9.999E+003 -9.999E+003 -9.999E+003 -9.999E+003 -9.999E+003 -9.999E+003 -9.999E+003 -9.999E+003 -9.999E+003 -9.999E+003 -9.999E+003  1.874E-005  1.836E-001  2.249E-001  1.121E-001 -9.999E+003 -9.999E+003 -9.999E+003 -9.999E+003 -9.999E+003 -9.999E+003 -9.999E+003 -9.999E+003 -9.999E+003 -9.999E+003 -9.999E+003 -9.999E+003 -9.999E+003 -9.999E+003 -9.999E+003 -9.999E+003 -9.999E+003 -9.999E+003 -9.999E+003 -9.999E+003 -9.999E+003 -9.999E+003 -9.999E+003 -9.999E+003 -9.999E+003
 -9.999E+003 -9.999E+003 -9.999E+003 -9.999E+003 -9.999E+003 -9.999E+003 -9.999E+003 -9.999E+003 -9.999E+003 -9.999E+003 -9.999E+003 -9.999E+003 -9.999E+003 -9.999E+003 -9.999E+003 -9.999E+003 -9.999E+003 -9.999E+003 -9.999E+003 -9.999E+003 -9.999E+003 -9.999E+003 -9.999E+003 -9.999E+003 -9.999E+003 -9.999E+003 -9.999E+003 -9.999E+003 -9.999E+003 -9.999E+003 -9.999E+003 -9.999E+003 -9.999E+003 -9.999E+003 -9.999E+003 -9.999E+003 -9.999E+003 -9.999E+003 -9.999E+003 -9.999E+003 -9.999E+003 -9.999E+003 -9.999E+003 -9.999E+003 -9.999E+003 -9.999E+003 -9.999E+003 -9.999E+003 -9.999E+003 -9.999E+003 -9.999E+003 -9.999E+003 -9.999E+003 -9.999E+003 -9.999E+003 -9.999E+003 -9.999E+003 -9.999E+003 -9.999E+003  1.385E-001  4.707E-001  1.328E+000  1.106E+000  2.979E-001  8.455E-002  3.058E-004  1.531E-001  8.688E-004 -9.999E+003  3.975E-001  4.834E-001  5.240E-001  5.409E-001  5.436E-001  1.455E-001  1.300E-005 -9.999E+003  2.254E-001  4.898E-001  7.245E-001  9.863E-001  9.663E-001  5.209E-001  2.301E-001  7.931E-002 -9.999E+003 -9.999E+003 -9.999E+003 -9.999E+003 -9.999E+003 -9.999E+003 -9.999E+003 -9.999E+003 -9.999E+003 -9.999E+003 -9.999E+003 -9.999E+003 -9.999E+003 -9.999E+003 -9.999E+003 -9.999E+003 -9.999E+003 -9.999E+003 -9.999E+003 -9.999E+003 -9.999E+003 -9.999E+003 -9.999E+003 -9.999E+003 -9.999E+003 -9.999E+003 -9.999E+003 -9.999E+003 -9.999E+003 -9.999E+003 -9.999E+003 -9.999E+003 -9.999E+003 -9.999E+003 -9.999E+003  4.779E-005  3.001E-001  5.026E-001  6.136E-001  3.647E-001  8.597E-002 -9.999E+003 -9.999E+003 -9.999E+003 -9.999E+003 -9.999E+003 -9.999E+003 -9.999E+003 -9.999E+003 -9.999E+003 -9.999E+003 -9.999E+003 -9.999E+003 -9.999E+003 -9.999E+003 -9.999E+003 -9.999E+003 -9.999E+003 -9.999E+003 -9.999E+003 -9.999E+003 -9.999E+003 -9.999E+003 -9.999E+003 -9.999E+003
 -9.999E+003 -9.999E+003 -9.999E+003 -9.999E+003 -9.999E+003 -9.999E+003 -9.999E+003 -9.999E+003 -9.999E+003 -9.999E+003 -9.999E+003 -9.999E+003 -9.999E+003 -9.999E+003 -9.999E+003 -9.999E+003 -9.999E+003 -9.999E+003 -9.999E+003 -9.999E+003 -9.999E+003 -9.999E+003 -9.999E+003 -9.999E+003 -9.999E+003 -9.999E+003 -9.999E+003 -9.999E+003 -9.999E+003 -9.999E+003 -9.999E+003 -9.999E+003 -9.999E+003 -9.999E+003 -9.999E+003 -9.999E+003 -9.999E+003 -9.999E+003 -9.999E+003 -9.999E+003 -9.999E+003 -9.999E+003 -9.999E+003 -9.999E+003 -9.999E+003 -9.999E+003 -9.999E+003 -9.999E+003 -9.999E+003 -9.999E+003 -9.999E+003 -9.999E+003 -9.999E+003 -9.999E+003 -9.999E+003 -9.999E+003 -9.999E+003 -9.999E+003 -9.999E+003  1.321E-001  4.368E-001  1.197E+000  1.032E+000  3.396E-001  2.531E-001  5.243E-001  7.757E-001  5.740E-001  3.167E-001  7.137E-001  6.964E-001  6.873E-001  6.410E-001  6.217E-001  7.426E-005 -9.999E+003  1.661E-001  4.730E-001  9.149E-001  9.790E-001  9.006E-001  5.594E-001  2.043E-001  7.339E-002 -9.999E+003 -9.999E+003 -9.999E+003 -9.999E+003 -9.999E+003 -9.999E+003 -9.999E+003 -9.999E+003 -9.999E+003 -9.999E+003 -9.999E+003 -9.999E+003 -9.999E+003 -9.999E+003 -9.999E+003 -9.999E+003 -9.999E+003 -9.999E+003 -9.999E+003 -9.999E+003 -9.999E+003 -9.999E+003 -9.999E+003 -9.999E+003 -9.999E+003 -9.999E+003 -9.999E+003 -9.999E+003 -9.999E+003 -9.999E+003 -9.999E+003 -9.999E+003 -9.999E+003 -9.999E+003 -9.999E+003  3.300E-005  2.436E-001  5.455E-001  7.868E-001  8.360E-001  4.673E-001  1.451E-001 -9.999E+003 -9.999E+003 -9.999E+003 -9.999E+003 -9.999E+003 -9.999E+003 -9.999E+003 -9.999E+003 -9.999E+003 -9.999E+003 -9.999E+003 -9.999E+003 -9.999E+003 -9.999E+003 -9.999E+003 -9.999E+003 -9.999E+003 -9.999E+003 -9.999E+003 -9.999E+003 -9.999E+003 -9.999E+003 -9.999E+003 -9.999E+003
 -9.999E+003 -9.999E+003 -9.999E+003 -9.999E+003 -9.999E+003 -9.999E+003 -9.999E+003 -9.999E+003 -9.999E+003 -9.999E+003 -9.999E+003 -9.999E+003 -9.999E+003 -9.999E+003 -9.999E+003 -9.999E+003 -9.999E+003 -9.999E+003 -9.999E+003 -9.999E+003 -9.999E+003 -9.999E+003 -9.999E+003 -9.999E+003 -9.999E+003 -9.999E+003 -9.999E+003 -9.999E+003 -9.999E+003 -9.999E+003 -9.999E+003 -9.999E+003 -9.999E+003 -9.999E+003 -9.999E+003 -9.999E+003 -9.999E+003 -9.999E+003 -9.999E+003 -9.999E+003 -9.999E+003 -9.999E+003 -9.999E+003 -9.999E+003 -9.999E+003 -9.999E+003 -9.999E+003 -9.999E+003 -9.999E+003 -9.999E+003 -9.999E+003 -9.999E+003 -9.999E+003 -9.999E+003 -9.999E+003 -9.999E+003 -9.999E+003 -9.999E+003 -9.999E+003  1.253E-001  4.092E-001  1.053E+000  9.209E-001  3.710E-001  3.708E-001  6.224E-001  9.181E-001  1.089E+000  9.275E-001  9.728E-001  9.669E-001  9.553E-001  9.194E-001  8.487E-001  3.579E-005 -9.999E+003  3.038E-001  7.456E-001  1.144E+000  8.228E-001  3.872E-001  1.735E-001  6.438E-002 -9.999E+003 -9.999E+003 -9.999E+003 -9.999E+003 -9.999E+003 -9.999E+003 -9.999E+003 -9.999E+003 -9.999E+003 -9.999E+003 -9.999E+003 -9.999E+003 -9.999E+003 -9.999E+003 -9.999E+003 -9.999E+003 -9.999E+003 -9.999E+003 -9.999E+003 -9.999E+003 -9.999E+003 -9.999E+003 -9.999E+003 -9.999E+003 -9.999E+003 -9.999E+003 -9.999E+003 -9.999E+003 -9.999E+003 -9.999E+003 -9.999E+003 -9.999E+003 -9.999E+003 -9.999E+003 -9.999E+003 -9.999E+003 -9.999E+003  2.757E-001  6.626E-001  9.262E-001  7.430E-001  3.592E-001  1.134E-001 -9.999E+003 -9.999E+003 -9.999E+003 -9.999E+003 -9.999E+003 -9.999E+003 -9.999E+003 -9.999E+003 -9.999E+003 -9.999E+003 -9.999E+003 -9.999E+003 -9.999E+003 -9.999E+003 -9.999E+003 -9.999E+003 -9.999E+003 -9.999E+003 -9.999E+003 -9.999E+003 -9.999E+003 -9.999E+003 -9.999E+003 -9.999E+003
 -9.999E+003 -9.999E+003 -9.999E+003 -9.999E+003 -9.999E+003 -9.999E+003 -9.999E+003 -9.999E+003 -9.999E+003 -9.999E+003 -9.999E+003 -9.999E+003 -9.999E+003 -9.999E+003 -9.999E+003 -9.999E+003 -9.999E+003 -9.999E+003 -9.999E+003 -9.999E+003 -9.999E+003 -9.999E+003 -9.999E+003 -9.999E+003 -9.999E+003 -9.999E+003 -9.999E+003 -9.999E+003 -9.999E+003 -9.999E+003 -9.999E+003 -9.999E+003 -9.999E+003 -9.999E+003 -9.999E+003 -9.999E+003 -9.999E+003 -9.999E+003 -9.999E+003 -9.999E+003 -9.999E+003 -9.999E+003 -9.999E+003 -9.999E+003 -9.999E+003 -9.999E+003 -9.999E+003 -9.999E+003 -9.999E+003 -9.999E+003 -9.999E+003 -9.999E+003 -9.999E+003 -9.999E+003 -9.999E+003 -9.999E+003 -9.999E+003 -9.999E+003 -9.999E+003  1.436E-001  4.518E-001  1.020E+000  8.668E-001  3.875E-001  3.776E-001  6.761E-001  9.463E-001  1.099E+000  1.160E+000  1.165E+000  1.136E+000  1.100E+000  1.062E+000  8.506E-001  5.223E-001  5.791E-001  7.667E-001  9.791E-001  7.234E-001  3.539E-001  1.344E-001  5.927E-002 -9.999E+003 -9.999E+003 -9.999E+003 -9.999E+003 -9.999E+003 -9.999E+003 -9.999E+003 -9.999E+003 -9.999E+003 -9.999E+003 -9.999E+003 -9.999E+003 -9.999E+003 -9.999E+003 -9.999E+003 -9.999E+003 -9.999E+003 -9.999E+003 -9.999E+003 -9.999E+003 -9.999E+003 -9.999E+003 -9.999E+003 -9.999E+003 -9.999E+003 -9.999E+003 -9.999E+003 -9.999E+003 -9.999E+003 -9.999E+003 -9.999E+003 -9.999E+003 -9.999E+003 -9.999E+003 -9.999E+003 -9.999E+003 -9.999E+003  1.621E-001  3.894E-001  6.377E-001  8.570E-001  6.098E-001  2.623E-001 -9.999E+003 -9.999E+003 -9.999E+003 -9.999E+003 -9.999E+003 -9.999E+003 -9.999E+003 -9.999E+003 -9.999E+003 -9.999E+003 -9.999E+003 -9.999E+003 -9.999E+003 -9.999E+003 -9.999E+003 -9.999E+003 -9.999E+003 -9.999E+003 -9.999E+003 -9.999E+003 -9.999E+003 -9.999E+003 -9.999E+003 -9.999E+003 -9.999E+003
 -9.999E+003 -9.999E+003 -9.999E+003 -9.999E+003 -9.999E+003 -9.999E+003 -9.999E+003 -9.999E+003 -9.999E+003 -9.999E+003 -9.999E+003 -9.999E+003 -9.999E+003 -9.999E+003 -9.999E+003 -9.999E+003 -9.999E+003 -9.999E+003 -9.999E+003 -9.999E+003 -9.999E+003 -9.999E+003 -9.999E+003 -9.999E+003 -9.999E+003 -9.999E+003 -9.999E+003 -9.999E+003 -9.999E+003 -9.999E+003 -9.999E+003 -9.999E+003 -9.999E+003 -9.999E+003 -9.999E+003 -9.999E+003 -9.999E+003 -9.999E+003 -9.999E+003 -9.999E+003 -9.999E+003 -9.999E+003 -9.999E+003 -9.999E+003 -9.999E+003 -9.999E+003 -9.999E+003 -9.999E+003 -9.999E+003 -9.999E+003 -9.999E+003 -9.999E+003 -9.999E+003 -9.999E+003 -9.999E+003 -9.999E+003 -9.999E+003 -9.999E+003 -9.999E+003  1.760E-001  5.717E-001  1.268E+000  1.029E+000  4.035E-001  3.859E-001  6.260E-001  8.816E-001  1.070E+000  1.209E+000  1.268E+000  1.222E+000  1.143E+000  1.062E+000  9.802E-001  9.745E-001  1.157E+000  1.249E+000  7.143E-001  2.801E-001  1.043E-001 -9.999E+003 -9.999E+003 -9.999E+003 -9.999E+003 -9.999E+003 -9.999E+003 -9.999E+003 -9.999E+003 -9.999E+003 -9.999E+003 -9.999E+003 -9.999E+003 -9.999E+003 -9.999E+003 -9.999E+003 -9.999E+003 -9.999E+003 -9.999E+003 -9.999E+003 -9.999E+003 -9.999E+003 -9.999E+003 -9.999E+003 -9.999E+003 -9.999E+003 -9.999E+003 -9.999E+003 -9.999E+003 -9.999E+003 -9.999E+003 -9.999E+003 -9.999E+003 -9.999E+003 -9.999E+003 -9.999E+003 -9.999E+003 -9.999E+003 -9.999E+003  1.151E-001  3.077E-001  5.696E-001  6.908E-001  7.770E-001  4.961E-001  1.917E-001 -9.999E+003 -9.999E+003 -9.999E+003 -9.999E+003 -9.999E+003 -9.999E+003 -9.999E+003 -9.999E+003 -9.999E+003 -9.999E+003 -9.999E+003 -9.999E+003 -9.999E+003 -9.999E+003 -9.999E+003 -9.999E+003 -9.999E+003 -9.999E+003 -9.999E+003 -9.999E+003 -9.999E+003 -9.999E+003 -9.999E+003 -9.999E+003 -9.999E+003
 -9.999E+003 -9.999E+003 -9.999E+003 -9.999E+003 -9.999E+003 -9.999E+003 -9.999E+003 -9.999E+003 -9.999E+003 -9.999E+003 -9.999E+003 -9.999E+003 -9.999E+003 -9.999E+003 -9.999E+003 -9.999E+003 -9.999E+003 -9.999E+003 -9.999E+003 -9.999E+003 -9.999E+003 -9.999E+003 -9.999E+003 -9.999E+003 -9.999E+003 -9.999E+003 -9.999E+003 -9.999E+003 -9.999E+003 -9.999E+003 -9.999E+003 -9.999E+003 -9.999E+003 -9.999E+003 -9.999E+003 -9.999E+003 -9.999E+003 -9.999E+003 -9.999E+003 -9.999E+003 -9.999E+003 -9.999E+003 -9.999E+003 -9.999E+003 -9.999E+003 -9.999E+003 -9.999E+003 -9.999E+003 -9.999E+003 -9.999E+003 -9.999E+003 -9.999E+003 -9.999E+003 -9.999E+003 -9.999E+003 -9.999E+003 -9.999E+003 -9.999E+003 -9.999E+003  1.704E-001  6.893E-001  1.557E+000  1.391E+000  5.277E-001  3.663E-001  5.503E-001  7.954E-001  1.010E+000  1.195E+000  1.293E+000  1.256E+000  1.141E+000  1.034E+000  1.060E+000  1.428E+000  1.717E+000  1.072E+000  3.382E-001  1.025E-001 -9.999E+003 -9.999E+003 -9.999E+003 -9.999E+003 -9.999E+003 -9.999E+003 -9.999E+003 -9.999E+003 -9.999E+003 -9.999E+003 -9.999E+003 -9.999E+003 -9.999E+003 -9.999E+003 -9.999E+003 -9.999E+003 -9.999E+003 -9.999E+003 -9.999E+003 -9.999E+003 -9.999E+003 -9.999E+003 -9.999E+003 -9.999E+003 -9.999E+003 -9.999E+003 -9.999E+003 -9.999E+003 -9.999E+003 -9.999E+003 -9.999E+003 -9.999E+003 -9.999E+003 -9.999E+003 -9.999E+003 -9.999E+003 -9.999E+003 -9.999E+003  1.106E-002  2.462E-001  4.926E-001  6.289E-001  7.371E-001  6.928E-001  3.957E-001  1.418E-001 -9.999E+003 -9.999E+003 -9.999E+003 -9.999E+003 -9.999E+003 -9.999E+003 -9.999E+003 -9.999E+003 -9.999E+003 -9.999E+003 -9.999E+003 -9.999E+003 -9.999E+003 -9.999E+003 -9.999E+003 -9.999E+003 -9.999E+003 -9.999E+003 -9.999E+003 -9.999E+003 -9.999E+003 -9.999E+003 -9.999E+003 -9.999E+003 -9.999E+003
 -9.999E+003 -9.999E+003 -9.999E+003 -9.999E+003 -9.999E+003 -9.999E+003 -9.999E+003 -9.999E+003 -9.999E+003 -9.999E+003 -9.999E+003 -9.999E+003 -9.999E+003 -9.999E+003 -9.999E+003 -9.999E+003 -9.999E+003 -9.999E+003 -9.999E+003 -9.999E+003 -9.999E+003 -9.999E+003 -9.999E+003 -9.999E+003 -9.999E+003 -9.999E+003 -9.999E+003 -9.999E+003 -9.999E+003 -9.999E+003 -9.999E+003 -9.999E+003 -9.999E+003 -9.999E+003 -9.999E+003 -9.999E+003 -9.999E+003 -9.999E+003 -9.999E+003 -9.999E+003 -9.999E+003 -9.999E+003 -9.999E+003 -9.999E+003 -9.999E+003 -9.999E+003 -9.999E+003 -9.999E+003 -9.999E+003 -9.999E+003 -9.999E+003 -9.999E+003 -9.999E+003 -9.999E+003 -9.999E+003 -9.999E+003 -9.999E+003 -9.999E+003 -9.999E+003  1.816E-001  7.031E-001  1.515E+000  1.657E+000  6.714E-001  3.477E-001  5.160E-001  7.747E-001  1.007E+000  1.188E+000  1.292E+000  1.274E+000  1.078E+000  8.795E-001  1.096E+000  1.729E+000  1.881E+000  8.019E-001  1.902E-001 -9.999E+003 -9.999E+003 -9.999E+003 -9.999E+003 -9.999E+003 -9.999E+003 -9.999E+003 -9.999E+003 -9.999E+003 -9.999E+003 -9.999E+003 -9.999E+003 -9.999E+003 -9.999E+003 -9.999E+003 -9.999E+003 -9.999E+003 -9.999E+003 -9.999E+003 -9.999E+003 -9.999E+003 -9.999E+003 -9.999E+003 -9.999E+003 -9.999E+003 -9.999E+003 -9.999E+003 -9.999E+003 -9.999E+003 -9.999E+003 -9.999E+003 -9.999E+003 -9.999E+003 -9.999E+003 -9.999E+003 -9.999E+003 -9.999E+003 -9.999E+003  7.738E-002  2.122E-001  4.807E-001  7.350E-001  5.846E-001  5.738E-001  5.742E-001  3.242E-001  8.397E-002 -9.999E+003 -9.999E+003 -9.999E+003 -9.999E+003 -9.999E+003 -9.999E+003 -9.999E+003 -9.999E+003 -9.999E+003 -9.999E+003 -9.999E+003 -9.999E+003 -9.999E+003 -9.999E+003 -9.999E+003 -9.999E+003 -9.999E+003 -9.999E+003 -9.999E+003 -9.999E+003 -9.999E+003 -9.999E+003 -9.999E+003 -9.999E+003 -9.999E+003
 -9.999E+003 -9.999E+003 -9.999E+003 -9.999E+003 -9.999E+003 -9.999E+003 -9.999E+003 -9.999E+003 -9.999E+003 -9.999E+003 -9.999E+003 -9.999E+003 -9.999E+003 -9.999E+003 -9.999E+003 -9.999E+003 -9.999E+003 -9.999E+003 -9.999E+003 -9.999E+003 -9.999E+003 -9.999E+003 -9.999E+003 -9.999E+003 -9.999E+003 -9.999E+003 -9.999E+003 -9.999E+003 -9.999E+003 -9.999E+003 -9.999E+003 -9.999E+003 -9.999E+003 -9.999E+003 -9.999E+003 -9.999E+003 -9.999E+003 -9.999E+003 -9.999E+003 -9.999E+003 -9.999E+003 -9.999E+003 -9.999E+003 -9.999E+003 -9.999E+003 -9.999E+003 -9.999E+003 -9.999E+003 -9.999E+003 -9.999E+003 -9.999E+003 -9.999E+003 -9.999E+003 -9.999E+003 -9.999E+003 -9.999E+003 -9.999E+003 -9.999E+003 -9.999E+003  1.711E-001  5.264E-001  1.118E+000  1.500E+000  6.831E-001  3.869E-001  5.675E-001  8.640E-001  1.073E+000  1.192E+000  1.241E+000  1.208E+000  9.821E-001  7.658E-001  9.593E-001  1.414E+000  1.277E+000  5.536E-001  1.432E-001 -9.999E+003 -9.999E+003 -9.999E+003 -9.999E+003 -9.999E+003 -9.999E+003 -9.999E+003 -9.999E+003 -9.999E+003 -9.999E+003 -9.999E+003 -9.999E+003 -9.999E+003 -9.999E+003 -9.999E+003 -9.999E+003 -9.999E+003 -9.999E+003 -9.999E+003 -9.999E+003 -9.999E+003 -9.999E+003 -9.999E+003 -9.999E+003 -9.999E+003 -9.999E+003 -9.999E+003 -9.999E+003 -9.999E+003 -9.999E+003 -9.999E+003 -9.999E+003 -9.999E+003 -9.999E+003 -9.999E+003 -9.999E+003 -9.999E+003  1.050E-001  2.486E-001  4.612E-001  6.834E-001  7.484E-001  5.584E-001  3.645E-001  3.697E-001  1.357E-001 -9.999E+003 -9.999E+003 -9.999E+003 -9.999E+003 -9.999E+003 -9.999E+003 -9.999E+003 -9.999E+003 -9.999E+003 -9.999E+003 -9.999E+003 -9.999E+003 -9.999E+003 -9.999E+003 -9.999E+003 -9.999E+003 -9.999E+003 -9.999E+003 -9.999E+003 -9.999E+003 -9.999E+003 -9.999E+003 -9.999E+003 -9.999E+003 -9.999E+003 -9.999E+003
 -9.999E+003 -9.999E+003 -9.999E+003 -9.999E+003 -9.999E+003 -9.999E+003 -9.999E+003 -9.999E+003 -9.999E+003 -9.999E+003 -9.999E+003 -9.999E+003 -9.999E+003 -9.999E+003 -9.999E+003 -9.999E+003 -9.999E+003 -9.999E+003 -9.999E+003 -9.999E+003 -9.999E+003 -9.999E+003 -9.999E+003 -9.999E+003 -9.999E+003 -9.999E+003 -9.999E+003 -9.999E+003 -9.999E+003 -9.999E+003 -9.999E+003 -9.999E+003 -9.999E+003 -9.999E+003 -9.999E+003 -9.999E+003 -9.999E+003 -9.999E+003 -9.999E+003 -9.999E+003 -9.999E+003 -9.999E+003 -9.999E+003 -9.999E+003 -9.999E+003 -9.999E+003 -9.999E+003 -9.999E+003 -9.999E+003 -9.999E+003 -9.999E+003 -9.999E+003 -9.999E+003 -9.999E+003 -9.999E+003 -9.999E+003 -9.999E+003 -9.999E+003  1.327E-005  2.171E-001  5.002E-001  8.347E-001  8.931E-001  4.736E-001  4.648E-001  6.950E-001  9.687E-001  1.128E+000  1.142E+000  1.112E+000  1.040E+000  9.103E-001  8.152E-001  9.004E-001  9.613E-001  7.726E-001  4.304E-001  1.583E-001  5.373E-002 -9.999E+003 -9.999E+003 -9.999E+003 -9.999E+003 -9.999E+003 -9.999E+003 -9.999E+003 -9.999E+003 -9.999E+003 -9.999E+003 -9.999E+003 -9.999E+003 -9.999E+003 -9.999E+003 -9.999E+003 -9.999E+003 -9.999E+003 -9.999E+003 -9.999E+003 -9.999E+003 -9.999E+003 -9.999E+003 -9.999E+003 -9.999E+003 -9.999E+003 -9.999E+003 -9.999E+003 -9.999E+003 -9.999E+003 -9.999E+003 -9.999E+003 -9.999E+003 -9.999E+003 -9.999E+003 -9.999E+003  1.307E-001  3.007E-001  5.265E-001  6.642E-001  6.256E-001  5.296E-001  4.616E-001  1.489E-001 -9.999E+003 -9.999E+003 -9.999E+003 -9.999E+003 -9.999E+003 -9.999E+003 -9.999E+003 -9.999E+003 -9.999E+003 -9.999E+003 -9.999E+003 -9.999E+003 -9.999E+003 -9.999E+003 -9.999E+003 -9.999E+003 -9.999E+003 -9.999E+003 -9.999E+003 -9.999E+003 -9.999E+003 -9.999E+003 -9.999E+003 -9.999E+003 -9.999E+003 -9.999E+003 -9.999E+003 -9.999E+003
 -9.999E+003 -9.999E+003 -9.999E+003 -9.999E+003 -9.999E+003 -9.999E+003 -9.999E+003 -9.999E+003 -9.999E+003 -9.999E+003 -9.999E+003 -9.999E+003 -9.999E+003 -9.999E+003 -9.999E+003 -9.999E+003 -9.999E+003 -9.999E+003 -9.999E+003 -9.999E+003 -9.999E+003 -9.999E+003 -9.999E+003 -9.999E+003 -9.999E+003 -9.999E+003 -9.999E+003 -9.999E+003 -9.999E+003 -9.999E+003 -9.999E+003 -9.999E+003 -9.999E+003 -9.999E+003 -9.999E+003 -9.999E+003 -9.999E+003 -9.999E+003 -9.999E+003 -9.999E+003 -9.999E+003 -9.999E+003 -9.999E+003 -9.999E+003 -9.999E+003 -9.999E+003 -9.999E+003 -9.999E+003 -9.999E+003 -9.999E+003 -9.999E+003 -9.999E+003 -9.999E+003 -9.999E+003 -9.999E+003 -9.999E+003 -9.999E+003 -9.999E+003 -9.999E+003  3.191E-001  6.385E-001  9.380E-001  6.177E-001  3.304E-001  5.355E-001  7.926E-001  9.645E-001  1.089E+000  1.091E+000  9.998E-001  8.742E-001  8.150E-001  9.038E-001  1.030E+000  9.215E-001  7.025E-001  3.788E-001  1.447E-001  4.877E-002 -9.999E+003 -9.999E+003 -9.999E+003 -9.999E+003 -9.999E+003 -9.999E+003 -9.999E+003 -9.999E+003 -9.999E+003 -9.999E+003 -9.999E+003 -9.999E+003 -9.999E+003 -9.999E+003 -9.999E+003 -9.999E+003 -9.999E+003 -9.999E+003 -9.999E+003 -9.999E+003 -9.999E+003 -9.999E+003 -9.999E+003 -9.999E+003 -9.999E+003 -9.999E+003 -9.999E+003 -9.999E+003 -9.999E+003 -9.999E+003 -9.999E+003 -9.999E+003 -9.999E+003 -9.999E+003  1.667E-001  3.975E-001  7.738E-001  8.727E-001  6.726E-001  4.780E-001  2.838E-001  3.872E-002  4.212E-005 -9.999E+003 -9.999E+003 -9.999E+003 -9.999E+003 -9.999E+003 -9.999E+003 -9.999E+003 -9.999E+003 -9.999E+003 -9.999E+003 -9.999E+003 -9.999E+003 -9.999E+003 -9.999E+003 -9.999E+003 -9.999E+003 -9.999E+003 -9.999E+003 -9.999E+003 -9.999E+003 -9.999E+003 -9.999E+003 -9.999E+003 -9.999E+003 -9.999E+003 -9.999E+003 -9.999E+003 -9.999E+003
 -9.999E+003 -9.999E+003 -9.999E+003 -9.999E+003 -9.999E+003 -9.999E+003 -9.999E+003 -9.999E+003 -9.999E+003 -9.999E+003 -9.999E+003 -9.999E+003 -9.999E+003 -9.999E+003 -9.999E+003 -9.999E+003 -9.999E+003 -9.999E+003 -9.999E+003 -9.999E+003 -9.999E+003 -9.999E+003 -9.999E+003 -9.999E+003 -9.999E+003 -9.999E+003 -9.999E+003 -9.999E+003 -9.999E+003 -9.999E+003 -9.999E+003 -9.999E+003 -9.999E+003 -9.999E+003 -9.999E+003 -9.999E+003 -9.999E+003 -9.999E+003 -9.999E+003 -9.999E+003 -9.999E+003 -9.999E+003 -9.999E+003 -9.999E+003 -9.999E+003 -9.999E+003 -9.999E+003 -9.999E+003 -9.999E+003 -9.999E+003 -9.999E+003 -9.999E+003 -9.999E+003 -9.999E+003 -9.999E+003 -9.999E+003 -9.999E+003 -9.999E+003 -9.999E+003  3.827E-001  7.434E-001  1.022E+000  5.700E-001  3.872E-001  6.147E-001  8.257E-001  9.386E-001  1.044E+000  1.088E+000  9.938E-001  8.162E-001  6.820E-001  7.613E-001  9.730E-001  9.093E-001  6.180E-001  2.882E-001  1.005E-001 -9.999E+003 -9.999E+003 -9.999E+003 -9.999E+003 -9.999E+003 -9.999E+003 -9.999E+003 -9.999E+003 -9.999E+003 -9.999E+003 -9.999E+003 -9.999E+003 -9.999E+003 -9.999E+003 -9.999E+003 -9.999E+003 -9.999E+003 -9.999E+003 -9.999E+003 -9.999E+003 -9.999E+003 -9.999E+003 -9.999E+003 -9.999E+003 -9.999E+003 -9.999E+003 -9.999E+003 -9.999E+003 -9.999E+003 -9.999E+003 -9.999E+003 -9.999E+003  1.343E-005  1.979E-001  3.288E-001  5.071E-001  8.446E-001  1.227E+000  9.897E-001  6.891E-001  4.156E-001  2.239E-005  1.563E-004 -9.999E+003 -9.999E+003 -9.999E+003 -9.999E+003 -9.999E+003 -9.999E+003 -9.999E+003 -9.999E+003 -9.999E+003 -9.999E+003 -9.999E+003 -9.999E+003 -9.999E+003 -9.999E+003 -9.999E+003 -9.999E+003 -9.999E+003 -9.999E+003 -9.999E+003 -9.999E+003 -9.999E+003 -9.999E+003 -9.999E+003 -9.999E+003 -9.999E+003 -9.999E+003 -9.999E+003 -9.999E+003 -9.999E+003
 -9.999E+003 -9.999E+003 -9.999E+003 -9.999E+003 -9.999E+003 -9.999E+003 -9.999E+003 -9.999E+003 -9.999E+003 -9.999E+003 -9.999E+003 -9.999E+003 -9.999E+003 -9.999E+003 -9.999E+003 -9.999E+003 -9.999E+003 -9.999E+003 -9.999E+003 -9.999E+003 -9.999E+003 -9.999E+003 -9.999E+003 -9.999E+003 -9.999E+003 -9.999E+003 -9.999E+003 -9.999E+003 -9.999E+003 -9.999E+003 -9.999E+003 -9.999E+003 -9.999E+003 -9.999E+003 -9.999E+003 -9.999E+003 -9.999E+003 -9.999E+003 -9.999E+003 -9.999E+003 -9.999E+003 -9.999E+003 -9.999E+003 -9.999E+003 -9.999E+003 -9.999E+003 -9.999E+003 -9.999E+003 -9.999E+003 -9.999E+003 -9.999E+003 -9.999E+003 -9.999E+003 -9.999E+003 -9.999E+003 -9.999E+003 -9.999E+003 -9.999E+003  3.059E-001  5.911E-001  7.955E-001  6.707E-001  3.827E-001  4.433E-001  6.851E-001  8.778E-001  9.666E-001  1.050E+000  1.095E+000  1.051E+000  8.886E-001  7.009E-001  6.293E-001  6.834E-001  6.406E-001  4.237E-001  1.758E-001 -9.999E+003 -9.999E+003 -9.999E+003 -9.999E+003 -9.999E+003 -9.999E+003 -9.999E+003 -9.999E+003 -9.999E+003 -9.999E+003 -9.999E+003 -9.999E+003 -9.999E+003 -9.999E+003 -9.999E+003 -9.999E+003 -9.999E+003 -9.999E+003 -9.999E+003 -9.999E+003 -9.999E+003 -9.999E+003 -9.999E+003 -9.999E+003 -9.999E+003 -9.999E+003 -9.999E+003 -9.999E+003 -9.999E+003 -9.999E+003 -9.999E+003 -9.999E+003  1.416E-005  1.778E-001  4.438E-001  7.832E-001  9.668E-001  1.074E+000  8.679E-001  7.307E-001  6.414E-001  4.528E-001  1.841E-001  1.282E-005 -9.999E+003 -9.999E+003 -9.999E+003 -9.999E+003 -9.999E+003 -9.999E+003 -9.999E+003 -9.999E+003 -9.999E+003 -9.999E+003 -9.999E+003 -9.999E+003 -9.999E+003 -9.999E+003 -9.999E+003 -9.999E+003 -9.999E+003 -9.999E+003 -9.999E+003 -9.999E+003 -9.999E+003 -9.999E+003 -9.999E+003 -9.999E+003 -9.999E+003 -9.999E+003 -9.999E+003 -9.999E+003 -9.999E+003
 -9.999E+003 -9.999E+003 -9.999E+003 -9.999E+003 -9.999E+003 -9.999E+003 -9.999E+003 -9.999E+003 -9.999E+003 -9.999E+003 -9.999E+003 -9.999E+003 -9.999E+003 -9.999E+003 -9.999E+003 -9.999E+003 -9.999E+003 -9.999E+003 -9.999E+003 -9.999E+003 -9.999E+003 -9.999E+003 -9.999E+003 -9.999E+003 -9.999E+003 -9.999E+003 -9.999E+003 -9.999E+003 -9.999E+003 -9.999E+003 -9.999E+003 -9.999E+003 -9.999E+003 -9.999E+003 -9.999E+003 -9.999E+003 -9.999E+003 -9.999E+003 -9.999E+003 -9.999E+003 -9.999E+003 -9.999E+003 -9.999E+003 -9.999E+003 -9.999E+003 -9.999E+003 -9.999E+003 -9.999E+003 -9.999E+003 -9.999E+003 -9.999E+003 -9.999E+003 -9.999E+003 -9.999E+003 -9.999E+003 -9.999E+003 -9.999E+003  4.192E-005  4.678E-001  7.785E-001  8.823E-001  4.612E-001  2.527E-001  4.328E-001  7.552E-001  9.833E-001  1.078E+000  1.121E+000  1.123E+000  1.082E+000  9.799E-001  8.182E-001  6.375E-001  4.659E-001  3.212E-001  2.115E-001 -9.999E+003 -9.999E+003 -9.999E+003 -9.999E+003 -9.999E+003 -9.999E+003 -9.999E+003 -9.999E+003 -9.999E+003 -9.999E+003 -9.999E+003 -9.999E+003 -9.999E+003 -9.999E+003 -9.999E+003 -9.999E+003 -9.999E+003 -9.999E+003 -9.999E+003 -9.999E+003 -9.999E+003 -9.999E+003 -9.999E+003 -9.999E+003 -9.999E+003 -9.999E+003 -9.999E+003 -9.999E+003 -9.999E+003 -9.999E+003 -9.999E+003 -9.999E+003 -9.999E+003 -9.999E+003  2.761E-001  7.335E-001  1.157E+000  9.343E-001  5.917E-001  3.789E-001  3.591E-001  3.418E-001  3.271E-001  2.783E-001 -9.999E+003 -9.999E+003 -9.999E+003 -9.999E+003 -9.999E+003 -9.999E+003 -9.999E+003 -9.999E+003 -9.999E+003 -9.999E+003 -9.999E+003 -9.999E+003 -9.999E+003 -9.999E+003 -9.999E+003 -9.999E+003 -9.999E+003 -9.999E+003 -9.999E+003 -9.999E+003 -9.999E+003 -9.999E+003 -9.999E+003 -9.999E+003 -9.999E+003 -9.999E+003 -9.999E+003 -9.999E+003 -9.999E+003 -9.999E+003
 -9.999E+003 -9.999E+003 -9.999E+003 -9.999E+003 -9.999E+003 -9.999E+003 -9.999E+003 -9.999E+003 -9.999E+003 -9.999E+003 -9.999E+003 -9.999E+003 -9.999E+003 -9.999E+003 -9.999E+003 -9.999E+003 -9.999E+003 -9.999E+003 -9.999E+003 -9.999E+003 -9.999E+003 -9.999E+003 -9.999E+003 -9.999E+003 -9.999E+003 -9.999E+003 -9.999E+003 -9.999E+003 -9.999E+003 -9.999E+003 -9.999E+003 -9.999E+003 -9.999E+003 -9.999E+003 -9.999E+003 -9.999E+003 -9.999E+003 -9.999E+003 -9.999E+003 -9.999E+003 -9.999E+003 -9.999E+003 -9.999E+003 -9.999E+003 -9.999E+003 -9.999E+003 -9.999E+003 -9.999E+003 -9.999E+003 -9.999E+003 -9.999E+003 -9.999E+003 -9.999E+003 -9.999E+003 -9.999E+003 -9.999E+003 -9.999E+003 -9.999E+003  6.198E-001  8.359E-001  8.899E-001  4.372E-001  2.336E-001  5.860E-001  8.690E-001  1.083E+000  1.208E+000  1.250E+000  1.223E+000  1.147E+000  1.044E+000  8.968E-001  6.710E-001  3.782E-001  9.088E-005 -9.999E+003 -9.999E+003 -9.999E+003 -9.999E+003 -9.999E+003 -9.999E+003 -9.999E+003 -9.999E+003 -9.999E+003 -9.999E+003 -9.999E+003 -9.999E+003 -9.999E+003 -9.999E+003 -9.999E+003 -9.999E+003 -9.999E+003 -9.999E+003 -9.999E+003 -9.999E+003 -9.999E+003 -9.999E+003 -9.999E+003 -9.999E+003 -9.999E+003 -9.999E+003 -9.999E+003 -9.999E+003 -9.999E+003 -9.999E+003 -9.999E+003 -9.999E+003 -9.999E+003  1.266E-001  3.085E-001  6.272E-001  8.148E-001  6.502E-001  4.472E-001  2.105E-001  1.262E-001 -9.999E+003  1.027E-001  1.348E-001 -9.999E+003 -9.999E+003 -9.999E+003 -9.999E+003 -9.999E+003 -9.999E+003 -9.999E+003 -9.999E+003 -9.999E+003 -9.999E+003 -9.999E+003 -9.999E+003 -9.999E+003 -9.999E+003 -9.999E+003 -9.999E+003 -9.999E+003 -9.999E+003 -9.999E+003 -9.999E+003 -9.999E+003 -9.999E+003 -9.999E+003 -9.999E+003 -9.999E+003 -9.999E+003 -9.999E+003 -9.999E+003 -9.999E+003 -9.999E+003 -9.999E+003
 -9.999E+003 -9.999E+003 -9.999E+003 -9.999E+003 -9.999E+003 -9.999E+003 -9.999E+003 -9.999E+003 -9.999E+003 -9.999E+003 -9.999E+003 -9.999E+003 -9.999E+003 -9.999E+003 -9.999E+003 -9.999E+003 -9.999E+003 -9.999E+003 -9.999E+003 -9.999E+003 -9.999E+003 -9.999E+003 -9.999E+003 -9.999E+003 -9.999E+003 -9.999E+003 -9.999E+003 -9.999E+003 -9.999E+003 -9.999E+003 -9.999E+003 -9.999E+003 -9.999E+003 -9.999E+003 -9.999E+003 -9.999E+003 -9.999E+003 -9.999E+003 -9.999E+003 -9.999E+003 -9.999E+003 -9.999E+003 -9.999E+003 -9.999E+003 -9.999E+003 -9.999E+003 -9.999E+003 -9.999E+003 -9.999E+003 -9.999E+003 -9.999E+003 -9.999E+003 -9.999E+003 -9.999E+003 -9.999E+003 -9.999E+003 -9.999E+003  9.340E-005  5.379E-001  8.487E-001  1.003E+000  5.459E-001  1.946E-001  2.357E-004  9.427E-001  1.135E+000  1.252E+000  1.313E+000  1.325E+000  1.257E+000  1.089E+000  8.710E-001  6.194E-001  3.303E-001 -9.999E+003 -9.999E+003 -9.999E+003 -9.999E+003 -9.999E+003 -9.999E+003 -9.999E+003 -9.999E+003 -9.999E+003 -9.999E+003 -9.999E+003 -9.999E+003 -9.999E+003 -9.999E+003 -9.999E+003 -9.999E+003 -9.999E+003 -9.999E+003 -9.999E+003 -9.999E+003 -9.999E+003 -9.999E+003 -9.999E+003 -9.999E+003 -9.999E+003 -9.999E+003 -9.999E+003 -9.999E+003 -9.999E+003 -9.999E+003 -9.999E+003 -9.999E+003 -9.999E+003  1.221E-001  3.721E-001  8.672E-001  8.929E-001  4.085E-001  1.966E-001  1.490E-001 -9.999E+003 -9.999E+003 -9.999E+003 -9.999E+003 -9.999E+003 -9.999E+003 -9.999E+003 -9.999E+003 -9.999E+003 -9.999E+003 -9.999E+003 -9.999E+003 -9.999E+003 -9.999E+003 -9.999E+003 -9.999E+003 -9.999E+003 -9.999E+003 -9.999E+003 -9.999E+003 -9.999E+003 -9.999E+003 -9.999E+003 -9.999E+003 -9.999E+003 -9.999E+003 -9.999E+003 -9.999E+003 -9.999E+003 -9.999E+003 -9.999E+003 -9.999E+003 -9.999E+003 -9.999E+003 -9.999E+003 -9.999E+003
 -9.999E+003 -9.999E+003 -9.999E+003 -9.999E+003 -9.999E+003 -9.999E+003 -9.999E+003 -9.999E+003 -9.999E+003 -9.999E+003 -9.999E+003 -9.999E+003 -9.999E+003 -9.999E+003 -9.999E+003 -9.999E+003 -9.999E+003 -9.999E+003 -9.999E+003 -9.999E+003 -9.999E+003 -9.999E+003 -9.999E+003 -9.999E+003 -9.999E+003 -9.999E+003 -9.999E+003 -9.999E+003 -9.999E+003 -9.999E+003 -9.999E+003 -9.999E+003 -9.999E+003 -9.999E+003 -9.999E+003 -9.999E+003 -9.999E+003 -9.999E+003 -9.999E+003 -9.999E+003 -9.999E+003 -9.999E+003 -9.999E+003 -9.999E+003 -9.999E+003 -9.999E+003 -9.999E+003 -9.999E+003 -9.999E+003 -9.999E+003 -9.999E+003 -9.999E+003 -9.999E+003 -9.999E+003 -9.999E+003 -9.999E+003 -9.999E+003 -9.999E+003  4.548E-001  8.467E-001  1.161E+000  8.236E-001  3.505E-001  4.022E-001  8.535E-001  1.066E+000  1.179E+000  1.295E+000  1.366E+000  1.336E+000  1.099E+000  8.064E-001  5.082E-001  6.606E-003 -9.999E+003 -9.999E+003 -9.999E+003 -9.999E+003 -9.999E+003 -9.999E+003 -9.999E+003 -9.999E+003 -9.999E+003 -9.999E+003 -9.999E+003 -9.999E+003 -9.999E+003 -9.999E+003 -9.999E+003 -9.999E+003 -9.999E+003 -9.999E+003 -9.999E+003 -9.999E+003 -9.999E+003 -9.999E+003 -9.999E+003 -9.999E+003 -9.999E+003 -9.999E+003 -9.999E+003 -9.999E+003 -9.999E+003 -9.999E+003 -9.999E+003 -9.999E+003  1.422E-001  3.611E-001  1.047E+000  1.542E+000  5.705E-001  1.210E-001 -9.999E+003 -9.999E+003 -9.999E+003 -9.999E+003 -9.999E+003 -9.999E+003 -9.999E+003 -9.999E+003 -9.999E+003 -9.999E+003 -9.999E+003 -9.999E+003 -9.999E+003 -9.999E+003 -9.999E+003 -9.999E+003 -9.999E+003 -9.999E+003 -9.999E+003 -9.999E+003 -9.999E+003 -9.999E+003 -9.999E+003 -9.999E+003 -9.999E+003 -9.999E+003 -9.999E+003 -9.999E+003 -9.999E+003 -9.999E+003 -9.999E+003 -9.999E+003 -9.999E+003 -9.999E+003 -9.999E+003 -9.999E+003 -9.999E+003 -9.999E+003
 -9.999E+003 -9.999E+003 -9.999E+003 -9.999E+003 -9.999E+003 -9.999E+003 -9.999E+003 -9.999E+003 -9.999E+003 -9.999E+003 -9.999E+003 -9.999E+003 -9.999E+003 -9.999E+003 -9.999E+003 -9.999E+003 -9.999E+003 -9.999E+003 -9.999E+003 -9.999E+003 -9.999E+003 -9.999E+003 -9.999E+003 -9.999E+003 -9.999E+003 -9.999E+003 -9.999E+003 -9.999E+003 -9.999E+003 -9.999E+003 -9.999E+003 -9.999E+003 -9.999E+003 -9.999E+003 -9.999E+003 -9.999E+003 -9.999E+003 -9.999E+003 -9.999E+003 -9.999E+003 -9.999E+003 -9.999E+003 -9.999E+003 -9.999E+003 -9.999E+003 -9.999E+003 -9.999E+003 -9.999E+003 -9.999E+003 -9.999E+003 -9.999E+003 -9.999E+003 -9.999E+003 -9.999E+003 -9.999E+003 -9.999E+003 -9.999E+003 -9.999E+003 -9.999E+003  6.539E-001  9.805E-001  1.058E+000  5.296E-001  3.772E-001  7.048E-001  9.414E-001  1.102E+000  1.252E+000  1.361E+000  1.341E+000  1.106E+000  8.122E-001  4.459E-001  3.806E-005 -9.999E+003 -9.999E+003 -9.999E+003 -9.999E+003 -9.999E+003 -9.999E+003 -9.999E+003 -9.999E+003 -9.999E+003 -9.999E+003 -9.999E+003 -9.999E+003 -9.999E+003 -9.999E+003 -9.999E+003 -9.999E+003 -9.999E+003 -9.999E+003 -9.999E+003 -9.999E+003 -9.999E+003 -9.999E+003 -9.999E+003 -9.999E+003 -9.999E+003 -9.999E+003 -9.999E+003 -9.999E+003 -9.999E+003 -9.999E+003  4.950E-002  1.812E-001  4.812E-001  1.037E+000  2.001E+000  1.241E+000  3.206E-001  9.472E-002 -9.999E+003 -9.999E+003 -9.999E+003 -9.999E+003 -9.999E+003 -9.999E+003 -9.999E+003 -9.999E+003 -9.999E+003 -9.999E+003 -9.999E+003 -9.999E+003 -9.999E+003 -9.999E+003 -9.999E+003 -9.999E+003 -9.999E+003 -9.999E+003 -9.999E+003 -9.999E+003 -9.999E+003 -9.999E+003 -9.999E+003 -9.999E+003 -9.999E+003 -9.999E+003 -9.999E+003 -9.999E+003 -9.999E+003 -9.999E+003 -9.999E+003 -9.999E+003 -9.999E+003 -9.999E+003 -9.999E+003 -9.999E+003 -9.999E+003 -9.999E+003
 -9.999E+003 -9.999E+003 -9.999E+003 -9.999E+003 -9.999E+003 -9.999E+003 -9.999E+003 -9.999E+003 -9.999E+003 -9.999E+003 -9.999E+003 -9.999E+003 -9.999E+003 -9.999E+003 -9.999E+003 -9.999E+003 -9.999E+003 -9.999E+003 -9.999E+003 -9.999E+003 -9.999E+003 -9.999E+003 -9.999E+003 -9.999E+003 -9.999E+003 -9.999E+003 -9.999E+003 -9.999E+003 -9.999E+003 -9.999E+003 -9.999E+003 -9.999E+003 -9.999E+003 -9.999E+003 -9.999E+003 -9.999E+003 -9.999E+003 -9.999E+003 -9.999E+003 -9.999E+003 -9.999E+003 -9.999E+003 -9.999E+003 -9.999E+003 -9.999E+003 -9.999E+003 -9.999E+003 -9.999E+003 -9.999E+003 -9.999E+003 -9.999E+003 -9.999E+003 -9.999E+003 -9.999E+003 -9.999E+003 -9.999E+003 -9.999E+003 -9.999E+003 -9.999E+003  2.115E-001  5.123E-001  8.338E-001  7.781E-001  4.976E-001  5.556E-001  7.393E-001  9.307E-001  1.084E+000  1.205E+000  1.227E+000  1.125E+000  8.867E-001  5.044E-001 -9.999E+003 -9.999E+003 -9.999E+003 -9.999E+003 -9.999E+003 -9.999E+003 -9.999E+003 -9.999E+003 -9.999E+003 -9.999E+003 -9.999E+003 -9.999E+003 -9.999E+003 -9.999E+003 -9.999E+003 -9.999E+003 -9.999E+003 -9.999E+003 -9.999E+003 -9.999E+003 -9.999E+003 -9.999E+003 -9.999E+003 -9.999E+003 -9.999E+003 -9.999E+003 -9.999E+003 -9.999E+003 -9.999E+003 -9.999E+003  1.137E-001  2.558E-001  5.460E-001  1.129E+000  1.802E+000  1.422E+000  6.782E-001  1.904E-001 -9.999E+003 -9.999E+003 -9.999E+003 -9.999E+003 -9.999E+003 -9.999E+003 -9.999E+003 -9.999E+003 -9.999E+003 -9.999E+003 -9.999E+003 -9.999E+003 -9.999E+003 -9.999E+003 -9.999E+003 -9.999E+003 -9.999E+003 -9.999E+003 -9.999E+003 -9.999E+003 -9.999E+003 -9.999E+003 -9.999E+003 -9.999E+003 -9.999E+003 -9.999E+003 -9.999E+003 -9.999E+003 -9.999E+003 -9.999E+003 -9.999E+003 -9.999E+003 -9.999E+003 -9.999E+003 -9.999E+003 -9.999E+003 -9.999E+003 -9.999E+003 -9.999E+003
 -9.999E+003 -9.999E+003 -9.999E+003 -9.999E+003 -9.999E+003 -9.999E+003 -9.999E+003 -9.999E+003 -9.999E+003 -9.999E+003 -9.999E+003 -9.999E+003 -9.999E+003 -9.999E+003 -9.999E+003 -9.999E+003 -9.999E+003 -9.999E+003 -9.999E+003 -9.999E+003 -9.999E+003 -9.999E+003 -9.999E+003 -9.999E+003 -9.999E+003 -9.999E+003 -9.999E+003 -9.999E+003 -9.999E+003 -9.999E+003 -9.999E+003 -9.999E+003 -9.999E+003 -9.999E+003 -9.999E+003 -9.999E+003 -9.999E+003 -9.999E+003 -9.999E+003 -9.999E+003 -9.999E+003 -9.999E+003 -9.999E+003 -9.999E+003 -9.999E+003 -9.999E+003 -9.999E+003 -9.999E+003 -9.999E+003 -9.999E+003 -9.999E+003 -9.999E+003 -9.999E+003 -9.999E+003 -9.999E+003 -9.999E+003 -9.999E+003 -9.999E+003 -9.999E+003 -9.999E+003  2.855E-001  6.533E-001  1.114E+000  6.918E-001  4.126E-001  5.003E-001  6.614E-001  8.261E-001  1.069E+000  1.196E+000  1.187E+000  9.586E-001  5.817E-001 -9.999E+003 -9.999E+003 -9.999E+003 -9.999E+003 -9.999E+003 -9.999E+003 -9.999E+003 -9.999E+003 -9.999E+003 -9.999E+003 -9.999E+003 -9.999E+003 -9.999E+003 -9.999E+003 -9.999E+003 -9.999E+003 -9.999E+003 -9.999E+003 -9.999E+003 -9.999E+003 -9.999E+003 -9.999E+003 -9.999E+003 -9.999E+003 -9.999E+003 -9.999E+003 -9.999E+003 -9.999E+003 -9.999E+003  1.212E-001  3.440E-001  6.564E-001  1.066E+000  1.130E+000  9.457E-001  5.633E-001  2.486E-001 -9.999E+003 -9.999E+003 -9.999E+003 -9.999E+003 -9.999E+003 -9.999E+003 -9.999E+003 -9.999E+003 -9.999E+003 -9.999E+003 -9.999E+003 -9.999E+003 -9.999E+003 -9.999E+003 -9.999E+003 -9.999E+003 -9.999E+003 -9.999E+003 -9.999E+003 -9.999E+003 -9.999E+003 -9.999E+003 -9.999E+003 -9.999E+003 -9.999E+003 -9.999E+003 -9.999E+003 -9.999E+003 -9.999E+003 -9.999E+003 -9.999E+003 -9.999E+003 -9.999E+003 -9.999E+003 -9.999E+003 -9.999E+003 -9.999E+003 -9.999E+003 -9.999E+003 -9.999E+003
 -9.999E+003 -9.999E+003 -9.999E+003 -9.999E+003 -9.999E+003 -9.999E+003 -9.999E+003 -9.999E+003 -9.999E+003 -9.999E+003 -9.999E+003 -9.999E+003 -9.999E+003 -9.999E+003 -9.999E+003 -9.999E+003 -9.999E+003 -9.999E+003 -9.999E+003 -9.999E+003 -9.999E+003 -9.999E+003 -9.999E+003 -9.999E+003 -9.999E+003 -9.999E+003 -9.999E+003 -9.999E+003 -9.999E+003 -9.999E+003 -9.999E+003 -9.999E+003 -9.999E+003 -9.999E+003 -9.999E+003 -9.999E+003 -9.999E+003 -9.999E+003 -9.999E+003 -9.999E+003 -9.999E+003 -9.999E+003 -9.999E+003 -9.999E+003 -9.999E+003 -9.999E+003 -9.999E+003 -9.999E+003 -9.999E+003 -9.999E+003 -9.999E+003 -9.999E+003 -9.999E+003 -9.999E+003 -9.999E+003 -9.999E+003 -9.999E+003 -9.999E+003 -9.999E+003 -9.999E+003  2.815E-001  6.069E-001  9.371E-001  7.251E-001  3.478E-001  2.938E-001  3.962E-001  6.773E-001  1.026E+000  1.241E+000  1.276E+000  1.084E+000  6.700E-001  2.855E-001 -9.999E+003 -9.999E+003 -9.999E+003 -9.999E+003 -9.999E+003 -9.999E+003 -9.999E+003 -9.999E+003 -9.999E+003 -9.999E+003 -9.999E+003 -9.999E+003 -9.999E+003 -9.999E+003 -9.999E+003 -9.999E+003 -9.999E+003 -9.999E+003 -9.999E+003 -9.999E+003 -9.999E+003 -9.999E+003 -9.999E+003 -9.999E+003 -9.999E+003 -9.999E+003  8.819E-002  1.884E-001  4.702E-001  8.742E-001  1.028E+000  7.181E-001  4.782E-001  2.616E-001  1.603E-001 -9.999E+003 -9.999E+003 -9.999E+003 -9.999E+003 -9.999E+003 -9.999E+003 -9.999E+003 -9.999E+003 -9.999E+003 -9.999E+003 -9.999E+003 -9.999E+003 -9.999E+003 -9.999E+003 -9.999E+003 -9.999E+003 -9.999E+003 -9.999E+003 -9.999E+003 -9.999E+003 -9.999E+003 -9.999E+003 -9.999E+003 -9.999E+003 -9.999E+003 -9.999E+003 -9.999E+003 -9.999E+003 -9.999E+003 -9.999E+003 -9.999E+003 -9.999E+003 -9.999E+003 -9.999E+003 -9.999E+003 -9.999E+003 -9.999E+003 -9.999E+003 -9.999E+003 -9.999E+003 -9.999E+003
 -9.999E+003 -9.999E+003 -9.999E+003 -9.999E+003 -9.999E+003 -9.999E+003 -9.999E+003 -9.999E+003 -9.999E+003 -9.999E+003 -9.999E+003 -9.999E+003 -9.999E+003 -9.999E+003 -9.999E+003 -9.999E+003 -9.999E+003 -9.999E+003 -9.999E+003 -9.999E+003 -9.999E+003 -9.999E+003 -9.999E+003 -9.999E+003 -9.999E+003 -9.999E+003 -9.999E+003 -9.999E+003 -9.999E+003 -9.999E+003 -9.999E+003 -9.999E+003 -9.999E+003 -9.999E+003 -9.999E+003 -9.999E+003 -9.999E+003 -9.999E+003 -9.999E+003 -9.999E+003 -9.999E+003 -9.999E+003 -9.999E+003 -9.999E+003 -9.999E+003 -9.999E+003 -9.999E+003 -9.999E+003 -9.999E+003 -9.999E+003 -9.999E+003 -9.999E+003 -9.999E+003 -9.999E+003 -9.999E+003 -9.999E+003 -9.999E+003 -9.999E+003 -9.999E+003  1.998E-005  2.648E-001  4.933E-001  6.823E-001  6.842E-001  3.410E-001  1.181E-001  2.405E-002  7.110E-001  1.080E+000  1.281E+000  1.346E+000  1.201E+000  7.387E-001  3.088E-001 -9.999E+003 -9.999E+003 -9.999E+003 -9.999E+003 -9.999E+003 -9.999E+003 -9.999E+003 -9.999E+003 -9.999E+003 -9.999E+003 -9.999E+003 -9.999E+003 -9.999E+003 -9.999E+003 -9.999E+003 -9.999E+003 -9.999E+003 -9.999E+003 -9.999E+003 -9.999E+003 -9.999E+003 -9.999E+003 -9.999E+003 -9.999E+003 -9.999E+003  8.016E-002  2.455E-001  5.700E-001  1.049E+000  1.002E+000  6.095E-001  2.719E-001  1.488E-001 -9.999E+003 -9.999E+003 -9.999E+003 -9.999E+003 -9.999E+003 -9.999E+003 -9.999E+003 -9.999E+003 -9.999E+003 -9.999E+003 -9.999E+003 -9.999E+003 -9.999E+003 -9.999E+003 -9.999E+003 -9.999E+003 -9.999E+003 -9.999E+003 -9.999E+003 -9.999E+003 -9.999E+003 -9.999E+003 -9.999E+003 -9.999E+003 -9.999E+003 -9.999E+003 -9.999E+003 -9.999E+003 -9.999E+003 -9.999E+003 -9.999E+003 -9.999E+003 -9.999E+003 -9.999E+003 -9.999E+003 -9.999E+003 -9.999E+003 -9.999E+003 -9.999E+003 -9.999E+003 -9.999E+003 -9.999E+003 -9.999E+003
 -9.999E+003 -9.999E+003 -9.999E+003 -9.999E+003 -9.999E+003 -9.999E+003 -9.999E+003 -9.999E+003 -9.999E+003 -9.999E+003 -9.999E+003 -9.999E+003 -9.999E+003 -9.999E+003 -9.999E+003 -9.999E+003 -9.999E+003 -9.999E+003 -9.999E+003 -9.999E+003 -9.999E+003 -9.999E+003 -9.999E+003 -9.999E+003 -9.999E+003 -9.999E+003 -9.999E+003 -9.999E+003 -9.999E+003 -9.999E+003 -9.999E+003 -9.999E+003 -9.999E+003 -9.999E+003 -9.999E+003 -9.999E+003 -9.999E+003 -9.999E+003 -9.999E+003 -9.999E+003 -9.999E+003 -9.999E+003 -9.999E+003 -9.999E+003 -9.999E+003 -9.999E+003 -9.999E+003 -9.999E+003 -9.999E+003 -9.999E+003 -9.999E+003 -9.999E+003 -9.999E+003 -9.999E+003 -9.999E+003 -9.999E+003 -9.999E+003 -9.999E+003 -9.999E+003 -9.999E+003  9.502E-005  3.405E-001  6.003E-001  7.817E-001  4.498E-001  2.509E-001  6.133E-001  9.035E-001  1.123E+000  1.265E+000  1.313E+000  1.186E+000  7.797E-001  3.476E-001 -9.999E+003 -9.999E+003 -9.999E+003 -9.999E+003 -9.999E+003 -9.999E+003 -9.999E+003 -9.999E+003 -9.999E+003 -9.999E+003 -9.999E+003 -9.999E+003 -9.999E+003 -9.999E+003 -9.999E+003 -9.999E+003 -9.999E+003 -9.999E+003 -9.999E+003 -9.999E+003 -9.999E+003 -9.999E+003 -9.999E+003 -9.999E+003  8.311E-002  2.349E-001  5.778E-001  9.773E-001  9.101E-001  5.853E-001  2.223E-001 -9.999E+003 -9.999E+003 -9.999E+003 -9.999E+003 -9.999E+003 -9.999E+003 -9.999E+003 -9.999E+003 -9.999E+003 -9.999E+003 -9.999E+003 -9.999E+003 -9.999E+003 -9.999E+003 -9.999E+003 -9.999E+003 -9.999E+003 -9.999E+003 -9.999E+003 -9.999E+003 -9.999E+003 -9.999E+003 -9.999E+003 -9.999E+003 -9.999E+003 -9.999E+003 -9.999E+003 -9.999E+003 -9.999E+003 -9.999E+003 -9.999E+003 -9.999E+003 -9.999E+003 -9.999E+003 -9.999E+003 -9.999E+003 -9.999E+003 -9.999E+003 -9.999E+003 -9.999E+003 -9.999E+003 -9.999E+003 -9.999E+003 -9.999E+003 -9.999E+003
 -9.999E+003 -9.999E+003 -9.999E+003 -9.999E+003 -9.999E+003 -9.999E+003 -9.999E+003 -9.999E+003 -9.999E+003 -9.999E+003 -9.999E+003 -9.999E+003 -9.999E+003 -9.999E+003 -9.999E+003 -9.999E+003 -9.999E+003 -9.999E+003 -9.999E+003 -9.999E+003 -9.999E+003 -9.999E+003 -9.999E+003 -9.999E+003 -9.999E+003 -9.999E+003 -9.999E+003 -9.999E+003 -9.999E+003 -9.999E+003 -9.999E+003 -9.999E+003 -9.999E+003 -9.999E+003 -9.999E+003 -9.999E+003 -9.999E+003 -9.999E+003 -9.999E+003 -9.999E+003 -9.999E+003 -9.999E+003 -9.999E+003 -9.999E+003 -9.999E+003 -9.999E+003 -9.999E+003 -9.999E+003 -9.999E+003 -9.999E+003 -9.999E+003 -9.999E+003 -9.999E+003 -9.999E+003 -9.999E+003 -9.999E+003 -9.999E+003 -9.999E+003 -9.999E+003 -9.999E+003 -9.999E+003  2.762E-001  5.909E-001  8.697E-001  6.100E-001  3.749E-001  6.350E-001  1.073E+000  1.161E+000  1.228E+000  1.263E+000  1.172E+000  8.825E-001  4.618E-001  4.715E-005 -9.999E+003 -9.999E+003 -9.999E+003 -9.999E+003 -9.999E+003 -9.999E+003 -9.999E+003 -9.999E+003 -9.999E+003 -9.999E+003 -9.999E+003 -9.999E+003 -9.999E+003 -9.999E+003 -9.999E+003 -9.999E+003 -9.999E+003 -9.999E+003 -9.999E+003 -9.999E+003 -9.999E+003 -9.999E+003  9.145E-002  2.631E-001  5.271E-001  7.762E-001  7.605E-001  5.010E-001  2.479E-001  1.731E-002 -9.999E+003 -9.999E+003 -9.999E+003 -9.999E+003 -9.999E+003 -9.999E+003 -9.999E+003 -9.999E+003 -9.999E+003 -9.999E+003 -9.999E+003 -9.999E+003 -9.999E+003 -9.999E+003 -9.999E+003 -9.999E+003 -9.999E+003 -9.999E+003 -9.999E+003 -9.999E+003 -9.999E+003 -9.999E+003 -9.999E+003 -9.999E+003 -9.999E+003 -9.999E+003 -9.999E+003 -9.999E+003 -9.999E+003 -9.999E+003 -9.999E+003 -9.999E+003 -9.999E+003 -9.999E+003 -9.999E+003 -9.999E+003 -9.999E+003 -9.999E+003 -9.999E+003 -9.999E+003 -9.999E+003 -9.999E+003 -9.999E+003 -9.999E+003 -9.999E+003
 -9.999E+003 -9.999E+003 -9.999E+003 -9.999E+003 -9.999E+003 -9.999E+003 -9.999E+003 -9.999E+003 -9.999E+003 -9.999E+003 -9.999E+003 -9.999E+003 -9.999E+003 -9.999E+003 -9.999E+003 -9.999E+003 -9.999E+003 -9.999E+003 -9.999E+003 -9.999E+003 -9.999E+003 -9.999E+003 -9.999E+003 -9.999E+003 -9.999E+003 -9.999E+003 -9.999E+003 -9.999E+003 -9.999E+003 -9.999E+003 -9.999E+003 -9.999E+003 -9.999E+003 -9.999E+003 -9.999E+003 -9.999E+003 -9.999E+003 -9.999E+003 -9.999E+003 -9.999E+003 -9.999E+003 -9.999E+003 -9.999E+003 -9.999E+003 -9.999E+003 -9.999E+003 -9.999E+003 -9.999E+003 -9.999E+003 -9.999E+003 -9.999E+003 -9.999E+003 -9.999E+003 -9.999E+003 -9.999E+003 -9.999E+003 -9.999E+003 -9.999E+003 -9.999E+003 -9.999E+003 -9.999E+003 -9.999E+003  5.471E-001  9.122E-001  6.232E-001  4.501E-001  7.298E-001  1.100E+000  1.266E+000  1.335E+000  1.362E+000  1.321E+000  1.165E+000  8.643E-001  4.359E-001  3.957E-005 -9.999E+003 -9.999E+003 -9.999E+003 -9.999E+003 -9.999E+003 -9.999E+003 -9.999E+003 -9.999E+003 -9.999E+003 -9.999E+003 -9.999E+003 -9.999E+003 -9.999E+003 -9.999E+003 -9.999E+003 -9.999E+003 -9.999E+003 -9.999E+003 -9.999E+003 -9.999E+003  8.861E-002  2.626E-001  5.728E-001  7.508E-001  6.258E-001  4.000E-001  1.939E-001  2.871E-002 -9.999E+003 -9.999E+003 -9.999E+003 -9.999E+003 -9.999E+003 -9.999E+003 -9.999E+003 -9.999E+003 -9.999E+003 -9.999E+003 -9.999E+003 -9.999E+003 -9.999E+003 -9.999E+003 -9.999E+003 -9.999E+003 -9.999E+003 -9.999E+003 -9.999E+003 -9.999E+003 -9.999E+003 -9.999E+003 -9.999E+003 -9.999E+003 -9.999E+003 -9.999E+003 -9.999E+003 -9.999E+003 -9.999E+003 -9.999E+003 -9.999E+003 -9.999E+003 -9.999E+003 -9.999E+003 -9.999E+003 -9.999E+003 -9.999E+003 -9.999E+003 -9.999E+003 -9.999E+003 -9.999E+003 -9.999E+003 -9.999E+003 -9.999E+003 -9.999E+003 -9.999E+003
 -9.999E+003 -9.999E+003 -9.999E+003 -9.999E+003 -9.999E+003 -9.999E+003 -9.999E+003 -9.999E+003 -9.999E+003 -9.999E+003 -9.999E+003 -9.999E+003 -9.999E+003 -9.999E+003 -9.999E+003 -9.999E+003 -9.999E+003 -9.999E+003 -9.999E+003 -9.999E+003 -9.999E+003 -9.999E+003 -9.999E+003 -9.999E+003 -9.999E+003 -9.999E+003 -9.999E+003 -9.999E+003 -9.999E+003 -9.999E+003 -9.999E+003 -9.999E+003 -9.999E+003 -9.999E+003 -9.999E+003 -9.999E+003 -9.999E+003 -9.999E+003 -9.999E+003 -9.999E+003 -9.999E+003 -9.999E+003 -9.999E+003 -9.999E+003 -9.999E+003 -9.999E+003 -9.999E+003 -9.999E+003 -9.999E+003 -9.999E+003 -9.999E+003 -9.999E+003 -9.999E+003 -9.999E+003 -9.999E+003 -9.999E+003 -9.999E+003 -9.999E+003 -9.999E+003 -9.999E+003 -9.999E+003 -9.999E+003 -9.999E+003  5.010E-001  4.286E-001  4.666E-001  7.013E-001  1.032E+000  1.309E+000  1.432E+000  1.454E+000  1.470E+000  1.452E+000  1.283E+000  8.154E-001  3.216E-001  1.760E-005 -9.999E+003 -9.999E+003 -9.999E+003 -9.999E+003 -9.999E+003 -9.999E+003 -9.999E+003 -9.999E+003 -9.999E+003 -9.999E+003 -9.999E+003 -9.999E+003 -9.999E+003 -9.999E+003 -9.999E+003 -9.999E+003 -9.999E+003 -9.999E+003 -9.999E+003  2.513E-001  5.184E-001  6.453E-001  5.461E-001  3.470E-001  1.561E-001  1.094E-002 -9.999E+003 -9.999E+003 -9.999E+003 -9.999E+003 -9.999E+003 -9.999E+003 -9.999E+003 -9.999E+003 -9.999E+003 -9.999E+003 -9.999E+003 -9.999E+003 -9.999E+003 -9.999E+003 -9.999E+003 -9.999E+003 -9.999E+003 -9.999E+003 -9.999E+003 -9.999E+003 -9.999E+003 -9.999E+003 -9.999E+003 -9.999E+003 -9.999E+003 -9.999E+003 -9.999E+003 -9.999E+003 -9.999E+003 -9.999E+003 -9.999E+003 -9.999E+003 -9.999E+003 -9.999E+003 -9.999E+003 -9.999E+003 -9.999E+003 -9.999E+003 -9.999E+003 -9.999E+003 -9.999E+003 -9.999E+003 -9.999E+003 -9.999E+003 -9.999E+003 -9.999E+003 -9.999E+003
 -9.999E+003 -9.999E+003 -9.999E+003 -9.999E+003 -9.999E+003 -9.999E+003 -9.999E+003 -9.999E+003 -9.999E+003 -9.999E+003 -9.999E+003 -9.999E+003 -9.999E+003 -9.999E+003 -9.999E+003 -9.999E+003 -9.999E+003 -9.999E+003 -9.999E+003 -9.999E+003 -9.999E+003 -9.999E+003 -9.999E+003 -9.999E+003 -9.999E+003 -9.999E+003 -9.999E+003 -9.999E+003 -9.999E+003 -9.999E+003 -9.999E+003 -9.999E+003 -9.999E+003 -9.999E+003 -9.999E+003 -9.999E+003 -9.999E+003 -9.999E+003 -9.999E+003 -9.999E+003 -9.999E+003 -9.999E+003 -9.999E+003 -9.999E+003 -9.999E+003 -9.999E+003 -9.999E+003 -9.999E+003 -9.999E+003 -9.999E+003 -9.999E+003 -9.999E+003 -9.999E+003 -9.999E+003 -9.999E+003 -9.999E+003 -9.999E+003 -9.999E+003 -9.999E+003 -9.999E+003 -9.999E+003 -9.999E+003 -9.999E+003 -9.999E+003  1.846E-001  3.637E-001  5.755E-001  9.181E-001  1.276E+000  1.473E+000  1.498E+000  1.486E+000  1.561E+000  1.673E+000  1.158E+000  4.375E-001  1.439E-001 -9.999E+003 -9.999E+003 -9.999E+003 -9.999E+003 -9.999E+003 -9.999E+003 -9.999E+003 -9.999E+003 -9.999E+003 -9.999E+003 -9.999E+003 -9.999E+003 -9.999E+003 -9.999E+003 -9.999E+003 -9.999E+003 -9.999E+003 -9.999E+003  2.960E-001  5.531E-001  7.069E-001  5.232E-001  3.052E-001  1.369E-001 -9.999E+003 -9.999E+003 -9.999E+003 -9.999E+003 -9.999E+003 -9.999E+003 -9.999E+003 -9.999E+003 -9.999E+003 -9.999E+003 -9.999E+003 -9.999E+003 -9.999E+003 -9.999E+003 -9.999E+003 -9.999E+003 -9.999E+003 -9.999E+003 -9.999E+003 -9.999E+003 -9.999E+003 -9.999E+003 -9.999E+003 -9.999E+003 -9.999E+003 -9.999E+003 -9.999E+003 -9.999E+003 -9.999E+003 -9.999E+003 -9.999E+003 -9.999E+003 -9.999E+003 -9.999E+003 -9.999E+003 -9.999E+003 -9.999E+003 -9.999E+003 -9.999E+003 -9.999E+003 -9.999E+003 -9.999E+003 -9.999E+003 -9.999E+003 -9.999E+003 -9.999E+003 -9.999E+003 -9.999E+003 -9.999E+003
 -9.999E+003 -9.999E+003 -9.999E+003 -9.999E+003 -9.999E+003 -9.999E+003 -9.999E+003 -9.999E+003 -9.999E+003 -9.999E+003 -9.999E+003 -9.999E+003 -9.999E+003 -9.999E+003 -9.999E+003 -9.999E+003 -9.999E+003 -9.999E+003 -9.999E+003 -9.999E+003 -9.999E+003 -9.999E+003 -9.999E+003 -9.999E+003 -9.999E+003 -9.999E+003 -9.999E+003 -9.999E+003 -9.999E+003 -9.999E+003 -9.999E+003 -9.999E+003 -9.999E+003 -9.999E+003 -9.999E+003 -9.999E+003 -9.999E+003 -9.999E+003 -9.999E+003 -9.999E+003 -9.999E+003 -9.999E+003 -9.999E+003 -9.999E+003 -9.999E+003 -9.999E+003 -9.999E+003 -9.999E+003 -9.999E+003 -9.999E+003 -9.999E+003 -9.999E+003 -9.999E+003 -9.999E+003 -9.999E+003 -9.999E+003 -9.999E+003 -9.999E+003 -9.999E+003 -9.999E+003 -9.999E+003 -9.999E+003 -9.999E+003 -9.999E+003  6.582E-005  2.079E-001  2.144E-004  6.751E-001  1.147E+000  1.442E+000  1.517E+000  1.502E+000  1.665E+000  1.916E+000  1.377E+000  4.911E-001  1.582E-001 -9.999E+003 -9.999E+003 -9.999E+003 -9.999E+003 -9.999E+003 -9.999E+003 -9.999E+003 -9.999E+003 -9.999E+003 -9.999E+003 -9.999E+003 -9.999E+003 -9.999E+003 -9.999E+003 -9.999E+003 -9.999E+003 -9.999E+003  3.309E-001  6.850E-001  8.751E-001  7.754E-001  4.699E-001  2.064E-001 -9.999E+003 -9.999E+003 -9.999E+003 -9.999E+003 -9.999E+003 -9.999E+003 -9.999E+003 -9.999E+003 -9.999E+003 -9.999E+003 -9.999E+003 -9.999E+003 -9.999E+003 -9.999E+003 -9.999E+003 -9.999E+003 -9.999E+003 -9.999E+003 -9.999E+003 -9.999E+003 -9.999E+003 -9.999E+003 -9.999E+003 -9.999E+003 -9.999E+003 -9.999E+003 -9.999E+003 -9.999E+003 -9.999E+003 -9.999E+003 -9.999E+003 -9.999E+003 -9.999E+003 -9.999E+003 -9.999E+003 -9.999E+003 -9.999E+003 -9.999E+003 -9.999E+003 -9.999E+003 -9.999E+003 -9.999E+003 -9.999E+003 -9.999E+003 -9.999E+003 -9.999E+003 -9.999E+003 -9.999E+003 -9.999E+003 -9.999E+003
 -9.999E+003 -9.999E+003 -9.999E+003 -9.999E+003 -9.999E+003 -9.999E+003 -9.999E+003 -9.999E+003 -9.999E+003 -9.999E+003 -9.999E+003 -9.999E+003 -9.999E+003 -9.999E+003 -9.999E+003 -9.999E+003 -9.999E+003 -9.999E+003 -9.999E+003 -9.999E+003 -9.999E+003 -9.999E+003 -9.999E+003 -9.999E+003 -9.999E+003 -9.999E+003 -9.999E+003 -9.999E+003 -9.999E+003 -9.999E+003 -9.999E+003 -9.999E+003 -9.999E+003 -9.999E+003 -9.999E+003 -9.999E+003 -9.999E+003 -9.999E+003 -9.999E+003 -9.999E+003 -9.999E+003 -9.999E+003 -9.999E+003 -9.999E+003 -9.999E+003 -9.999E+003 -9.999E+003 -9.999E+003 -9.999E+003 -9.999E+003 -9.999E+003 -9.999E+003 -9.999E+003 -9.999E+003 -9.999E+003 -9.999E+003 -9.999E+003 -9.999E+003 -9.999E+003 -9.999E+003 -9.999E+003 -9.999E+003 -9.999E+003  1.998E-001  1.125E-001  1.465E-005 -9.999E+003  2.635E-002  9.861E-001  1.311E+000  1.458E+000  1.519E+000  1.735E+000  1.902E+000  1.186E+000  4.273E-001 -9.999E+003 -9.999E+003 -9.999E+003 -9.999E+003 -9.999E+003 -9.999E+003 -9.999E+003 -9.999E+003 -9.999E+003 -9.999E+003 -9.999E+003 -9.999E+003 -9.999E+003 -9.999E+003 -9.999E+003 -9.999E+003 -9.999E+003  3.513E-001  7.711E-001  1.181E+000  1.214E+000  8.443E-001  4.139E-001 -9.999E+003 -9.999E+003 -9.999E+003 -9.999E+003 -9.999E+003 -9.999E+003 -9.999E+003 -9.999E+003 -9.999E+003 -9.999E+003 -9.999E+003 -9.999E+003 -9.999E+003 -9.999E+003 -9.999E+003 -9.999E+003 -9.999E+003 -9.999E+003 -9.999E+003 -9.999E+003 -9.999E+003 -9.999E+003 -9.999E+003 -9.999E+003 -9.999E+003 -9.999E+003 -9.999E+003 -9.999E+003 -9.999E+003 -9.999E+003 -9.999E+003 -9.999E+003 -9.999E+003 -9.999E+003 -9.999E+003 -9.999E+003 -9.999E+003 -9.999E+003 -9.999E+003 -9.999E+003 -9.999E+003 -9.999E+003 -9.999E+003 -9.999E+003 -9.999E+003 -9.999E+003 -9.999E+003 -9.999E+003 -9.999E+003 -9.999E+003 -9.999E+003
 -9.999E+003 -9.999E+003 -9.999E+003 -9.999E+003 -9.999E+003 -9.999E+003 -9.999E+003 -9.999E+003 -9.999E+003 -9.999E+003 -9.999E+003 -9.999E+003 -9.999E+003 -9.999E+003 -9.999E+003 -9.999E+003 -9.999E+003 -9.999E+003 -9.999E+003 -9.999E+003 -9.999E+003 -9.999E+003 -9.999E+003 -9.999E+003 -9.999E+003 -9.999E+003 -9.999E+003 -9.999E+003 -9.999E+003 -9.999E+003 -9.999E+003 -9.999E+003 -9.999E+003 -9.999E+003 -9.999E+003 -9.999E+003 -9.999E+003 -9.999E+003 -9.999E+003 -9.999E+003 -9.999E+003 -9.999E+003 -9.999E+003 -9.999E+003 -9.999E+003 -9.999E+003 -9.999E+003 -9.999E+003 -9.999E+003 -9.999E+003 -9.999E+003 -9.999E+003 -9.999E+003 -9.999E+003 -9.999E+003 -9.999E+003 -9.999E+003 -9.999E+003 -9.999E+003 -9.999E+003 -9.999E+003 -9.999E+003  3.279E-001  5.095E-001  4.185E-001  3.041E-001 -9.999E+003  1.549E-002  7.612E-001  1.155E+000  1.376E+000  1.508E+000  1.618E+000  1.480E+000  8.864E-001  3.319E-001 -9.999E+003 -9.999E+003 -9.999E+003 -9.999E+003 -9.999E+003 -9.999E+003 -9.999E+003 -9.999E+003 -9.999E+003 -9.999E+003 -9.999E+003 -9.999E+003 -9.999E+003 -9.999E+003 -9.999E+003 -9.999E+003  1.011E-003  6.664E-001  1.225E+000  1.526E+000  1.435E+000  1.019E+000  2.500E-004 -9.999E+003 -9.999E+003 -9.999E+003 -9.999E+003 -9.999E+003 -9.999E+003 -9.999E+003 -9.999E+003 -9.999E+003 -9.999E+003 -9.999E+003 -9.999E+003 -9.999E+003 -9.999E+003 -9.999E+003 -9.999E+003 -9.999E+003 -9.999E+003 -9.999E+003 -9.999E+003 -9.999E+003 -9.999E+003 -9.999E+003 -9.999E+003 -9.999E+003 -9.999E+003 -9.999E+003 -9.999E+003 -9.999E+003 -9.999E+003 -9.999E+003 -9.999E+003 -9.999E+003 -9.999E+003 -9.999E+003 -9.999E+003 -9.999E+003 -9.999E+003 -9.999E+003 -9.999E+003 -9.999E+003 -9.999E+003 -9.999E+003 -9.999E+003 -9.999E+003 -9.999E+003 -9.999E+003 -9.999E+003 -9.999E+003 -9.999E+003 -9.999E+003
 -9.999E+003 -9.999E+003 -9.999E+003 -9.999E+003 -9.999E+003 -9.999E+003 -9.999E+003 -9.999E+003 -9.999E+003 -9.999E+003 -9.999E+003 -9.999E+003 -9.999E+003 -9.999E+003 -9.999E+003 -9.999E+003 -9.999E+003 -9.999E+003 -9.999E+003 -9.999E+003 -9.999E+003 -9.999E+003 -9.999E+003 -9.999E+003 -9.999E+003 -9.999E+003 -9.999E+003 -9.999E+003 -9.999E+003 -9.999E+003 -9.999E+003 -9.999E+003 -9.999E+003 -9.999E+003 -9.999E+003 -9.999E+003 -9.999E+003 -9.999E+003 -9.999E+003 -9.999E+003 -9.999E+003 -9.999E+003 -9.999E+003 -9.999E+003 -9.999E+003 -9.999E+003 -9.999E+003 -9.999E+003 -9.999E+003 -9.999E+003 -9.999E+003 -9.999E+003 -9.999E+003 -9.999E+003 -9.999E+003 -9.999E+003 -9.999E+003 -9.999E+003 -9.999E+003 -9.999E+003 -9.999E+003  6.389E-002  4.210E-001  6.893E-001  7.266E-001  4.870E-001  2.250E-001  1.200E-002  6.233E-001  1.070E+000  1.359E+000  1.490E+000  1.458E+000  1.209E+000  8.318E-001  4.212E-001 -9.999E+003  4.347E-005 -9.999E+003 -9.999E+003 -9.999E+003 -9.999E+003 -9.999E+003 -9.999E+003 -9.999E+003 -9.999E+003 -9.999E+003 -9.999E+003 -9.999E+003 -9.999E+003 -9.999E+003 -9.999E+003 -9.999E+003  1.124E+000  1.440E+000  1.547E+000  1.410E+000  1.114E+000 -9.999E+003 -9.999E+003 -9.999E+003 -9.999E+003 -9.999E+003 -9.999E+003 -9.999E+003 -9.999E+003 -9.999E+003 -9.999E+003 -9.999E+003 -9.999E+003 -9.999E+003 -9.999E+003 -9.999E+003 -9.999E+003 -9.999E+003 -9.999E+003 -9.999E+003 -9.999E+003 -9.999E+003 -9.999E+003 -9.999E+003 -9.999E+003 -9.999E+003 -9.999E+003 -9.999E+003 -9.999E+003 -9.999E+003 -9.999E+003 -9.999E+003 -9.999E+003 -9.999E+003 -9.999E+003 -9.999E+003 -9.999E+003 -9.999E+003 -9.999E+003 -9.999E+003 -9.999E+003 -9.999E+003 -9.999E+003 -9.999E+003 -9.999E+003 -9.999E+003 -9.999E+003 -9.999E+003 -9.999E+003 -9.999E+003 -9.999E+003 -9.999E+003 -9.999E+003
 -9.999E+003 -9.999E+003 -9.999E+003 -9.999E+003 -9.999E+003 -9.999E+003 -9.999E+003 -9.999E+003 -9.999E+003 -9.999E+003 -9.999E+003 -9.999E+003 -9.999E+003 -9.999E+003 -9.999E+003 -9.999E+003 -9.999E+003 -9.999E+003 -9.999E+003 -9.999E+003 -9.999E+003 -9.999E+003 -9.999E+003 -9.999E+003 -9.999E+003 -9.999E+003 -9.999E+003 -9.999E+003 -9.999E+003 -9.999E+003 -9.999E+003 -9.999E+003 -9.999E+003 -9.999E+003 -9.999E+003 -9.999E+003 -9.999E+003 -9.999E+003 -9.999E+003 -9.999E+003 -9.999E+003 -9.999E+003 -9.999E+003 -9.999E+003 -9.999E+003 -9.999E+003 -9.999E+003 -9.999E+003 -9.999E+003 -9.999E+003 -9.999E+003 -9.999E+003 -9.999E+003 -9.999E+003 -9.999E+003 -9.999E+003 -9.999E+003 -9.999E+003 -9.999E+003 -9.999E+003 -9.999E+003 -9.999E+003  4.518E-001  7.505E-001  8.979E-001  5.446E-001  1.861E-001  1.415E-004  6.400E-001  1.133E+000  1.475E+000  1.613E+000  1.509E+000  1.274E+000  1.002E+000  7.386E-001  3.088E-003  5.366E-001  2.974E-001 -9.999E+003 -9.999E+003 -9.999E+003 -9.999E+003 -9.999E+003 -9.999E+003 -9.999E+003 -9.999E+003 -9.999E+003 -9.999E+003 -9.999E+003 -9.999E+003 -9.999E+003  7.945E-001  1.132E+000  1.309E+000  1.349E+000  1.240E+000  1.024E+000  1.366E-003 -9.999E+003 -9.999E+003 -9.999E+003 -9.999E+003 -9.999E+003 -9.999E+003 -9.999E+003 -9.999E+003 -9.999E+003 -9.999E+003 -9.999E+003 -9.999E+003 -9.999E+003 -9.999E+003 -9.999E+003 -9.999E+003 -9.999E+003 -9.999E+003 -9.999E+003 -9.999E+003 -9.999E+003 -9.999E+003 -9.999E+003 -9.999E+003 -9.999E+003 -9.999E+003 -9.999E+003 -9.999E+003 -9.999E+003 -9.999E+003 -9.999E+003 -9.999E+003 -9.999E+003 -9.999E+003 -9.999E+003 -9.999E+003 -9.999E+003 -9.999E+003 -9.999E+003 -9.999E+003 -9.999E+003 -9.999E+003 -9.999E+003 -9.999E+003 -9.999E+003 -9.999E+003 -9.999E+003 -9.999E+003 -9.999E+003 -9.999E+003 -9.999E+003
 -9.999E+003 -9.999E+003 -9.999E+003 -9.999E+003 -9.999E+003 -9.999E+003 -9.999E+003 -9.999E+003 -9.999E+003 -9.999E+003 -9.999E+003 -9.999E+003 -9.999E+003 -9.999E+003 -9.999E+003 -9.999E+003 -9.999E+003 -9.999E+003 -9.999E+003 -9.999E+003 -9.999E+003 -9.999E+003 -9.999E+003 -9.999E+003 -9.999E+003 -9.999E+003 -9.999E+003 -9.999E+003 -9.999E+003 -9.999E+003 -9.999E+003 -9.999E+003 -9.999E+003 -9.999E+003 -9.999E+003 -9.999E+003 -9.999E+003 -9.999E+003 -9.999E+003 -9.999E+003 -9.999E+003 -9.999E+003 -9.999E+003 -9.999E+003 -9.999E+003 -9.999E+003 -9.999E+003 -9.999E+003 -9.999E+003 -9.999E+003 -9.999E+003 -9.999E+003 -9.999E+003 -9.999E+003 -9.999E+003 -9.999E+003 -9.999E+003 -9.999E+003 -9.999E+003 -9.999E+003 -9.999E+003 -9.999E+003  6.153E-001  9.099E-001  1.020E+000  5.936E-001  1.904E-001 -9.999E+003  6.917E-001  1.219E+000  1.581E+000  1.724E+000  1.617E+000  1.433E+000  1.195E+000  9.470E-001  7.788E-001  6.763E-001  5.235E-001  2.438E-001 -9.999E+003 -9.999E+003 -9.999E+003 -9.999E+003 -9.999E+003 -9.999E+003 -9.999E+003 -9.999E+003 -9.999E+003 -9.999E+003 -9.999E+003  8.196E-001  1.020E+000  1.121E+000  1.181E+000  1.200E+000  1.120E+000  9.551E-001  2.719E-001  1.936E-003 -9.999E+003 -9.999E+003 -9.999E+003 -9.999E+003 -9.999E+003 -9.999E+003 -9.999E+003 -9.999E+003 -9.999E+003 -9.999E+003 -9.999E+003 -9.999E+003 -9.999E+003 -9.999E+003 -9.999E+003 -9.999E+003 -9.999E+003 -9.999E+003 -9.999E+003 -9.999E+003 -9.999E+003 -9.999E+003 -9.999E+003 -9.999E+003 -9.999E+003 -9.999E+003 -9.999E+003 -9.999E+003 -9.999E+003 -9.999E+003 -9.999E+003 -9.999E+003 -9.999E+003 -9.999E+003 -9.999E+003 -9.999E+003 -9.999E+003 -9.999E+003 -9.999E+003 -9.999E+003 -9.999E+003 -9.999E+003 -9.999E+003 -9.999E+003 -9.999E+003 -9.999E+003 -9.999E+003 -9.999E+003 -9.999E+003 -9.999E+003
 -9.999E+003 -9.999E+003 -9.999E+003 -9.999E+003 -9.999E+003 -9.999E+003 -9.999E+003 -9.999E+003 -9.999E+003 -9.999E+003 -9.999E+003 -9.999E+003 -9.999E+003 -9.999E+003 -9.999E+003 -9.999E+003 -9.999E+003 -9.999E+003 -9.999E+003 -9.999E+003 -9.999E+003 -9.999E+003 -9.999E+003 -9.999E+003 -9.999E+003 -9.999E+003 -9.999E+003 -9.999E+003 -9.999E+003 -9.999E+003 -9.999E+003 -9.999E+003 -9.999E+003 -9.999E+003 -9.999E+003 -9.999E+003 -9.999E+003 -9.999E+003 -9.999E+003 -9.999E+003 -9.999E+003 -9.999E+003 -9.999E+003 -9.999E+003 -9.999E+003 -9.999E+003 -9.999E+003 -9.999E+003 -9.999E+003 -9.999E+003 -9.999E+003 -9.999E+003 -9.999E+003 -9.999E+003 -9.999E+003 -9.999E+003 -9.999E+003 -9.999E+003 -9.999E+003 -9.999E+003 -9.999E+003  3.123E-001  6.484E-001  9.804E-001  1.097E+000  6.384E-001  2.069E-001 -9.999E+003  9.822E-005  1.251E+000  1.592E+000  1.743E+000  1.632E+000  1.467E+000  1.272E+000  9.982E-001  8.413E-001  7.487E-001  5.210E-001  2.183E-001  6.050E-002 -9.999E+003 -9.999E+003 -9.999E+003 -9.999E+003 -9.999E+003 -9.999E+003 -9.999E+003 -9.999E+003 -9.999E+003  7.529E-001  1.134E+000  1.194E+000  1.224E+000  1.235E+000  1.229E+000  1.100E+000  8.527E-001  1.451E-003 -9.999E+003 -9.999E+003 -9.999E+003 -9.999E+003 -9.999E+003 -9.999E+003 -9.999E+003 -9.999E+003 -9.999E+003 -9.999E+003 -9.999E+003 -9.999E+003 -9.999E+003 -9.999E+003 -9.999E+003 -9.999E+003 -9.999E+003 -9.999E+003 -9.999E+003 -9.999E+003 -9.999E+003 -9.999E+003 -9.999E+003 -9.999E+003 -9.999E+003 -9.999E+003 -9.999E+003 -9.999E+003 -9.999E+003 -9.999E+003 -9.999E+003 -9.999E+003 -9.999E+003 -9.999E+003 -9.999E+003 -9.999E+003 -9.999E+003 -9.999E+003 -9.999E+003 -9.999E+003 -9.999E+003 -9.999E+003 -9.999E+003 -9.999E+003 -9.999E+003 -9.999E+003 -9.999E+003 -9.999E+003 -9.999E+003 -9.999E+003 -9.999E+003
 -9.999E+003 -9.999E+003 -9.999E+003 -9.999E+003 -9.999E+003 -9.999E+003 -9.999E+003 -9.999E+003 -9.999E+003 -9.999E+003 -9.999E+003 -9.999E+003 -9.999E+003 -9.999E+003 -9.999E+003 -9.999E+003 -9.999E+003 -9.999E+003 -9.999E+003 -9.999E+003 -9.999E+003 -9.999E+003 -9.999E+003 -9.999E+003 -9.999E+003 -9.999E+003 -9.999E+003 -9.999E+003 -9.999E+003 -9.999E+003 -9.999E+003 -9.999E+003 -9.999E+003 -9.999E+003 -9.999E+003 -9.999E+003 -9.999E+003 -9.999E+003 -9.999E+003 -9.999E+003 -9.999E+003 -9.999E+003 -9.999E+003 -9.999E+003 -9.999E+003 -9.999E+003 -9.999E+003 -9.999E+003 -9.999E+003 -9.999E+003 -9.999E+003 -9.999E+003 -9.999E+003 -9.999E+003 -9.999E+003 -9.999E+003 -9.999E+003 -9.999E+003 -9.999E+003 -9.999E+003 -9.999E+003 -9.999E+003  4.927E-001  7.856E-001  9.627E-001  6.875E-001  3.442E-001  9.072E-005  4.461E-002  1.077E+000  1.349E+000  1.482E+000  1.355E+000  1.171E+000  1.029E+000  9.118E-001  8.381E-001  7.804E-001  4.529E-001  1.452E-001  4.773E-002 -9.999E+003 -9.999E+003 -9.999E+003 -9.999E+003 -9.999E+003 -9.999E+003 -9.999E+003 -9.999E+003  1.099E-004  7.038E-001  1.125E+000  1.350E+000  1.432E+000  1.447E+000  1.363E+000  1.110E+000  6.676E-001 -9.999E+003 -9.999E+003 -9.999E+003 -9.999E+003 -9.999E+003 -9.999E+003 -9.999E+003 -9.999E+003 -9.999E+003 -9.999E+003 -9.999E+003 -9.999E+003 -9.999E+003 -9.999E+003 -9.999E+003 -9.999E+003 -9.999E+003 -9.999E+003 -9.999E+003 -9.999E+003 -9.999E+003 -9.999E+003 -9.999E+003 -9.999E+003 -9.999E+003 -9.999E+003 -9.999E+003 -9.999E+003 -9.999E+003 -9.999E+003 -9.999E+003 -9.999E+003 -9.999E+003 -9.999E+003 -9.999E+003 -9.999E+003 -9.999E+003 -9.999E+003 -9.999E+003 -9.999E+003 -9.999E+003 -9.999E+003 -9.999E+003 -9.999E+003 -9.999E+003 -9.999E+003 -9.999E+003 -9.999E+003 -9.999E+003 -9.999E+003 -9.999E+003 -9.999E+003
 -9.999E+003 -9.999E+003 -9.999E+003 -9.999E+003 -9.999E+003 -9.999E+003 -9.999E+003 -9.999E+003 -9.999E+003 -9.999E+003 -9.999E+003 -9.999E+003 -9.999E+003 -9.999E+003 -9.999E+003 -9.999E+003 -9.999E+003 -9.999E+003 -9.999E+003 -9.999E+003 -9.999E+003 -9.999E+003 -9.999E+003 -9.999E+003 -9.999E+003 -9.999E+003 -9.999E+003 -9.999E+003 -9.999E+003 -9.999E+003 -9.999E+003 -9.999E+003 -9.999E+003 -9.999E+003 -9.999E+003 -9.999E+003 -9.999E+003 -9.999E+003 -9.999E+003 -9.999E+003 -9.999E+003 -9.999E+003 -9.999E+003 -9.999E+003 -9.999E+003 -9.999E+003 -9.999E+003 -9.999E+003 -9.999E+003 -9.999E+003 -9.999E+003 -9.999E+003 -9.999E+003 -9.999E+003 -9.999E+003 -9.999E+003 -9.999E+003 -9.999E+003 -9.999E+003 -9.999E+003 -9.999E+003  1.912E-005  2.920E-001  5.484E-001  7.652E-001  8.061E-001  6.267E-001  3.729E-001  3.057E-002  8.189E-001  9.960E-001  1.100E+000  1.059E+000  9.377E-001  8.505E-001  8.468E-001  8.684E-001  7.416E-001  3.008E-001  7.942E-002  2.697E-002 -9.999E+003 -9.999E+003 -9.999E+003 -9.999E+003 -9.999E+003 -9.999E+003 -9.999E+003 -9.999E+003 -9.999E+003  4.126E-004  1.088E+000  1.507E+000  1.663E+000  1.661E+000  1.492E+000  1.121E+000 -9.999E+003 -9.999E+003 -9.999E+003 -9.999E+003 -9.999E+003 -9.999E+003 -9.999E+003 -9.999E+003 -9.999E+003 -9.999E+003 -9.999E+003 -9.999E+003 -9.999E+003 -9.999E+003 -9.999E+003 -9.999E+003 -9.999E+003 -9.999E+003 -9.999E+003 -9.999E+003 -9.999E+003 -9.999E+003 -9.999E+003 -9.999E+003 -9.999E+003 -9.999E+003 -9.999E+003 -9.999E+003 -9.999E+003 -9.999E+003 -9.999E+003 -9.999E+003 -9.999E+003 -9.999E+003 -9.999E+003 -9.999E+003 -9.999E+003 -9.999E+003 -9.999E+003 -9.999E+003 -9.999E+003 -9.999E+003 -9.999E+003 -9.999E+003 -9.999E+003 -9.999E+003 -9.999E+003 -9.999E+003 -9.999E+003 -9.999E+003 -9.999E+003 -9.999E+003 -9.999E+003
 -9.999E+003 -9.999E+003 -9.999E+003 -9.999E+003 -9.999E+003 -9.999E+003 -9.999E+003 -9.999E+003 -9.999E+003 -9.999E+003 -9.999E+003 -9.999E+003 -9.999E+003 -9.999E+003 -9.999E+003 -9.999E+003 -9.999E+003 -9.999E+003 -9.999E+003 -9.999E+003 -9.999E+003 -9.999E+003 -9.999E+003 -9.999E+003 -9.999E+003 -9.999E+003 -9.999E+003 -9.999E+003 -9.999E+003 -9.999E+003 -9.999E+003 -9.999E+003 -9.999E+003 -9.999E+003 -9.999E+003 -9.999E+003 -9.999E+003 -9.999E+003 -9.999E+003 -9.999E+003 -9.999E+003 -9.999E+003 -9.999E+003 -9.999E+003 -9.999E+003 -9.999E+003 -9.999E+003 -9.999E+003 -9.999E+003 -9.999E+003 -9.999E+003 -9.999E+003 -9.999E+003 -9.999E+003 -9.999E+003 -9.999E+003 -9.999E+003 -9.999E+003 -9.999E+003 -9.999E+003 -9.999E+003 -9.999E+003  6.675E-003  4.710E-001  7.569E-001  9.116E-001  7.274E-001  4.133E-001  2.788E-005  4.769E-001  8.064E-001  1.011E+000  1.045E+000  9.667E-001  8.918E-001  8.937E-001  9.033E-001  5.739E-001  1.664E-001  5.161E-002 -9.999E+003 -9.999E+003 -9.999E+003 -9.999E+003 -9.999E+003 -9.999E+003 -9.999E+003 -9.999E+003 -9.999E+003 -9.999E+003 -9.999E+003  2.206E-001  1.631E+000  1.783E+000  1.772E+000  1.550E+000  1.117E+000  1.419E-003 -9.999E+003 -9.999E+003 -9.999E+003 -9.999E+003 -9.999E+003 -9.999E+003 -9.999E+003 -9.999E+003 -9.999E+003 -9.999E+003 -9.999E+003 -9.999E+003 -9.999E+003 -9.999E+003 -9.999E+003 -9.999E+003 -9.999E+003 -9.999E+003 -9.999E+003 -9.999E+003 -9.999E+003 -9.999E+003 -9.999E+003 -9.999E+003 -9.999E+003 -9.999E+003 -9.999E+003 -9.999E+003 -9.999E+003 -9.999E+003 -9.999E+003 -9.999E+003 -9.999E+003 -9.999E+003 -9.999E+003 -9.999E+003 -9.999E+003 -9.999E+003 -9.999E+003 -9.999E+003 -9.999E+003 -9.999E+003 -9.999E+003 -9.999E+003 -9.999E+003 -9.999E+003 -9.999E+003 -9.999E+003 -9.999E+003 -9.999E+003 -9.999E+003 -9.999E+003
 -9.999E+003 -9.999E+003 -9.999E+003 -9.999E+003 -9.999E+003 -9.999E+003 -9.999E+003 -9.999E+003 -9.999E+003 -9.999E+003 -9.999E+003 -9.999E+003 -9.999E+003 -9.999E+003 -9.999E+003 -9.999E+003 -9.999E+003 -9.999E+003 -9.999E+003 -9.999E+003 -9.999E+003 -9.999E+003 -9.999E+003 -9.999E+003 -9.999E+003 -9.999E+003 -9.999E+003 -9.999E+003 -9.999E+003 -9.999E+003 -9.999E+003 -9.999E+003 -9.999E+003 -9.999E+003 -9.999E+003 -9.999E+003 -9.999E+003 -9.999E+003 -9.999E+003 -9.999E+003 -9.999E+003 -9.999E+003 -9.999E+003 -9.999E+003 -9.999E+003 -9.999E+003 -9.999E+003 -9.999E+003 -9.999E+003 -9.999E+003 -9.999E+003 -9.999E+003 -9.999E+003 -9.999E+003 -9.999E+003 -9.999E+003 -9.999E+003 -9.999E+003 -9.999E+003 -9.999E+003 -9.999E+003 -9.999E+003  7.539E-005  5.371E-001  7.929E-001  9.152E-001  6.999E-001  3.337E-001 -9.999E+003  4.079E-001  7.373E-001  1.001E+000  1.099E+000  1.079E+000  1.010E+000  9.519E-001  7.903E-001  3.765E-001  1.028E-001  3.513E-002 -9.999E+003 -9.999E+003 -9.999E+003 -9.999E+003 -9.999E+003 -9.999E+003 -9.999E+003 -9.999E+003 -9.999E+003 -9.999E+003  1.663E-001  1.351E+000  1.617E+000  1.715E+000  1.658E+000  1.400E+000  9.010E-001 -9.999E+003 -9.999E+003 -9.999E+003 -9.999E+003 -9.999E+003 -9.999E+003 -9.999E+003 -9.999E+003 -9.999E+003 -9.999E+003 -9.999E+003 -9.999E+003 -9.999E+003 -9.999E+003 -9.999E+003 -9.999E+003 -9.999E+003 -9.999E+003 -9.999E+003 -9.999E+003 -9.999E+003 -9.999E+003 -9.999E+003 -9.999E+003 -9.999E+003 -9.999E+003 -9.999E+003 -9.999E+003 -9.999E+003 -9.999E+003 -9.999E+003 -9.999E+003 -9.999E+003 -9.999E+003 -9.999E+003 -9.999E+003 -9.999E+003 -9.999E+003 -9.999E+003 -9.999E+003 -9.999E+003 -9.999E+003 -9.999E+003 -9.999E+003 -9.999E+003 -9.999E+003 -9.999E+003 -9.999E+003 -9.999E+003 -9.999E+003 -9.999E+003 -9.999E+003 -9.999E+003
 -9.999E+003 -9.999E+003 -9.999E+003 -9.999E+003 -9.999E+003 -9.999E+003 -9.999E+003 -9.999E+003 -9.999E+003 -9.999E+003 -9.999E+003 -9.999E+003 -9.999E+003 -9.999E+003 -9.999E+003 -9.999E+003 -9.999E+003 -9.999E+003 -9.999E+003 -9.999E+003 -9.999E+003 -9.999E+003 -9.999E+003 -9.999E+003 -9.999E+003 -9.999E+003 -9.999E+003 -9.999E+003 -9.999E+003 -9.999E+003 -9.999E+003 -9.999E+003 -9.999E+003 -9.999E+003 -9.999E+003 -9.999E+003 -9.999E+003 -9.999E+003 -9.999E+003 -9.999E+003 -9.999E+003 -9.999E+003 -9.999E+003 -9.999E+003 -9.999E+003 -9.999E+003 -9.999E+003 -9.999E+003 -9.999E+003 -9.999E+003 -9.999E+003 -9.999E+003 -9.999E+003 -9.999E+003 -9.999E+003 -9.999E+003 -9.999E+003 -9.999E+003 -9.999E+003 -9.999E+003 -9.999E+003 -9.999E+003 -9.999E+003  5.196E-001  7.549E-001  8.648E-001  7.160E-001  4.451E-001  4.160E-005 -9.999E+003  6.195E-001  9.424E-001  1.146E+000  1.217E+000  1.178E+000  1.032E+000  7.121E-001  2.986E-001  7.469E-002 -9.999E+003 -9.999E+003 -9.999E+003 -9.999E+003 -9.999E+003 -9.999E+003 -9.999E+003 -9.999E+003  5.526E-004  1.881E-001  5.593E-001  1.097E+000  1.367E+000  1.494E+000  1.526E+000  1.414E+000  1.158E+000  7.022E-001  3.179E-004 -9.999E+003 -9.999E+003 -9.999E+003 -9.999E+003 -9.999E+003 -9.999E+003 -9.999E+003 -9.999E+003 -9.999E+003 -9.999E+003 -9.999E+003 -9.999E+003 -9.999E+003 -9.999E+003 -9.999E+003 -9.999E+003 -9.999E+003 -9.999E+003 -9.999E+003 -9.999E+003 -9.999E+003 -9.999E+003 -9.999E+003 -9.999E+003 -9.999E+003 -9.999E+003 -9.999E+003 -9.999E+003 -9.999E+003 -9.999E+003 -9.999E+003 -9.999E+003 -9.999E+003 -9.999E+003 -9.999E+003 -9.999E+003 -9.999E+003 -9.999E+003 -9.999E+003 -9.999E+003 -9.999E+003 -9.999E+003 -9.999E+003 -9.999E+003 -9.999E+003 -9.999E+003 -9.999E+003 -9.999E+003 -9.999E+003 -9.999E+003 -9.999E+003 -9.999E+003
 -9.999E+003 -9.999E+003 -9.999E+003 -9.999E+003 -9.999E+003 -9.999E+003 -9.999E+003 -9.999E+003 -9.999E+003 -9.999E+003 -9.999E+003 -9.999E+003 -9.999E+003 -9.999E+003 -9.999E+003 -9.999E+003 -9.999E+003 -9.999E+003 -9.999E+003 -9.999E+003 -9.999E+003 -9.999E+003 -9.999E+003 -9.999E+003 -9.999E+003 -9.999E+003 -9.999E+003 -9.999E+003 -9.999E+003 -9.999E+003 -9.999E+003 -9.999E+003 -9.999E+003 -9.999E+003 -9.999E+003 -9.999E+003 -9.999E+003 -9.999E+003 -9.999E+003 -9.999E+003 -9.999E+003 -9.999E+003 -9.999E+003 -9.999E+003 -9.999E+003 -9.999E+003 -9.999E+003 -9.999E+003 -9.999E+003 -9.999E+003 -9.999E+003 -9.999E+003 -9.999E+003 -9.999E+003 -9.999E+003 -9.999E+003 -9.999E+003 -9.999E+003 -9.999E+003 -9.999E+003 -9.999E+003 -9.999E+003 -9.999E+003 -9.999E+003  6.383E-001  7.954E-001  8.491E-001  6.314E-001  3.207E-001  9.467E-005  5.014E-001  8.854E-001  1.171E+000  1.308E+000  1.309E+000  1.181E+000  8.700E-001  3.231E-001  6.237E-002 -9.999E+003 -9.999E+003 -9.999E+003 -9.999E+003 -9.999E+003 -9.999E+003 -9.999E+003  2.038E-004  2.080E-001  6.916E-001  1.072E+000  1.273E+000  1.360E+000  1.398E+000  1.416E+000  1.300E+000  1.086E+000  6.334E-001  3.773E-003 -9.999E+003 -9.999E+003 -9.999E+003 -9.999E+003 -9.999E+003 -9.999E+003 -9.999E+003 -9.999E+003 -9.999E+003 -9.999E+003 -9.999E+003 -9.999E+003 -9.999E+003 -9.999E+003 -9.999E+003 -9.999E+003 -9.999E+003 -9.999E+003 -9.999E+003 -9.999E+003 -9.999E+003 -9.999E+003 -9.999E+003 -9.999E+003 -9.999E+003 -9.999E+003 -9.999E+003 -9.999E+003 -9.999E+003 -9.999E+003 -9.999E+003 -9.999E+003 -9.999E+003 -9.999E+003 -9.999E+003 -9.999E+003 -9.999E+003 -9.999E+003 -9.999E+003 -9.999E+003 -9.999E+003 -9.999E+003 -9.999E+003 -9.999E+003 -9.999E+003 -9.999E+003 -9.999E+003 -9.999E+003 -9.999E+003 -9.999E+003 -9.999E+003 -9.999E+003
 -9.999E+003 -9.999E+003 -9.999E+003 -9.999E+003 -9.999E+003 -9.999E+003 -9.999E+003 -9.999E+003 -9.999E+003 -9.999E+003 -9.999E+003 -9.999E+003 -9.999E+003 -9.999E+003 -9.999E+003 -9.999E+003 -9.999E+003 -9.999E+003 -9.999E+003 -9.999E+003 -9.999E+003 -9.999E+003 -9.999E+003 -9.999E+003 -9.999E+003 -9.999E+003 -9.999E+003 -9.999E+003 -9.999E+003 -9.999E+003 -9.999E+003 -9.999E+003 -9.999E+003 -9.999E+003 -9.999E+003 -9.999E+003 -9.999E+003 -9.999E+003 -9.999E+003 -9.999E+003 -9.999E+003 -9.999E+003 -9.999E+003 -9.999E+003 -9.999E+003 -9.999E+003 -9.999E+003 -9.999E+003 -9.999E+003 -9.999E+003 -9.999E+003 -9.999E+003 -9.999E+003 -9.999E+003 -9.999E+003 -9.999E+003 -9.999E+003 -9.999E+003 -9.999E+003 -9.999E+003 -9.999E+003 -9.999E+003 -9.999E+003  2.581E-005  4.399E-001  7.510E-001  9.294E-001  6.826E-001  2.626E-001 -9.999E+003  4.586E-001  8.531E-001  1.174E+000  1.337E+000  1.343E+000  1.276E+000  1.094E+000  3.898E-001  7.237E-002  2.495E-002 -9.999E+003 -9.999E+003 -9.999E+003 -9.999E+003 -9.999E+003 -9.999E+003 -9.999E+003  6.550E-001  1.091E+000  1.338E+000  1.432E+000  1.415E+000  1.426E+000  1.404E+000  1.304E+000  1.124E+000  6.960E-001  2.047E-002 -9.999E+003 -9.999E+003 -9.999E+003 -9.999E+003 -9.999E+003 -9.999E+003 -9.999E+003 -9.999E+003 -9.999E+003 -9.999E+003 -9.999E+003 -9.999E+003 -9.999E+003 -9.999E+003 -9.999E+003 -9.999E+003 -9.999E+003 -9.999E+003 -9.999E+003 -9.999E+003 -9.999E+003 -9.999E+003 -9.999E+003 -9.999E+003 -9.999E+003 -9.999E+003 -9.999E+003 -9.999E+003 -9.999E+003 -9.999E+003 -9.999E+003 -9.999E+003 -9.999E+003 -9.999E+003 -9.999E+003 -9.999E+003 -9.999E+003 -9.999E+003 -9.999E+003 -9.999E+003 -9.999E+003 -9.999E+003 -9.999E+003 -9.999E+003 -9.999E+003 -9.999E+003 -9.999E+003 -9.999E+003 -9.999E+003 -9.999E+003 -9.999E+003 -9.999E+003
 -9.999E+003 -9.999E+003 -9.999E+003 -9.999E+003 -9.999E+003 -9.999E+003 -9.999E+003 -9.999E+003 -9.999E+003 -9.999E+003 -9.999E+003 -9.999E+003 -9.999E+003 -9.999E+003 -9.999E+003 -9.999E+003 -9.999E+003 -9.999E+003 -9.999E+003 -9.999E+003 -9.999E+003 -9.999E+003 -9.999E+003 -9.999E+003 -9.999E+003 -9.999E+003 -9.999E+003 -9.999E+003 -9.999E+003 -9.999E+003 -9.999E+003 -9.999E+003 -9.999E+003 -9.999E+003 -9.999E+003 -9.999E+003 -9.999E+003 -9.999E+003 -9.999E+003 -9.999E+003 -9.999E+003 -9.999E+003 -9.999E+003 -9.999E+003 -9.999E+003 -9.999E+003 -9.999E+003 -9.999E+003 -9.999E+003 -9.999E+003 -9.999E+003 -9.999E+003 -9.999E+003 -9.999E+003 -9.999E+003 -9.999E+003 -9.999E+003 -9.999E+003 -9.999E+003 -9.999E+003 -9.999E+003 -9.999E+003 -9.999E+003 -9.999E+003  4.086E-001  7.033E-001  8.828E-001  6.784E-001  2.866E-001 -9.999E+003  5.094E-001  9.184E-001  1.214E+000  1.376E+000  1.377E+000  1.284E+000  1.166E+000  5.693E-001  1.205E-001  3.947E-002 -9.999E+003 -9.999E+003 -9.999E+003 -9.999E+003 -9.999E+003 -9.999E+003 -9.999E+003 -9.999E+003  1.260E+000  1.550E+000  1.676E+000  1.721E+000  1.679E+000  1.580E+000  1.442E+000  1.256E+000  1.527E-001  2.565E-004 -9.999E+003 -9.999E+003 -9.999E+003 -9.999E+003 -9.999E+003 -9.999E+003 -9.999E+003 -9.999E+003 -9.999E+003 -9.999E+003 -9.999E+003 -9.999E+003 -9.999E+003 -9.999E+003 -9.999E+003 -9.999E+003 -9.999E+003 -9.999E+003 -9.999E+003 -9.999E+003 -9.999E+003 -9.999E+003 -9.999E+003 -9.999E+003 -9.999E+003 -9.999E+003 -9.999E+003 -9.999E+003 -9.999E+003 -9.999E+003 -9.999E+003 -9.999E+003 -9.999E+003 -9.999E+003 -9.999E+003 -9.999E+003 -9.999E+003 -9.999E+003 -9.999E+003 -9.999E+003 -9.999E+003 -9.999E+003 -9.999E+003 -9.999E+003 -9.999E+003 -9.999E+003 -9.999E+003 -9.999E+003 -9.999E+003 -9.999E+003 -9.999E+003 -9.999E+003
 -9.999E+003 -9.999E+003 -9.999E+003 -9.999E+003 -9.999E+003 -9.999E+003 -9.999E+003 -9.999E+003 -9.999E+003 -9.999E+003 -9.999E+003 -9.999E+003 -9.999E+003 -9.999E+003 -9.999E+003 -9.999E+003 -9.999E+003 -9.999E+003 -9.999E+003 -9.999E+003 -9.999E+003 -9.999E+003 -9.999E+003 -9.999E+003 -9.999E+003 -9.999E+003 -9.999E+003 -9.999E+003 -9.999E+003 -9.999E+003 -9.999E+003 -9.999E+003 -9.999E+003 -9.999E+003 -9.999E+003 -9.999E+003 -9.999E+003 -9.999E+003 -9.999E+003 -9.999E+003 -9.999E+003 -9.999E+003 -9.999E+003 -9.999E+003 -9.999E+003 -9.999E+003 -9.999E+003 -9.999E+003 -9.999E+003 -9.999E+003 -9.999E+003 -9.999E+003 -9.999E+003 -9.999E+003 -9.999E+003 -9.999E+003 -9.999E+003 -9.999E+003 -9.999E+003 -9.999E+003 -9.999E+003 -9.999E+003 -9.999E+003  3.663E-005  3.688E-001  6.399E-001  8.112E-001  7.377E-001  4.640E-001  1.131E-002  7.054E-001  1.077E+000  1.276E+000  1.410E+000  1.407E+000  1.300E+000  1.097E+000  6.296E-001  2.234E-001  8.546E-002 -9.999E+003 -9.999E+003 -9.999E+003 -9.999E+003 -9.999E+003 -9.999E+003 -9.999E+003 -9.999E+003 -9.999E+003  1.766E+000  2.024E+000  2.077E+000  2.036E+000  1.852E+000  1.549E+000  8.154E-002  5.097E-004 -9.999E+003 -9.999E+003 -9.999E+003 -9.999E+003 -9.999E+003 -9.999E+003 -9.999E+003 -9.999E+003 -9.999E+003 -9.999E+003 -9.999E+003 -9.999E+003 -9.999E+003 -9.999E+003 -9.999E+003 -9.999E+003 -9.999E+003 -9.999E+003 -9.999E+003 -9.999E+003 -9.999E+003 -9.999E+003 -9.999E+003 -9.999E+003 -9.999E+003 -9.999E+003 -9.999E+003 -9.999E+003 -9.999E+003 -9.999E+003 -9.999E+003 -9.999E+003 -9.999E+003 -9.999E+003 -9.999E+003 -9.999E+003 -9.999E+003 -9.999E+003 -9.999E+003 -9.999E+003 -9.999E+003 -9.999E+003 -9.999E+003 -9.999E+003 -9.999E+003 -9.999E+003 -9.999E+003 -9.999E+003 -9.999E+003 -9.999E+003 -9.999E+003 -9.999E+003 -9.999E+003
 -9.999E+003 -9.999E+003 -9.999E+003 -9.999E+003 -9.999E+003 -9.999E+003 -9.999E+003 -9.999E+003 -9.999E+003 -9.999E+003 -9.999E+003 -9.999E+003 -9.999E+003 -9.999E+003 -9.999E+003 -9.999E+003 -9.999E+003 -9.999E+003 -9.999E+003 -9.999E+003 -9.999E+003 -9.999E+003 -9.999E+003 -9.999E+003 -9.999E+003 -9.999E+003 -9.999E+003 -9.999E+003 -9.999E+003 -9.999E+003 -9.999E+003 -9.999E+003 -9.999E+003 -9.999E+003 -9.999E+003 -9.999E+003 -9.999E+003 -9.999E+003 -9.999E+003 -9.999E+003 -9.999E+003 -9.999E+003 -9.999E+003 -9.999E+003 -9.999E+003 -9.999E+003 -9.999E+003 -9.999E+003 -9.999E+003 -9.999E+003 -9.999E+003 -9.999E+003 -9.999E+003 -9.999E+003 -9.999E+003 -9.999E+003 -9.999E+003 -9.999E+003 -9.999E+003 -9.999E+003 -9.999E+003 -9.999E+003 -9.999E+003 -9.999E+003  2.809E-004  4.738E-001  6.917E-001  8.124E-001  7.612E-001  7.221E-001  1.177E+000  1.215E+000  1.269E+000  1.337E+000  1.355E+000  1.285E+000  1.058E+000  7.145E-001  4.000E-001  1.505E-001  5.058E-002 -9.999E+003 -9.999E+003 -9.999E+003 -9.999E+003 -9.999E+003 -9.999E+003 -9.999E+003  2.760E-001  1.835E+000  2.382E+000  2.430E+000  2.326E+000  1.943E+000  3.670E-001  2.057E-005 -9.999E+003 -9.999E+003 -9.999E+003 -9.999E+003 -9.999E+003 -9.999E+003 -9.999E+003 -9.999E+003 -9.999E+003 -9.999E+003 -9.999E+003 -9.999E+003 -9.999E+003 -9.999E+003 -9.999E+003 -9.999E+003 -9.999E+003 -9.999E+003 -9.999E+003 -9.999E+003 -9.999E+003 -9.999E+003 -9.999E+003 -9.999E+003 -9.999E+003 -9.999E+003 -9.999E+003 -9.999E+003 -9.999E+003 -9.999E+003 -9.999E+003 -9.999E+003 -9.999E+003 -9.999E+003 -9.999E+003 -9.999E+003 -9.999E+003 -9.999E+003 -9.999E+003 -9.999E+003 -9.999E+003 -9.999E+003 -9.999E+003 -9.999E+003 -9.999E+003 -9.999E+003 -9.999E+003 -9.999E+003 -9.999E+003 -9.999E+003 -9.999E+003 -9.999E+003 -9.999E+003 -9.999E+003
 -9.999E+003 -9.999E+003 -9.999E+003 -9.999E+003 -9.999E+003 -9.999E+003 -9.999E+003 -9.999E+003 -9.999E+003 -9.999E+003 -9.999E+003 -9.999E+003 -9.999E+003 -9.999E+003 -9.999E+003 -9.999E+003 -9.999E+003 -9.999E+003 -9.999E+003 -9.999E+003 -9.999E+003 -9.999E+003 -9.999E+003 -9.999E+003 -9.999E+003 -9.999E+003 -9.999E+003 -9.999E+003 -9.999E+003 -9.999E+003 -9.999E+003 -9.999E+003 -9.999E+003 -9.999E+003 -9.999E+003 -9.999E+003 -9.999E+003 -9.999E+003 -9.999E+003 -9.999E+003 -9.999E+003 -9.999E+003 -9.999E+003 -9.999E+003 -9.999E+003 -9.999E+003 -9.999E+003 -9.999E+003 -9.999E+003 -9.999E+003 -9.999E+003 -9.999E+003 -9.999E+003 -9.999E+003 -9.999E+003 -9.999E+003 -9.999E+003 -9.999E+003 -9.999E+003 -9.999E+003 -9.999E+003 -9.999E+003 -9.999E+003 -9.999E+003 -9.999E+003  1.163E-004  5.775E-001  8.674E-001  1.035E+000  1.169E+000  1.205E+000  1.187E+000  1.173E+000  1.226E+000  1.293E+000  1.292E+000  1.187E+000  9.600E-001  5.595E-001  1.822E-001  4.770E-002 -9.999E+003 -9.999E+003 -9.999E+003 -9.999E+003 -9.999E+003 -9.999E+003 -9.999E+003  9.638E-001  1.952E+000  2.560E+000  2.648E+000  2.423E+000  1.493E+000  4.511E-001 -9.999E+003 -9.999E+003 -9.999E+003 -9.999E+003 -9.999E+003 -9.999E+003 -9.999E+003 -9.999E+003 -9.999E+003 -9.999E+003 -9.999E+003 -9.999E+003 -9.999E+003 -9.999E+003 -9.999E+003 -9.999E+003 -9.999E+003 -9.999E+003 -9.999E+003 -9.999E+003 -9.999E+003 -9.999E+003 -9.999E+003 -9.999E+003 -9.999E+003 -9.999E+003 -9.999E+003 -9.999E+003 -9.999E+003 -9.999E+003 -9.999E+003 -9.999E+003 -9.999E+003 -9.999E+003 -9.999E+003 -9.999E+003 -9.999E+003 -9.999E+003 -9.999E+003 -9.999E+003 -9.999E+003 -9.999E+003 -9.999E+003 -9.999E+003 -9.999E+003 -9.999E+003 -9.999E+003 -9.999E+003 -9.999E+003 -9.999E+003 -9.999E+003 -9.999E+003 -9.999E+003 -9.999E+003 -9.999E+003
 -9.999E+003 -9.999E+003 -9.999E+003 -9.999E+003 -9.999E+003 -9.999E+003 -9.999E+003 -9.999E+003 -9.999E+003 -9.999E+003 -9.999E+003 -9.999E+003 -9.999E+003 -9.999E+003 -9.999E+003 -9.999E+003 -9.999E+003 -9.999E+003 -9.999E+003 -9.999E+003 -9.999E+003 -9.999E+003 -9.999E+003 -9.999E+003 -9.999E+003 -9.999E+003 -9.999E+003 -9.999E+003 -9.999E+003 -9.999E+003 -9.999E+003 -9.999E+003 -9.999E+003 -9.999E+003 -9.999E+003 -9.999E+003 -9.999E+003 -9.999E+003 -9.999E+003 -9.999E+003 -9.999E+003 -9.999E+003 -9.999E+003 -9.999E+003 -9.999E+003 -9.999E+003 -9.999E+003 -9.999E+003 -9.999E+003 -9.999E+003 -9.999E+003 -9.999E+003 -9.999E+003 -9.999E+003 -9.999E+003 -9.999E+003 -9.999E+003 -9.999E+003 -9.999E+003 -9.999E+003 -9.999E+003 -9.999E+003 -9.999E+003 -9.999E+003 -9.999E+003 -9.999E+003  5.110E-001  8.973E-001  1.140E+000  1.159E+000  1.034E+000  1.025E+000  1.091E+000  1.203E+000  1.291E+000  1.342E+000  1.342E+000  1.219E+000  5.702E-001  1.229E-001  3.851E-002 -9.999E+003 -9.999E+003 -9.999E+003 -9.999E+003 -9.999E+003 -9.999E+003  2.156E-004  6.364E-001  1.825E+000  2.279E+000  2.347E+000  1.760E+000  6.875E-001  1.910E-004 -9.999E+003 -9.999E+003 -9.999E+003 -9.999E+003 -9.999E+003 -9.999E+003 -9.999E+003 -9.999E+003 -9.999E+003 -9.999E+003 -9.999E+003 -9.999E+003 -9.999E+003 -9.999E+003 -9.999E+003 -9.999E+003 -9.999E+003 -9.999E+003 -9.999E+003 -9.999E+003 -9.999E+003 -9.999E+003 -9.999E+003 -9.999E+003 -9.999E+003 -9.999E+003 -9.999E+003 -9.999E+003 -9.999E+003 -9.999E+003 -9.999E+003 -9.999E+003 -9.999E+003 -9.999E+003 -9.999E+003 -9.999E+003 -9.999E+003 -9.999E+003 -9.999E+003 -9.999E+003 -9.999E+003 -9.999E+003 -9.999E+003 -9.999E+003 -9.999E+003 -9.999E+003 -9.999E+003 -9.999E+003 -9.999E+003 -9.999E+003 -9.999E+003 -9.999E+003 -9.999E+003 -9.999E+003 -9.999E+003
 -9.999E+003 -9.999E+003 -9.999E+003 -9.999E+003 -9.999E+003 -9.999E+003 -9.999E+003 -9.999E+003 -9.999E+003 -9.999E+003 -9.999E+003 -9.999E+003 -9.999E+003 -9.999E+003 -9.999E+003 -9.999E+003 -9.999E+003 -9.999E+003 -9.999E+003 -9.999E+003 -9.999E+003 -9.999E+003 -9.999E+003 -9.999E+003 -9.999E+003 -9.999E+003 -9.999E+003 -9.999E+003 -9.999E+003 -9.999E+003 -9.999E+003 -9.999E+003 -9.999E+003 -9.999E+003 -9.999E+003 -9.999E+003 -9.999E+003 -9.999E+003 -9.999E+003 -9.999E+003 -9.999E+003 -9.999E+003 -9.999E+003 -9.999E+003 -9.999E+003 -9.999E+003 -9.999E+003 -9.999E+003 -9.999E+003 -9.999E+003 -9.999E+003 -9.999E+003 -9.999E+003 -9.999E+003 -9.999E+003 -9.999E+003 -9.999E+003 -9.999E+003 -9.999E+003 -9.999E+003 -9.999E+003 -9.999E+003 -9.999E+003 -9.999E+003 -9.999E+003 -9.999E+003  5.857E-001  9.062E-001  1.061E+000  9.106E-001  7.508E-001  8.894E-001  1.172E+000  1.369E+000  1.389E+000  1.367E+000  1.403E+000  1.345E+000  5.360E-001  9.082E-002  2.973E-002 -9.999E+003 -9.999E+003 -9.999E+003 -9.999E+003 -9.999E+003  2.393E-005 -9.999E+003  1.187E+000  1.650E+000  1.828E+000  1.789E+000  1.133E+000  9.612E-003 -9.999E+003 -9.999E+003 -9.999E+003 -9.999E+003 -9.999E+003 -9.999E+003 -9.999E+003 -9.999E+003 -9.999E+003 -9.999E+003 -9.999E+003 -9.999E+003 -9.999E+003 -9.999E+003 -9.999E+003 -9.999E+003 -9.999E+003 -9.999E+003 -9.999E+003 -9.999E+003 -9.999E+003 -9.999E+003 -9.999E+003 -9.999E+003 -9.999E+003 -9.999E+003 -9.999E+003 -9.999E+003 -9.999E+003 -9.999E+003 -9.999E+003 -9.999E+003 -9.999E+003 -9.999E+003 -9.999E+003 -9.999E+003 -9.999E+003 -9.999E+003 -9.999E+003 -9.999E+003 -9.999E+003 -9.999E+003 -9.999E+003 -9.999E+003 -9.999E+003 -9.999E+003 -9.999E+003 -9.999E+003 -9.999E+003 -9.999E+003 -9.999E+003 -9.999E+003 -9.999E+003 -9.999E+003 -9.999E+003 -9.999E+003
 -9.999E+003 -9.999E+003 -9.999E+003 -9.999E+003 -9.999E+003 -9.999E+003 -9.999E+003 -9.999E+003 -9.999E+003 -9.999E+003 -9.999E+003 -9.999E+003 -9.999E+003 -9.999E+003 -9.999E+003 -9.999E+003 -9.999E+003 -9.999E+003 -9.999E+003 -9.999E+003 -9.999E+003 -9.999E+003 -9.999E+003 -9.999E+003 -9.999E+003 -9.999E+003 -9.999E+003 -9.999E+003 -9.999E+003 -9.999E+003 -9.999E+003 -9.999E+003 -9.999E+003 -9.999E+003 -9.999E+003 -9.999E+003 -9.999E+003 -9.999E+003 -9.999E+003 -9.999E+003 -9.999E+003 -9.999E+003 -9.999E+003 -9.999E+003 -9.999E+003 -9.999E+003 -9.999E+003 -9.999E+003 -9.999E+003 -9.999E+003 -9.999E+003 -9.999E+003 -9.999E+003 -9.999E+003 -9.999E+003 -9.999E+003 -9.999E+003 -9.999E+003 -9.999E+003 -9.999E+003 -9.999E+003 -9.999E+003 -9.999E+003 -9.999E+003 -9.999E+003 -9.999E+003  6.565E-001  8.400E-001  9.094E-001  7.305E-001  6.516E-001  8.242E-001  1.194E+000  1.485E+000  1.447E+000  1.289E+000  1.276E+000  1.263E+000  4.586E-001  8.449E-002  2.827E-002 -9.999E+003 -9.999E+003 -9.999E+003 -9.999E+003  2.703E-005  2.592E-001  6.365E-001  1.104E+000  1.426E+000  1.408E+000  1.317E+000  3.123E-003 -9.999E+003 -9.999E+003 -9.999E+003 -9.999E+003 -9.999E+003 -9.999E+003 -9.999E+003 -9.999E+003 -9.999E+003 -9.999E+003 -9.999E+003 -9.999E+003 -9.999E+003 -9.999E+003 -9.999E+003 -9.999E+003 -9.999E+003 -9.999E+003 -9.999E+003 -9.999E+003 -9.999E+003 -9.999E+003 -9.999E+003 -9.999E+003 -9.999E+003 -9.999E+003 -9.999E+003 -9.999E+003 -9.999E+003 -9.999E+003 -9.999E+003 -9.999E+003 -9.999E+003 -9.999E+003 -9.999E+003 -9.999E+003 -9.999E+003 -9.999E+003 -9.999E+003 -9.999E+003 -9.999E+003 -9.999E+003 -9.999E+003 -9.999E+003 -9.999E+003 -9.999E+003 -9.999E+003 -9.999E+003 -9.999E+003 -9.999E+003 -9.999E+003 -9.999E+003 -9.999E+003 -9.999E+003 -9.999E+003 -9.999E+003 -9.999E+003
 -9.999E+003 -9.999E+003 -9.999E+003 -9.999E+003 -9.999E+003 -9.999E+003 -9.999E+003 -9.999E+003 -9.999E+003 -9.999E+003 -9.999E+003 -9.999E+003 -9.999E+003 -9.999E+003 -9.999E+003 -9.999E+003 -9.999E+003 -9.999E+003 -9.999E+003 -9.999E+003 -9.999E+003 -9.999E+003 -9.999E+003 -9.999E+003 -9.999E+003 -9.999E+003 -9.999E+003 -9.999E+003 -9.999E+003 -9.999E+003 -9.999E+003 -9.999E+003 -9.999E+003 -9.999E+003 -9.999E+003 -9.999E+003 -9.999E+003 -9.999E+003 -9.999E+003 -9.999E+003 -9.999E+003 -9.999E+003 -9.999E+003 -9.999E+003 -9.999E+003 -9.999E+003 -9.999E+003 -9.999E+003 -9.999E+003 -9.999E+003 -9.999E+003 -9.999E+003 -9.999E+003 -9.999E+003 -9.999E+003 -9.999E+003 -9.999E+003 -9.999E+003 -9.999E+003 -9.999E+003 -9.999E+003 -9.999E+003 -9.999E+003 -9.999E+003 -9.999E+003  4.981E-005  5.643E-001  7.572E-001  8.396E-001  7.308E-001  6.613E-001  7.368E-001  1.007E+000  1.367E+000  1.396E+000  1.178E+000  1.078E+000  9.008E-001  3.516E-001  8.923E-002  3.037E-002 -9.999E+003 -9.999E+003 -9.999E+003 -9.999E+003  7.881E-002  2.594E-001  5.368E-001  8.696E-001  1.055E+000  9.395E-001  1.077E-001  2.339E-003 -9.999E+003 -9.999E+003 -9.999E+003 -9.999E+003 -9.999E+003 -9.999E+003 -9.999E+003 -9.999E+003 -9.999E+003 -9.999E+003 -9.999E+003 -9.999E+003 -9.999E+003 -9.999E+003 -9.999E+003 -9.999E+003 -9.999E+003 -9.999E+003 -9.999E+003 -9.999E+003 -9.999E+003 -9.999E+003 -9.999E+003 -9.999E+003 -9.999E+003 -9.999E+003 -9.999E+003 -9.999E+003 -9.999E+003 -9.999E+003 -9.999E+003 -9.999E+003 -9.999E+003 -9.999E+003 -9.999E+003 -9.999E+003 -9.999E+003 -9.999E+003 -9.999E+003 -9.999E+003 -9.999E+003 -9.999E+003 -9.999E+003 -9.999E+003 -9.999E+003 -9.999E+003 -9.999E+003 -9.999E+003 -9.999E+003 -9.999E+003 -9.999E+003 -9.999E+003 -9.999E+003 -9.999E+003 -9.999E+003 -9.999E+003 -9.999E+003
 -9.999E+003 -9.999E+003 -9.999E+003 -9.999E+003 -9.999E+003 -9.999E+003 -9.999E+003 -9.999E+003 -9.999E+003 -9.999E+003 -9.999E+003 -9.999E+003 -9.999E+003 -9.999E+003 -9.999E+003 -9.999E+003 -9.999E+003 -9.999E+003 -9.999E+003 -9.999E+003 -9.999E+003 -9.999E+003 -9.999E+003 -9.999E+003 -9.999E+003 -9.999E+003 -9.999E+003 -9.999E+003 -9.999E+003 -9.999E+003 -9.999E+003 -9.999E+003 -9.999E+003 -9.999E+003 -9.999E+003 -9.999E+003 -9.999E+003 -9.999E+003 -9.999E+003 -9.999E+003 -9.999E+003 -9.999E+003 -9.999E+003 -9.999E+003 -9.999E+003 -9.999E+003 -9.999E+003 -9.999E+003 -9.999E+003 -9.999E+003 -9.999E+003 -9.999E+003 -9.999E+003 -9.999E+003 -9.999E+003 -9.999E+003 -9.999E+003 -9.999E+003 -9.999E+003 -9.999E+003 -9.999E+003 -9.999E+003 -9.999E+003 -9.999E+003 -9.999E+003 -9.999E+003  3.757E-001  6.532E-001  8.045E-001  7.105E-001  5.899E-001  5.615E-001  6.295E-001  8.478E-001  1.033E+000  1.029E+000  9.336E-001  7.904E-001  4.389E-001  1.429E-001  7.090E-002  4.099E-002  3.346E-002  3.325E-002  6.620E-002  1.504E-001  2.552E-001  3.564E-001  5.039E-001  5.583E-001  4.879E-001  3.180E-001  7.800E-003 -9.999E+003 -9.999E+003 -9.999E+003 -9.999E+003 -9.999E+003 -9.999E+003 -9.999E+003 -9.999E+003 -9.999E+003 -9.999E+003 -9.999E+003 -9.999E+003 -9.999E+003 -9.999E+003 -9.999E+003 -9.999E+003 -9.999E+003 -9.999E+003 -9.999E+003 -9.999E+003 -9.999E+003 -9.999E+003 -9.999E+003 -9.999E+003 -9.999E+003 -9.999E+003 -9.999E+003 -9.999E+003 -9.999E+003 -9.999E+003 -9.999E+003 -9.999E+003 -9.999E+003 -9.999E+003 -9.999E+003 -9.999E+003 -9.999E+003 -9.999E+003 -9.999E+003 -9.999E+003 -9.999E+003 -9.999E+003 -9.999E+003 -9.999E+003 -9.999E+003 -9.999E+003 -9.999E+003 -9.999E+003 -9.999E+003 -9.999E+003 -9.999E+003 -9.999E+003 -9.999E+003 -9.999E+003 -9.999E+003 -9.999E+003 -9.999E+003
 -9.999E+003 -9.999E+003 -9.999E+003 -9.999E+003 -9.999E+003 -9.999E+003 -9.999E+003 -9.999E+003 -9.999E+003 -9.999E+003 -9.999E+003 -9.999E+003 -9.999E+003 -9.999E+003 -9.999E+003 -9.999E+003 -9.999E+003 -9.999E+003 -9.999E+003 -9.999E+003 -9.999E+003 -9.999E+003 -9.999E+003 -9.999E+003 -9.999E+003 -9.999E+003 -9.999E+003 -9.999E+003 -9.999E+003 -9.999E+003 -9.999E+003 -9.999E+003 -9.999E+003 -9.999E+003 -9.999E+003 -9.999E+003 -9.999E+003 -9.999E+003 -9.999E+003 -9.999E+003 -9.999E+003 -9.999E+003 -9.999E+003 -9.999E+003 -9.999E+003 -9.999E+003 -9.999E+003 -9.999E+003 -9.999E+003 -9.999E+003 -9.999E+003 -9.999E+003 -9.999E+003 -9.999E+003 -9.999E+003 -9.999E+003 -9.999E+003 -9.999E+003 -9.999E+003 -9.999E+003 -9.999E+003 -9.999E+003 -9.999E+003 -9.999E+003 -9.999E+003  2.093E-005  2.747E-001  4.987E-001  6.527E-001  6.144E-001  5.105E-001  4.810E-001  4.711E-001  5.821E-001  8.400E-001  1.003E+000  9.188E-001  9.001E-001  7.732E-001  3.992E-001  2.017E-001  1.241E-001  9.885E-002  9.826E-002  1.591E-001  2.529E-001  2.647E-001  2.617E-001  2.412E-001  2.377E-001  2.353E-001  1.906E-001  2.069E-002 -9.999E+003 -9.999E+003 -9.999E+003 -9.999E+003 -9.999E+003 -9.999E+003 -9.999E+003 -9.999E+003 -9.999E+003 -9.999E+003 -9.999E+003 -9.999E+003 -9.999E+003 -9.999E+003 -9.999E+003 -9.999E+003 -9.999E+003 -9.999E+003 -9.999E+003 -9.999E+003 -9.999E+003 -9.999E+003 -9.999E+003 -9.999E+003 -9.999E+003 -9.999E+003 -9.999E+003 -9.999E+003 -9.999E+003 -9.999E+003 -9.999E+003 -9.999E+003 -9.999E+003 -9.999E+003 -9.999E+003 -9.999E+003 -9.999E+003 -9.999E+003 -9.999E+003 -9.999E+003 -9.999E+003 -9.999E+003 -9.999E+003 -9.999E+003 -9.999E+003 -9.999E+003 -9.999E+003 -9.999E+003 -9.999E+003 -9.999E+003 -9.999E+003 -9.999E+003 -9.999E+003 -9.999E+003 -9.999E+003 -9.999E+003 -9.999E+003
 -9.999E+003 -9.999E+003 -9.999E+003 -9.999E+003 -9.999E+003 -9.999E+003 -9.999E+003 -9.999E+003 -9.999E+003 -9.999E+003 -9.999E+003 -9.999E+003 -9.999E+003 -9.999E+003 -9.999E+003 -9.999E+003 -9.999E+003 -9.999E+003 -9.999E+003 -9.999E+003 -9.999E+003 -9.999E+003 -9.999E+003 -9.999E+003 -9.999E+003 -9.999E+003 -9.999E+003 -9.999E+003 -9.999E+003 -9.999E+003 -9.999E+003 -9.999E+003 -9.999E+003 -9.999E+003 -9.999E+003 -9.999E+003 -9.999E+003 -9.999E+003 -9.999E+003 -9.999E+003 -9.999E+003 -9.999E+003 -9.999E+003 -9.999E+003 -9.999E+003 -9.999E+003 -9.999E+003 -9.999E+003 -9.999E+003 -9.999E+003 -9.999E+003 -9.999E+003 -9.999E+003 -9.999E+003 -9.999E+003 -9.999E+003 -9.999E+003 -9.999E+003 -9.999E+003 -9.999E+003 -9.999E+003 -9.999E+003 -9.999E+003 -9.999E+003 -9.999E+003 -9.999E+003  1.200E-004  2.771E-001  4.581E-001  5.842E-001  6.504E-001  6.491E-001  7.273E-001  8.597E-001  1.030E+000  1.142E+000  1.140E+000  1.149E+000  9.929E-001  7.756E-001  5.887E-001  4.276E-001  3.575E-001  3.569E-001  3.434E-001  3.248E-001  3.196E-001  2.923E-001  2.246E-001  2.024E-001  1.783E-001  1.294E-001  6.860E-002 -9.999E+003 -9.999E+003 -9.999E+003 -9.999E+003 -9.999E+003 -9.999E+003 -9.999E+003 -9.999E+003 -9.999E+003 -9.999E+003 -9.999E+003 -9.999E+003 -9.999E+003 -9.999E+003 -9.999E+003 -9.999E+003 -9.999E+003 -9.999E+003 -9.999E+003 -9.999E+003 -9.999E+003 -9.999E+003 -9.999E+003 -9.999E+003 -9.999E+003 -9.999E+003 -9.999E+003 -9.999E+003 -9.999E+003 -9.999E+003 -9.999E+003 -9.999E+003 -9.999E+003 -9.999E+003 -9.999E+003 -9.999E+003 -9.999E+003 -9.999E+003 -9.999E+003 -9.999E+003 -9.999E+003 -9.999E+003 -9.999E+003 -9.999E+003 -9.999E+003 -9.999E+003 -9.999E+003 -9.999E+003 -9.999E+003 -9.999E+003 -9.999E+003 -9.999E+003 -9.999E+003 -9.999E+003 -9.999E+003 -9.999E+003 -9.999E+003
 -9.999E+003 -9.999E+003 -9.999E+003 -9.999E+003 -9.999E+003 -9.999E+003 -9.999E+003 -9.999E+003 -9.999E+003 -9.999E+003 -9.999E+003 -9.999E+003 -9.999E+003 -9.999E+003 -9.999E+003 -9.999E+003 -9.999E+003 -9.999E+003 -9.999E+003 -9.999E+003 -9.999E+003 -9.999E+003 -9.999E+003 -9.999E+003 -9.999E+003 -9.999E+003 -9.999E+003 -9.999E+003 -9.999E+003 -9.999E+003 -9.999E+003 -9.999E+003 -9.999E+003 -9.999E+003 -9.999E+003 -9.999E+003 -9.999E+003 -9.999E+003 -9.999E+003 -9.999E+003 -9.999E+003 -9.999E+003 -9.999E+003 -9.999E+003 -9.999E+003 -9.999E+003 -9.999E+003 -9.999E+003 -9.999E+003 -9.999E+003 -9.999E+003 -9.999E+003 -9.999E+003 -9.999E+003 -9.999E+003 -9.999E+003 -9.999E+003 -9.999E+003 -9.999E+003 -9.999E+003 -9.999E+003 -9.999E+003 -9.999E+003 -9.999E+003 -9.999E+003 -9.999E+003 -9.999E+003  1.272E-004  2.699E-001  6.127E-001  9.054E-001  1.087E+000  1.138E+000  1.218E+000  1.287E+000  1.346E+000  1.380E+000  1.315E+000  1.110E+000  9.715E-001  9.004E-001  8.280E-001  7.874E-001  8.137E-001  6.417E-001  5.089E-001  4.793E-001  4.053E-001  3.211E-001  2.905E-001  2.189E-001  1.054E-001  3.640E-002 -9.999E+003 -9.999E+003 -9.999E+003 -9.999E+003 -9.999E+003 -9.999E+003 -9.999E+003 -9.999E+003 -9.999E+003 -9.999E+003 -9.999E+003 -9.999E+003 -9.999E+003 -9.999E+003 -9.999E+003 -9.999E+003 -9.999E+003 -9.999E+003 -9.999E+003 -9.999E+003 -9.999E+003 -9.999E+003 -9.999E+003 -9.999E+003 -9.999E+003 -9.999E+003 -9.999E+003 -9.999E+003 -9.999E+003 -9.999E+003 -9.999E+003 -9.999E+003 -9.999E+003 -9.999E+003 -9.999E+003 -9.999E+003 -9.999E+003 -9.999E+003 -9.999E+003 -9.999E+003 -9.999E+003 -9.999E+003 -9.999E+003 -9.999E+003 -9.999E+003 -9.999E+003 -9.999E+003 -9.999E+003 -9.999E+003 -9.999E+003 -9.999E+003 -9.999E+003 -9.999E+003 -9.999E+003 -9.999E+003 -9.999E+003 -9.999E+003
 -9.999E+003 -9.999E+003 -9.999E+003 -9.999E+003 -9.999E+003 -9.999E+003 -9.999E+003 -9.999E+003 -9.999E+003 -9.999E+003 -9.999E+003 -9.999E+003 -9.999E+003 -9.999E+003 -9.999E+003 -9.999E+003 -9.999E+003 -9.999E+003 -9.999E+003 -9.999E+003 -9.999E+003 -9.999E+003 -9.999E+003 -9.999E+003 -9.999E+003 -9.999E+003 -9.999E+003 -9.999E+003 -9.999E+003 -9.999E+003 -9.999E+003 -9.999E+003 -9.999E+003 -9.999E+003 -9.999E+003 -9.999E+003 -9.999E+003 -9.999E+003 -9.999E+003 -9.999E+003 -9.999E+003 -9.999E+003 -9.999E+003 -9.999E+003 -9.999E+003 -9.999E+003 -9.999E+003 -9.999E+003 -9.999E+003 -9.999E+003 -9.999E+003 -9.999E+003 -9.999E+003 -9.999E+003 -9.999E+003 -9.999E+003 -9.999E+003 -9.999E+003 -9.999E+003 -9.999E+003 -9.999E+003 -9.999E+003 -9.999E+003 -9.999E+003 -9.999E+003 -9.999E+003 -9.999E+003 -9.999E+003  1.923E-004  6.060E-001  1.036E+000  1.306E+000  1.422E+000  1.453E+000  1.469E+000  1.507E+000  1.521E+000  1.418E+000  1.244E+000  1.094E+000  9.973E-001  9.334E-001  8.918E-001  8.525E-001  7.281E-001  6.080E-001  5.927E-001  5.246E-001  4.433E-001  3.827E-001  2.675E-001  6.394E-002 -9.999E+003 -9.999E+003 -9.999E+003 -9.999E+003 -9.999E+003 -9.999E+003 -9.999E+003 -9.999E+003 -9.999E+003 -9.999E+003 -9.999E+003 -9.999E+003 -9.999E+003 -9.999E+003 -9.999E+003 -9.999E+003 -9.999E+003 -9.999E+003 -9.999E+003 -9.999E+003 -9.999E+003 -9.999E+003 -9.999E+003 -9.999E+003 -9.999E+003 -9.999E+003 -9.999E+003 -9.999E+003 -9.999E+003 -9.999E+003 -9.999E+003 -9.999E+003 -9.999E+003 -9.999E+003 -9.999E+003 -9.999E+003 -9.999E+003 -9.999E+003 -9.999E+003 -9.999E+003 -9.999E+003 -9.999E+003 -9.999E+003 -9.999E+003 -9.999E+003 -9.999E+003 -9.999E+003 -9.999E+003 -9.999E+003 -9.999E+003 -9.999E+003 -9.999E+003 -9.999E+003 -9.999E+003 -9.999E+003 -9.999E+003 -9.999E+003 -9.999E+003
 -9.999E+003 -9.999E+003 -9.999E+003 -9.999E+003 -9.999E+003 -9.999E+003 -9.999E+003 -9.999E+003 -9.999E+003 -9.999E+003 -9.999E+003 -9.999E+003 -9.999E+003 -9.999E+003 -9.999E+003 -9.999E+003 -9.999E+003 -9.999E+003 -9.999E+003 -9.999E+003 -9.999E+003 -9.999E+003 -9.999E+003 -9.999E+003 -9.999E+003 -9.999E+003 -9.999E+003 -9.999E+003 -9.999E+003 -9.999E+003 -9.999E+003 -9.999E+003 -9.999E+003 -9.999E+003 -9.999E+003 -9.999E+003 -9.999E+003 -9.999E+003 -9.999E+003 -9.999E+003 -9.999E+003 -9.999E+003 -9.999E+003 -9.999E+003 -9.999E+003 -9.999E+003 -9.999E+003 -9.999E+003 -9.999E+003 -9.999E+003 -9.999E+003 -9.999E+003 -9.999E+003 -9.999E+003 -9.999E+003 -9.999E+003 -9.999E+003 -9.999E+003 -9.999E+003 -9.999E+003 -9.999E+003 -9.999E+003 -9.999E+003 -9.999E+003 -9.999E+003 -9.999E+003 -9.999E+003 -9.999E+003 -9.999E+003  5.901E-001  1.034E+000  1.364E+000  1.540E+000  1.576E+000  1.592E+000  1.598E+000  1.543E+000  1.475E+000  1.410E+000  1.271E+000  1.109E+000  9.022E-001  7.488E-001  7.158E-001  6.435E-001  5.542E-001  5.083E-001  4.710E-001  4.468E-001  3.910E-001  6.173E-003 -9.999E+003 -9.999E+003 -9.999E+003 -9.999E+003 -9.999E+003 -9.999E+003 -9.999E+003 -9.999E+003 -9.999E+003 -9.999E+003 -9.999E+003 -9.999E+003 -9.999E+003 -9.999E+003 -9.999E+003 -9.999E+003 -9.999E+003 -9.999E+003 -9.999E+003 -9.999E+003 -9.999E+003 -9.999E+003 -9.999E+003 -9.999E+003 -9.999E+003 -9.999E+003 -9.999E+003 -9.999E+003 -9.999E+003 -9.999E+003 -9.999E+003 -9.999E+003 -9.999E+003 -9.999E+003 -9.999E+003 -9.999E+003 -9.999E+003 -9.999E+003 -9.999E+003 -9.999E+003 -9.999E+003 -9.999E+003 -9.999E+003 -9.999E+003 -9.999E+003 -9.999E+003 -9.999E+003 -9.999E+003 -9.999E+003 -9.999E+003 -9.999E+003 -9.999E+003 -9.999E+003 -9.999E+003 -9.999E+003 -9.999E+003 -9.999E+003 -9.999E+003 -9.999E+003
 -9.999E+003 -9.999E+003 -9.999E+003 -9.999E+003 -9.999E+003 -9.999E+003 -9.999E+003 -9.999E+003 -9.999E+003 -9.999E+003 -9.999E+003 -9.999E+003 -9.999E+003 -9.999E+003 -9.999E+003 -9.999E+003 -9.999E+003 -9.999E+003 -9.999E+003 -9.999E+003 -9.999E+003 -9.999E+003 -9.999E+003 -9.999E+003 -9.999E+003 -9.999E+003 -9.999E+003 -9.999E+003 -9.999E+003 -9.999E+003 -9.999E+003 -9.999E+003 -9.999E+003 -9.999E+003 -9.999E+003 -9.999E+003 -9.999E+003 -9.999E+003 -9.999E+003 -9.999E+003 -9.999E+003 -9.999E+003 -9.999E+003 -9.999E+003 -9.999E+003 -9.999E+003 -9.999E+003 -9.999E+003 -9.999E+003 -9.999E+003 -9.999E+003 -9.999E+003 -9.999E+003 -9.999E+003 -9.999E+003 -9.999E+003 -9.999E+003 -9.999E+003 -9.999E+003 -9.999E+003 -9.999E+003 -9.999E+003 -9.999E+003 -9.999E+003 -9.999E+003 -9.999E+003 -9.999E+003 -9.999E+003 -9.999E+003 -9.999E+003  9.235E-001  1.354E+000  1.602E+000  1.713E+000  1.743E+000  1.687E+000  1.592E+000  1.580E+000  1.569E+000  1.507E+000  1.292E+000  8.773E-001  6.465E-001  6.252E-001  5.451E-001  4.288E-001  3.702E-001  3.393E-001  1.274E-001  6.269E-005 -9.999E+003 -9.999E+003 -9.999E+003 -9.999E+003 -9.999E+003 -9.999E+003 -9.999E+003 -9.999E+003 -9.999E+003 -9.999E+003 -9.999E+003 -9.999E+003 -9.999E+003 -9.999E+003 -9.999E+003 -9.999E+003 -9.999E+003 -9.999E+003 -9.999E+003 -9.999E+003 -9.999E+003 -9.999E+003 -9.999E+003 -9.999E+003 -9.999E+003 -9.999E+003 -9.999E+003 -9.999E+003 -9.999E+003 -9.999E+003 -9.999E+003 -9.999E+003 -9.999E+003 -9.999E+003 -9.999E+003 -9.999E+003 -9.999E+003 -9.999E+003 -9.999E+003 -9.999E+003 -9.999E+003 -9.999E+003 -9.999E+003 -9.999E+003 -9.999E+003 -9.999E+003 -9.999E+003 -9.999E+003 -9.999E+003 -9.999E+003 -9.999E+003 -9.999E+003 -9.999E+003 -9.999E+003 -9.999E+003 -9.999E+003 -9.999E+003 -9.999E+003 -9.999E+003 -9.999E+003
 -9.999E+003 -9.999E+003 -9.999E+003 -9.999E+003 -9.999E+003 -9.999E+003 -9.999E+003 -9.999E+003 -9.999E+003 -9.999E+003 -9.999E+003 -9.999E+003 -9.999E+003 -9.999E+003 -9.999E+003 -9.999E+003 -9.999E+003 -9.999E+003 -9.999E+003 -9.999E+003 -9.999E+003 -9.999E+003 -9.999E+003 -9.999E+003 -9.999E+003 -9.999E+003 -9.999E+003 -9.999E+003 -9.999E+003 -9.999E+003 -9.999E+003 -9.999E+003 -9.999E+003 -9.999E+003 -9.999E+003 -9.999E+003 -9.999E+003 -9.999E+003 -9.999E+003 -9.999E+003 -9.999E+003 -9.999E+003 -9.999E+003 -9.999E+003 -9.999E+003 -9.999E+003 -9.999E+003 -9.999E+003 -9.999E+003 -9.999E+003 -9.999E+003 -9.999E+003 -9.999E+003 -9.999E+003 -9.999E+003 -9.999E+003 -9.999E+003 -9.999E+003 -9.999E+003 -9.999E+003 -9.999E+003 -9.999E+003 -9.999E+003 -9.999E+003 -9.999E+003 -9.999E+003 -9.999E+003 -9.999E+003 -9.999E+003 -9.999E+003  9.222E-005  1.340E+000  1.673E+000  1.862E+000  1.914E+000  1.855E+000  1.780E+000  1.751E+000  1.715E+000  1.690E+000  1.356E+000  8.835E-001  5.574E-001  4.588E-001  3.656E-001  2.416E-001  1.990E-001  9.160E-002  7.079E-005 -9.999E+003 -9.999E+003 -9.999E+003 -9.999E+003 -9.999E+003 -9.999E+003 -9.999E+003 -9.999E+003 -9.999E+003 -9.999E+003 -9.999E+003 -9.999E+003 -9.999E+003 -9.999E+003 -9.999E+003 -9.999E+003 -9.999E+003 -9.999E+003 -9.999E+003 -9.999E+003 -9.999E+003 -9.999E+003 -9.999E+003 -9.999E+003 -9.999E+003 -9.999E+003 -9.999E+003 -9.999E+003 -9.999E+003 -9.999E+003 -9.999E+003 -9.999E+003 -9.999E+003 -9.999E+003 -9.999E+003 -9.999E+003 -9.999E+003 -9.999E+003 -9.999E+003 -9.999E+003 -9.999E+003 -9.999E+003 -9.999E+003 -9.999E+003 -9.999E+003 -9.999E+003 -9.999E+003 -9.999E+003 -9.999E+003 -9.999E+003 -9.999E+003 -9.999E+003 -9.999E+003 -9.999E+003 -9.999E+003 -9.999E+003 -9.999E+003 -9.999E+003 -9.999E+003 -9.999E+003 -9.999E+003
 -9.999E+003 -9.999E+003 -9.999E+003 -9.999E+003 -9.999E+003 -9.999E+003 -9.999E+003 -9.999E+003 -9.999E+003 -9.999E+003 -9.999E+003 -9.999E+003 -9.999E+003 -9.999E+003 -9.999E+003 -9.999E+003 -9.999E+003 -9.999E+003 -9.999E+003 -9.999E+003 -9.999E+003 -9.999E+003 -9.999E+003 -9.999E+003 -9.999E+003 -9.999E+003 -9.999E+003 -9.999E+003 -9.999E+003 -9.999E+003 -9.999E+003 -9.999E+003 -9.999E+003 -9.999E+003 -9.999E+003 -9.999E+003 -9.999E+003 -9.999E+003 -9.999E+003 -9.999E+003 -9.999E+003 -9.999E+003 -9.999E+003 -9.999E+003 -9.999E+003 -9.999E+003 -9.999E+003 -9.999E+003 -9.999E+003 -9.999E+003 -9.999E+003 -9.999E+003 -9.999E+003 -9.999E+003 -9.999E+003 -9.999E+003 -9.999E+003 -9.999E+003 -9.999E+003 -9.999E+003 -9.999E+003 -9.999E+003 -9.999E+003 -9.999E+003 -9.999E+003 -9.999E+003 -9.999E+003 -9.999E+003 -9.999E+003 -9.999E+003 -9.999E+003  1.382E+000  1.761E+000  1.968E+000  2.056E+000  2.041E+000  1.984E+000  1.916E+000  1.850E+000  1.737E+000  1.291E+000  8.520E-001  4.221E-001  9.598E-004  1.247E-002  5.417E-005 -9.999E+003  1.443E-005 -9.999E+003 -9.999E+003 -9.999E+003 -9.999E+003 -9.999E+003 -9.999E+003 -9.999E+003 -9.999E+003 -9.999E+003 -9.999E+003 -9.999E+003 -9.999E+003 -9.999E+003 -9.999E+003 -9.999E+003 -9.999E+003 -9.999E+003 -9.999E+003 -9.999E+003 -9.999E+003 -9.999E+003 -9.999E+003 -9.999E+003 -9.999E+003 -9.999E+003 -9.999E+003 -9.999E+003 -9.999E+003 -9.999E+003 -9.999E+003 -9.999E+003 -9.999E+003 -9.999E+003 -9.999E+003 -9.999E+003 -9.999E+003 -9.999E+003 -9.999E+003 -9.999E+003 -9.999E+003 -9.999E+003 -9.999E+003 -9.999E+003 -9.999E+003 -9.999E+003 -9.999E+003 -9.999E+003 -9.999E+003 -9.999E+003 -9.999E+003 -9.999E+003 -9.999E+003 -9.999E+003 -9.999E+003 -9.999E+003 -9.999E+003 -9.999E+003 -9.999E+003 -9.999E+003 -9.999E+003 -9.999E+003 -9.999E+003
 -9.999E+003 -9.999E+003 -9.999E+003 -9.999E+003 -9.999E+003 -9.999E+003 -9.999E+003 -9.999E+003 -9.999E+003 -9.999E+003 -9.999E+003 -9.999E+003 -9.999E+003 -9.999E+003 -9.999E+003 -9.999E+003 -9.999E+003 -9.999E+003 -9.999E+003 -9.999E+003 -9.999E+003 -9.999E+003 -9.999E+003 -9.999E+003 -9.999E+003 -9.999E+003 -9.999E+003 -9.999E+003 -9.999E+003 -9.999E+003 -9.999E+003 -9.999E+003 -9.999E+003 -9.999E+003 -9.999E+003 -9.999E+003 -9.999E+003 -9.999E+003 -9.999E+003 -9.999E+003 -9.999E+003 -9.999E+003 -9.999E+003 -9.999E+003 -9.999E+003 -9.999E+003 -9.999E+003 -9.999E+003 -9.999E+003 -9.999E+003 -9.999E+003 -9.999E+003 -9.999E+003 -9.999E+003 -9.999E+003 -9.999E+003 -9.999E+003 -9.999E+003 -9.999E+003 -9.999E+003 -9.999E+003 -9.999E+003 -9.999E+003 -9.999E+003 -9.999E+003 -9.999E+003 -9.999E+003 -9.999E+003 -9.999E+003 -9.999E+003  5.113E-001  1.361E+000  1.789E+000  2.019E+000  2.141E+000  2.157E+000  2.124E+000  2.065E+000  1.874E+000  4.388E-003  4.498E-001  7.025E-001  4.465E-001 -9.999E+003  1.051E-005 -9.999E+003 -9.999E+003 -9.999E+003 -9.999E+003 -9.999E+003 -9.999E+003 -9.999E+003 -9.999E+003 -9.999E+003 -9.999E+003 -9.999E+003 -9.999E+003 -9.999E+003 -9.999E+003 -9.999E+003 -9.999E+003 -9.999E+003 -9.999E+003 -9.999E+003 -9.999E+003 -9.999E+003 -9.999E+003 -9.999E+003 -9.999E+003 -9.999E+003 -9.999E+003 -9.999E+003 -9.999E+003 -9.999E+003 -9.999E+003 -9.999E+003 -9.999E+003 -9.999E+003 -9.999E+003 -9.999E+003 -9.999E+003 -9.999E+003 -9.999E+003 -9.999E+003 -9.999E+003 -9.999E+003 -9.999E+003 -9.999E+003 -9.999E+003 -9.999E+003 -9.999E+003 -9.999E+003 -9.999E+003 -9.999E+003 -9.999E+003 -9.999E+003 -9.999E+003 -9.999E+003 -9.999E+003 -9.999E+003 -9.999E+003 -9.999E+003 -9.999E+003 -9.999E+003 -9.999E+003 -9.999E+003 -9.999E+003 -9.999E+003 -9.999E+003 -9.999E+003
 -9.999E+003 -9.999E+003 -9.999E+003 -9.999E+003 -9.999E+003 -9.999E+003 -9.999E+003 -9.999E+003 -9.999E+003 -9.999E+003 -9.999E+003 -9.999E+003 -9.999E+003 -9.999E+003 -9.999E+003 -9.999E+003 -9.999E+003 -9.999E+003 -9.999E+003 -9.999E+003 -9.999E+003 -9.999E+003 -9.999E+003 -9.999E+003 -9.999E+003 -9.999E+003 -9.999E+003 -9.999E+003 -9.999E+003 -9.999E+003 -9.999E+003 -9.999E+003 -9.999E+003 -9.999E+003 -9.999E+003 -9.999E+003 -9.999E+003 -9.999E+003 -9.999E+003 -9.999E+003 -9.999E+003 -9.999E+003 -9.999E+003 -9.999E+003 -9.999E+003 -9.999E+003 -9.999E+003 -9.999E+003 -9.999E+003 -9.999E+003 -9.999E+003 -9.999E+003 -9.999E+003 -9.999E+003 -9.999E+003 -9.999E+003 -9.999E+003 -9.999E+003 -9.999E+003 -9.999E+003 -9.999E+003 -9.999E+003 -9.999E+003 -9.999E+003 -9.999E+003 -9.999E+003 -9.999E+003 -9.999E+003 -9.999E+003 -9.999E+003 -9.999E+003  9.776E-001  1.610E+000  1.960E+000  2.116E+000  2.179E+000  2.220E+000  2.133E+000  5.268E-001 -9.999E+003 -9.999E+003  3.672E-001 -9.999E+003 -9.999E+003 -9.999E+003 -9.999E+003 -9.999E+003 -9.999E+003 -9.999E+003 -9.999E+003 -9.999E+003 -9.999E+003 -9.999E+003 -9.999E+003 -9.999E+003 -9.999E+003 -9.999E+003 -9.999E+003 -9.999E+003 -9.999E+003 -9.999E+003 -9.999E+003 -9.999E+003 -9.999E+003 -9.999E+003 -9.999E+003 -9.999E+003 -9.999E+003 -9.999E+003 -9.999E+003 -9.999E+003 -9.999E+003 -9.999E+003 -9.999E+003 -9.999E+003 -9.999E+003 -9.999E+003 -9.999E+003 -9.999E+003 -9.999E+003 -9.999E+003 -9.999E+003 -9.999E+003 -9.999E+003 -9.999E+003 -9.999E+003 -9.999E+003 -9.999E+003 -9.999E+003 -9.999E+003 -9.999E+003 -9.999E+003 -9.999E+003 -9.999E+003 -9.999E+003 -9.999E+003 -9.999E+003 -9.999E+003 -9.999E+003 -9.999E+003 -9.999E+003 -9.999E+003 -9.999E+003 -9.999E+003 -9.999E+003 -9.999E+003 -9.999E+003 -9.999E+003 -9.999E+003 -9.999E+003
 -9.999E+003 -9.999E+003 -9.999E+003 -9.999E+003 -9.999E+003 -9.999E+003 -9.999E+003 -9.999E+003 -9.999E+003 -9.999E+003 -9.999E+003 -9.999E+003 -9.999E+003 -9.999E+003 -9.999E+003 -9.999E+003 -9.999E+003 -9.999E+003 -9.999E+003 -9.999E+003 -9.999E+003 -9.999E+003 -9.999E+003 -9.999E+003 -9.999E+003 -9.999E+003 -9.999E+003 -9.999E+003 -9.999E+003 -9.999E+003 -9.999E+003 -9.999E+003 -9.999E+003 -9.999E+003 -9.999E+003 -9.999E+003 -9.999E+003 -9.999E+003 -9.999E+003 -9.999E+003 -9.999E+003 -9.999E+003 -9.999E+003 -9.999E+003 -9.999E+003 -9.999E+003 -9.999E+003 -9.999E+003 -9.999E+003 -9.999E+003 -9.999E+003 -9.999E+003 -9.999E+003 -9.999E+003 -9.999E+003 -9.999E+003 -9.999E+003 -9.999E+003 -9.999E+003 -9.999E+003 -9.999E+003 -9.999E+003 -9.999E+003 -9.999E+003 -9.999E+003 -9.999E+003 -9.999E+003 -9.999E+003 -9.999E+003 -9.999E+003 -9.999E+003  6.172E-001  1.224E+000  1.695E+000  1.935E+000  2.067E+000  2.098E+000  1.457E+000  4.774E-001  4.884E-005 -9.999E+003 -9.999E+003 -9.999E+003 -9.999E+003 -9.999E+003 -9.999E+003 -9.999E+003 -9.999E+003 -9.999E+003 -9.999E+003 -9.999E+003 -9.999E+003 -9.999E+003 -9.999E+003 -9.999E+003 -9.999E+003 -9.999E+003 -9.999E+003 -9.999E+003 -9.999E+003 -9.999E+003 -9.999E+003 -9.999E+003 -9.999E+003 -9.999E+003 -9.999E+003 -9.999E+003 -9.999E+003 -9.999E+003 -9.999E+003 -9.999E+003 -9.999E+003 -9.999E+003 -9.999E+003 -9.999E+003 -9.999E+003 -9.999E+003 -9.999E+003 -9.999E+003 -9.999E+003 -9.999E+003 -9.999E+003 -9.999E+003 -9.999E+003 -9.999E+003 -9.999E+003 -9.999E+003 -9.999E+003 -9.999E+003 -9.999E+003 -9.999E+003 -9.999E+003 -9.999E+003 -9.999E+003 -9.999E+003 -9.999E+003 -9.999E+003 -9.999E+003 -9.999E+003 -9.999E+003 -9.999E+003 -9.999E+003 -9.999E+003 -9.999E+003 -9.999E+003 -9.999E+003 -9.999E+003 -9.999E+003 -9.999E+003 -9.999E+003
 -9.999E+003 -9.999E+003 -9.999E+003 -9.999E+003 -9.999E+003 -9.999E+003 -9.999E+003 -9.999E+003 -9.999E+003 -9.999E+003 -9.999E+003 -9.999E+003 -9.999E+003 -9.999E+003 -9.999E+003 -9.999E+003 -9.999E+003 -9.999E+003 -9.999E+003 -9.999E+003 -9.999E+003 -9.999E+003 -9.999E+003 -9.999E+003 -9.999E+003 -9.999E+003 -9.999E+003 -9.999E+003 -9.999E+003 -9.999E+003 -9.999E+003 -9.999E+003 -9.999E+003 -9.999E+003 -9.999E+003 -9.999E+003 -9.999E+003 -9.999E+003 -9.999E+003 -9.999E+003 -9.999E+003 -9.999E+003 -9.999E+003 -9.999E+003 -9.999E+003 -9.999E+003 -9.999E+003 -9.999E+003 -9.999E+003 -9.999E+003 -9.999E+003 -9.999E+003 -9.999E+003 -9.999E+003 -9.999E+003 -9.999E+003 -9.999E+003 -9.999E+003 -9.999E+003 -9.999E+003 -9.999E+003 -9.999E+003 -9.999E+003 -9.999E+003 -9.999E+003 -9.999E+003 -9.999E+003 -9.999E+003 -9.999E+003 -9.999E+003 -9.999E+003  5.532E-001  9.107E-001  1.248E+000  1.480E+000  1.590E+000  1.609E+000  5.503E-001  1.907E-004 -9.999E+003 -9.999E+003 -9.999E+003 -9.999E+003 -9.999E+003 -9.999E+003 -9.999E+003 -9.999E+003 -9.999E+003 -9.999E+003 -9.999E+003 -9.999E+003 -9.999E+003 -9.999E+003 -9.999E+003 -9.999E+003 -9.999E+003 -9.999E+003 -9.999E+003 -9.999E+003 -9.999E+003 -9.999E+003 -9.999E+003 -9.999E+003 -9.999E+003 -9.999E+003 -9.999E+003 -9.999E+003 -9.999E+003 -9.999E+003 -9.999E+003 -9.999E+003 -9.999E+003 -9.999E+003 -9.999E+003 -9.999E+003 -9.999E+003 -9.999E+003 -9.999E+003 -9.999E+003 -9.999E+003 -9.999E+003 -9.999E+003 -9.999E+003 -9.999E+003 -9.999E+003 -9.999E+003 -9.999E+003 -9.999E+003 -9.999E+003 -9.999E+003 -9.999E+003 -9.999E+003 -9.999E+003 -9.999E+003 -9.999E+003 -9.999E+003 -9.999E+003 -9.999E+003 -9.999E+003 -9.999E+003 -9.999E+003 -9.999E+003 -9.999E+003 -9.999E+003 -9.999E+003 -9.999E+003 -9.999E+003 -9.999E+003 -9.999E+003 -9.999E+003
 -9.999E+003 -9.999E+003 -9.999E+003 -9.999E+003 -9.999E+003 -9.999E+003 -9.999E+003 -9.999E+003 -9.999E+003 -9.999E+003 -9.999E+003 -9.999E+003 -9.999E+003 -9.999E+003 -9.999E+003 -9.999E+003 -9.999E+003 -9.999E+003 -9.999E+003 -9.999E+003 -9.999E+003 -9.999E+003 -9.999E+003 -9.999E+003 -9.999E+003 -9.999E+003 -9.999E+003 -9.999E+003 -9.999E+003 -9.999E+003 -9.999E+003 -9.999E+003 -9.999E+003 -9.999E+003 -9.999E+003 -9.999E+003 -9.999E+003 -9.999E+003 -9.999E+003 -9.999E+003 -9.999E+003 -9.999E+003 -9.999E+003 -9.999E+003 -9.999E+003 -9.999E+003 -9.999E+003 -9.999E+003 -9.999E+003 -9.999E+003 -9.999E+003 -9.999E+003 -9.999E+003 -9.999E+003 -9.999E+003 -9.999E+003 -9.999E+003 -9.999E+003 -9.999E+003 -9.999E+003 -9.999E+003 -9.999E+003 -9.999E+003 -9.999E+003 -9.999E+003 -9.999E+003 -9.999E+003 -9.999E+003 -9.999E+003 -9.999E+003  5.953E-001  7.409E-001  8.724E-001  9.130E-001  9.061E-001  8.456E-001  3.255E-001 -9.999E+003 -9.999E+003 -9.999E+003 -9.999E+003 -9.999E+003 -9.999E+003 -9.999E+003 -9.999E+003 -9.999E+003 -9.999E+003 -9.999E+003 -9.999E+003 -9.999E+003 -9.999E+003 -9.999E+003 -9.999E+003 -9.999E+003 -9.999E+003 -9.999E+003 -9.999E+003 -9.999E+003 -9.999E+003 -9.999E+003 -9.999E+003 -9.999E+003 -9.999E+003 -9.999E+003 -9.999E+003 -9.999E+003 -9.999E+003 -9.999E+003 -9.999E+003 -9.999E+003 -9.999E+003 -9.999E+003 -9.999E+003 -9.999E+003 -9.999E+003 -9.999E+003 -9.999E+003 -9.999E+003 -9.999E+003 -9.999E+003 -9.999E+003 -9.999E+003 -9.999E+003 -9.999E+003 -9.999E+003 -9.999E+003 -9.999E+003 -9.999E+003 -9.999E+003 -9.999E+003 -9.999E+003 -9.999E+003 -9.999E+003 -9.999E+003 -9.999E+003 -9.999E+003 -9.999E+003 -9.999E+003 -9.999E+003 -9.999E+003 -9.999E+003 -9.999E+003 -9.999E+003 -9.999E+003 -9.999E+003 -9.999E+003 -9.999E+003 -9.999E+003 -9.999E+003 -9.999E+003
 -9.999E+003 -9.999E+003 -9.999E+003 -9.999E+003 -9.999E+003 -9.999E+003 -9.999E+003 -9.999E+003 -9.999E+003 -9.999E+003 -9.999E+003 -9.999E+003 -9.999E+003 -9.999E+003 -9.999E+003 -9.999E+003 -9.999E+003 -9.999E+003 -9.999E+003 -9.999E+003 -9.999E+003 -9.999E+003 -9.999E+003 -9.999E+003 -9.999E+003 -9.999E+003 -9.999E+003 -9.999E+003 -9.999E+003 -9.999E+003 -9.999E+003 -9.999E+003 -9.999E+003 -9.999E+003 -9.999E+003 -9.999E+003 -9.999E+003 -9.999E+003 -9.999E+003 -9.999E+003 -9.999E+003 -9.999E+003 -9.999E+003 -9.999E+003 -9.999E+003 -9.999E+003 -9.999E+003 -9.999E+003 -9.999E+003 -9.999E+003 -9.999E+003 -9.999E+003 -9.999E+003 -9.999E+003 -9.999E+003 -9.999E+003 -9.999E+003 -9.999E+003 -9.999E+003 -9.999E+003 -9.999E+003 -9.999E+003 -9.999E+003 -9.999E+003 -9.999E+003 -9.999E+003 -9.999E+003 -9.999E+003 -9.999E+003  3.736E-001  6.586E-001  8.502E-001  9.013E-001  7.481E-001  4.741E-001  1.048E-003 -9.999E+003 -9.999E+003 -9.999E+003 -9.999E+003 -9.999E+003 -9.999E+003 -9.999E+003 -9.999E+003 -9.999E+003 -9.999E+003 -9.999E+003 -9.999E+003 -9.999E+003 -9.999E+003 -9.999E+003 -9.999E+003 -9.999E+003 -9.999E+003 -9.999E+003 -9.999E+003 -9.999E+003 -9.999E+003 -9.999E+003 -9.999E+003 -9.999E+003 -9.999E+003 -9.999E+003 -9.999E+003 -9.999E+003 -9.999E+003 -9.999E+003 -9.999E+003 -9.999E+003 -9.999E+003 -9.999E+003 -9.999E+003 -9.999E+003 -9.999E+003 -9.999E+003 -9.999E+003 -9.999E+003 -9.999E+003 -9.999E+003 -9.999E+003 -9.999E+003 -9.999E+003 -9.999E+003 -9.999E+003 -9.999E+003 -9.999E+003 -9.999E+003 -9.999E+003 -9.999E+003 -9.999E+003 -9.999E+003 -9.999E+003 -9.999E+003 -9.999E+003 -9.999E+003 -9.999E+003 -9.999E+003 -9.999E+003 -9.999E+003 -9.999E+003 -9.999E+003 -9.999E+003 -9.999E+003 -9.999E+003 -9.999E+003 -9.999E+003 -9.999E+003 -9.999E+003 -9.999E+003 -9.999E+003
 -9.999E+003 -9.999E+003 -9.999E+003 -9.999E+003 -9.999E+003 -9.999E+003 -9.999E+003 -9.999E+003 -9.999E+003 -9.999E+003 -9.999E+003 -9.999E+003 -9.999E+003 -9.999E+003 -9.999E+003 -9.999E+003 -9.999E+003 -9.999E+003 -9.999E+003 -9.999E+003 -9.999E+003 -9.999E+003 -9.999E+003 -9.999E+003 -9.999E+003 -9.999E+003 -9.999E+003 -9.999E+003 -9.999E+003 -9.999E+003 -9.999E+003 -9.999E+003 -9.999E+003 -9.999E+003 -9.999E+003 -9.999E+003 -9.999E+003 -9.999E+003 -9.999E+003 -9.999E+003 -9.999E+003 -9.999E+003 -9.999E+003 -9.999E+003 -9.999E+003 -9.999E+003 -9.999E+003 -9.999E+003 -9.999E+003 -9.999E+003 -9.999E+003 -9.999E+003 -9.999E+003 -9.999E+003 -9.999E+003 -9.999E+003 -9.999E+003 -9.999E+003 -9.999E+003 -9.999E+003 -9.999E+003 -9.999E+003 -9.999E+003 -9.999E+003 -9.999E+003 -9.999E+003 -9.999E+003 -9.999E+003  3.321E-004  4.982E-001  6.576E-001  7.218E-001  6.797E-001  5.344E-001  8.006E-004 -9.999E+003 -9.999E+003 -9.999E+003 -9.999E+003 -9.999E+003 -9.999E+003 -9.999E+003 -9.999E+003 -9.999E+003 -9.999E+003 -9.999E+003 -9.999E+003 -9.999E+003 -9.999E+003 -9.999E+003 -9.999E+003 -9.999E+003 -9.999E+003 -9.999E+003 -9.999E+003 -9.999E+003 -9.999E+003 -9.999E+003 -9.999E+003 -9.999E+003 -9.999E+003 -9.999E+003 -9.999E+003 -9.999E+003 -9.999E+003 -9.999E+003 -9.999E+003 -9.999E+003 -9.999E+003 -9.999E+003 -9.999E+003 -9.999E+003 -9.999E+003 -9.999E+003 -9.999E+003 -9.999E+003 -9.999E+003 -9.999E+003 -9.999E+003 -9.999E+003 -9.999E+003 -9.999E+003 -9.999E+003 -9.999E+003 -9.999E+003 -9.999E+003 -9.999E+003 -9.999E+003 -9.999E+003 -9.999E+003 -9.999E+003 -9.999E+003 -9.999E+003 -9.999E+003 -9.999E+003 -9.999E+003 -9.999E+003 -9.999E+003 -9.999E+003 -9.999E+003 -9.999E+003 -9.999E+003 -9.999E+003 -9.999E+003 -9.999E+003 -9.999E+003 -9.999E+003 -9.999E+003 -9.999E+003 -9.999E+003
 -9.999E+003 -9.999E+003 -9.999E+003 -9.999E+003 -9.999E+003 -9.999E+003 -9.999E+003 -9.999E+003 -9.999E+003 -9.999E+003 -9.999E+003 -9.999E+003 -9.999E+003 -9.999E+003 -9.999E+003 -9.999E+003 -9.999E+003 -9.999E+003 -9.999E+003 -9.999E+003 -9.999E+003 -9.999E+003 -9.999E+003 -9.999E+003 -9.999E+003 -9.999E+003 -9.999E+003 -9.999E+003 -9.999E+003 -9.999E+003 -9.999E+003 -9.999E+003 -9.999E+003 -9.999E+003 -9.999E+003 -9.999E+003 -9.999E+003 -9.999E+003 -9.999E+003 -9.999E+003 -9.999E+003 -9.999E+003 -9.999E+003 -9.999E+003 -9.999E+003 -9.999E+003 -9.999E+003 -9.999E+003 -9.999E+003 -9.999E+003 -9.999E+003 -9.999E+003 -9.999E+003 -9.999E+003 -9.999E+003 -9.999E+003 -9.999E+003 -9.999E+003 -9.999E+003 -9.999E+003 -9.999E+003 -9.999E+003 -9.999E+003 -9.999E+003 -9.999E+003 -9.999E+003 -9.999E+003 -9.999E+003  2.460E-001  4.312E-001  5.380E-001  4.708E-001  3.542E-001  3.167E-004 -9.999E+003 -9.999E+003 -9.999E+003 -9.999E+003 -9.999E+003 -9.999E+003 -9.999E+003 -9.999E+003 -9.999E+003 -9.999E+003 -9.999E+003 -9.999E+003 -9.999E+003 -9.999E+003 -9.999E+003 -9.999E+003 -9.999E+003 -9.999E+003 -9.999E+003 -9.999E+003 -9.999E+003 -9.999E+003 -9.999E+003 -9.999E+003 -9.999E+003 -9.999E+003 -9.999E+003 -9.999E+003 -9.999E+003 -9.999E+003 -9.999E+003 -9.999E+003 -9.999E+003 -9.999E+003 -9.999E+003 -9.999E+003 -9.999E+003 -9.999E+003 -9.999E+003 -9.999E+003 -9.999E+003 -9.999E+003 -9.999E+003 -9.999E+003 -9.999E+003 -9.999E+003 -9.999E+003 -9.999E+003 -9.999E+003 -9.999E+003 -9.999E+003 -9.999E+003 -9.999E+003 -9.999E+003 -9.999E+003 -9.999E+003 -9.999E+003 -9.999E+003 -9.999E+003 -9.999E+003 -9.999E+003 -9.999E+003 -9.999E+003 -9.999E+003 -9.999E+003 -9.999E+003 -9.999E+003 -9.999E+003 -9.999E+003 -9.999E+003 -9.999E+003 -9.999E+003 -9.999E+003 -9.999E+003 -9.999E+003 -9.999E+003
 -9.999E+003 -9.999E+003 -9.999E+003 -9.999E+003 -9.999E+003 -9.999E+003 -9.999E+003 -9.999E+003 -9.999E+003 -9.999E+003 -9.999E+003 -9.999E+003 -9.999E+003 -9.999E+003 -9.999E+003 -9.999E+003 -9.999E+003 -9.999E+003 -9.999E+003 -9.999E+003 -9.999E+003 -9.999E+003 -9.999E+003 -9.999E+003 -9.999E+003 -9.999E+003 -9.999E+003 -9.999E+003 -9.999E+003 -9.999E+003 -9.999E+003 -9.999E+003 -9.999E+003 -9.999E+003 -9.999E+003 -9.999E+003 -9.999E+003 -9.999E+003 -9.999E+003 -9.999E+003 -9.999E+003 -9.999E+003 -9.999E+003 -9.999E+003 -9.999E+003 -9.999E+003 -9.999E+003 -9.999E+003 -9.999E+003 -9.999E+003 -9.999E+003 -9.999E+003 -9.999E+003 -9.999E+003 -9.999E+003 -9.999E+003 -9.999E+003 -9.999E+003 -9.999E+003 -9.999E+003 -9.999E+003 -9.999E+003 -9.999E+003 -9.999E+003 -9.999E+003 -9.999E+003 -9.999E+003 -9.999E+003  2.038E-001  2.521E-001  2.693E-001  2.396E-001  1.077E-004 -9.999E+003 -9.999E+003 -9.999E+003 -9.999E+003 -9.999E+003 -9.999E+003 -9.999E+003 -9.999E+003 -9.999E+003 -9.999E+003 -9.999E+003 -9.999E+003 -9.999E+003 -9.999E+003 -9.999E+003 -9.999E+003 -9.999E+003 -9.999E+003 -9.999E+003 -9.999E+003 -9.999E+003 -9.999E+003 -9.999E+003 -9.999E+003 -9.999E+003 -9.999E+003 -9.999E+003 -9.999E+003 -9.999E+003 -9.999E+003 -9.999E+003 -9.999E+003 -9.999E+003 -9.999E+003 -9.999E+003 -9.999E+003 -9.999E+003 -9.999E+003 -9.999E+003 -9.999E+003 -9.999E+003 -9.999E+003 -9.999E+003 -9.999E+003 -9.999E+003 -9.999E+003 -9.999E+003 -9.999E+003 -9.999E+003 -9.999E+003 -9.999E+003 -9.999E+003 -9.999E+003 -9.999E+003 -9.999E+003 -9.999E+003 -9.999E+003 -9.999E+003 -9.999E+003 -9.999E+003 -9.999E+003 -9.999E+003 -9.999E+003 -9.999E+003 -9.999E+003 -9.999E+003 -9.999E+003 -9.999E+003 -9.999E+003 -9.999E+003 -9.999E+003 -9.999E+003 -9.999E+003 -9.999E+003 -9.999E+003 -9.999E+003 -9.999E+003
 -9.999E+003 -9.999E+003 -9.999E+003 -9.999E+003 -9.999E+003 -9.999E+003 -9.999E+003 -9.999E+003 -9.999E+003 -9.999E+003 -9.999E+003 -9.999E+003 -9.999E+003 -9.999E+003 -9.999E+003 -9.999E+003 -9.999E+003 -9.999E+003 -9.999E+003 -9.999E+003 -9.999E+003 -9.999E+003 -9.999E+003 -9.999E+003 -9.999E+003 -9.999E+003 -9.999E+003 -9.999E+003 -9.999E+003 -9.999E+003 -9.999E+003 -9.999E+003 -9.999E+003 -9.999E+003 -9.999E+003 -9.999E+003 -9.999E+003 -9.999E+003 -9.999E+003 -9.999E+003 -9.999E+003 -9.999E+003 -9.999E+003 -9.999E+003 -9.999E+003 -9.999E+003 -9.999E+003 -9.999E+003 -9.999E+003 -9.999E+003 -9.999E+003 -9.999E+003 -9.999E+003 -9.999E+003 -9.999E+003 -9.999E+003 -9.999E+003 -9.999E+003 -9.999E+003 -9.999E+003 -9.999E+003 -9.999E+003 -9.999E+003 -9.999E+003 -9.999E+003 -9.999E+003 -9.999E+003 -9.999E+003 -9.999E+003  9.958E-002  9.427E-002 -9.999E+003 -9.999E+003 -9.999E+003 -9.999E+003 -9.999E+003 -9.999E+003 -9.999E+003 -9.999E+003 -9.999E+003 -9.999E+003 -9.999E+003 -9.999E+003 -9.999E+003 -9.999E+003 -9.999E+003 -9.999E+003 -9.999E+003 -9.999E+003 -9.999E+003 -9.999E+003 -9.999E+003 -9.999E+003 -9.999E+003 -9.999E+003 -9.999E+003 -9.999E+003 -9.999E+003 -9.999E+003 -9.999E+003 -9.999E+003 -9.999E+003 -9.999E+003 -9.999E+003 -9.999E+003 -9.999E+003 -9.999E+003 -9.999E+003 -9.999E+003 -9.999E+003 -9.999E+003 -9.999E+003 -9.999E+003 -9.999E+003 -9.999E+003 -9.999E+003 -9.999E+003 -9.999E+003 -9.999E+003 -9.999E+003 -9.999E+003 -9.999E+003 -9.999E+003 -9.999E+003 -9.999E+003 -9.999E+003 -9.999E+003 -9.999E+003 -9.999E+003 -9.999E+003 -9.999E+003 -9.999E+003 -9.999E+003 -9.999E+003 -9.999E+003 -9.999E+003 -9.999E+003 -9.999E+003 -9.999E+003 -9.999E+003 -9.999E+003 -9.999E+003 -9.999E+003 -9.999E+003 -9.999E+003 -9.999E+003 -9.999E+003 -9.999E+003 -9.999E+003 -9.999E+003
 -9.999E+003 -9.999E+003 -9.999E+003 -9.999E+003 -9.999E+003 -9.999E+003 -9.999E+003 -9.999E+003 -9.999E+003 -9.999E+003 -9.999E+003 -9.999E+003 -9.999E+003 -9.999E+003 -9.999E+003 -9.999E+003 -9.999E+003 -9.999E+003 -9.999E+003 -9.999E+003 -9.999E+003 -9.999E+003 -9.999E+003 -9.999E+003 -9.999E+003 -9.999E+003 -9.999E+003 -9.999E+003 -9.999E+003 -9.999E+003 -9.999E+003 -9.999E+003 -9.999E+003 -9.999E+003 -9.999E+003 -9.999E+003 -9.999E+003 -9.999E+003 -9.999E+003 -9.999E+003 -9.999E+003 -9.999E+003 -9.999E+003 -9.999E+003 -9.999E+003 -9.999E+003 -9.999E+003 -9.999E+003 -9.999E+003 -9.999E+003 -9.999E+003 -9.999E+003 -9.999E+003 -9.999E+003 -9.999E+003 -9.999E+003 -9.999E+003 -9.999E+003 -9.999E+003 -9.999E+003 -9.999E+003 -9.999E+003 -9.999E+003 -9.999E+003 -9.999E+003 -9.999E+003 -9.999E+003 -9.999E+003 -9.999E+003 -9.999E+003 -9.999E+003 -9.999E+003 -9.999E+003 -9.999E+003 -9.999E+003 -9.999E+003 -9.999E+003 -9.999E+003 -9.999E+003 -9.999E+003 -9.999E+003 -9.999E+003 -9.999E+003 -9.999E+003 -9.999E+003 -9.999E+003 -9.999E+003 -9.999E+003 -9.999E+003 -9.999E+003 -9.999E+003 -9.999E+003 -9.999E+003 -9.999E+003 -9.999E+003 -9.999E+003 -9.999E+003 -9.999E+003 -9.999E+003 -9.999E+003 -9.999E+003 -9.999E+003 -9.999E+003 -9.999E+003 -9.999E+003 -9.999E+003 -9.999E+003 -9.999E+003 -9.999E+003 -9.999E+003 -9.999E+003 -9.999E+003 -9.999E+003 -9.999E+003 -9.999E+003 -9.999E+003 -9.999E+003 -9.999E+003 -9.999E+003 -9.999E+003 -9.999E+003 -9.999E+003 -9.999E+003 -9.999E+003 -9.999E+003 -9.999E+003 -9.999E+003 -9.999E+003 -9.999E+003 -9.999E+003 -9.999E+003 -9.999E+003 -9.999E+003 -9.999E+003 -9.999E+003 -9.999E+003 -9.999E+003 -9.999E+003 -9.999E+003 -9.999E+003 -9.999E+003 -9.999E+003 -9.999E+003 -9.999E+003 -9.999E+003 -9.999E+003 -9.999E+003 -9.999E+003 -9.999E+003 -9.999E+003
 -9.999E+003 -9.999E+003 -9.999E+003 -9.999E+003 -9.999E+003 -9.999E+003 -9.999E+003 -9.999E+003 -9.999E+003 -9.999E+003 -9.999E+003 -9.999E+003 -9.999E+003 -9.999E+003 -9.999E+003 -9.999E+003 -9.999E+003 -9.999E+003 -9.999E+003 -9.999E+003 -9.999E+003 -9.999E+003 -9.999E+003 -9.999E+003 -9.999E+003 -9.999E+003 -9.999E+003 -9.999E+003 -9.999E+003 -9.999E+003 -9.999E+003 -9.999E+003 -9.999E+003 -9.999E+003 -9.999E+003 -9.999E+003 -9.999E+003 -9.999E+003 -9.999E+003 -9.999E+003 -9.999E+003 -9.999E+003 -9.999E+003 -9.999E+003 -9.999E+003 -9.999E+003 -9.999E+003 -9.999E+003 -9.999E+003 -9.999E+003 -9.999E+003 -9.999E+003 -9.999E+003 -9.999E+003 -9.999E+003 -9.999E+003 -9.999E+003 -9.999E+003 -9.999E+003 -9.999E+003 -9.999E+003 -9.999E+003 -9.999E+003 -9.999E+003 -9.999E+003 -9.999E+003 -9.999E+003 -9.999E+003 -9.999E+003 -9.999E+003 -9.999E+003 -9.999E+003 -9.999E+003 -9.999E+003 -9.999E+003 -9.999E+003 -9.999E+003 -9.999E+003 -9.999E+003 -9.999E+003 -9.999E+003 -9.999E+003 -9.999E+003 -9.999E+003 -9.999E+003 -9.999E+003 -9.999E+003 -9.999E+003 -9.999E+003 -9.999E+003 -9.999E+003 -9.999E+003 -9.999E+003 -9.999E+003 -9.999E+003 -9.999E+003 -9.999E+003 -9.999E+003 -9.999E+003 -9.999E+003 -9.999E+003 -9.999E+003 -9.999E+003 -9.999E+003 -9.999E+003 -9.999E+003 -9.999E+003 -9.999E+003 -9.999E+003 -9.999E+003 -9.999E+003 -9.999E+003 -9.999E+003 -9.999E+003 -9.999E+003 -9.999E+003 -9.999E+003 -9.999E+003 -9.999E+003 -9.999E+003 -9.999E+003 -9.999E+003 -9.999E+003 -9.999E+003 -9.999E+003 -9.999E+003 -9.999E+003 -9.999E+003 -9.999E+003 -9.999E+003 -9.999E+003 -9.999E+003 -9.999E+003 -9.999E+003 -9.999E+003 -9.999E+003 -9.999E+003 -9.999E+003 -9.999E+003 -9.999E+003 -9.999E+003 -9.999E+003 -9.999E+003 -9.999E+003 -9.999E+003 -9.999E+003 -9.999E+003 -9.999E+003 -9.999E+003 -9.999E+003
 -9.999E+003 -9.999E+003 -9.999E+003 -9.999E+003 -9.999E+003 -9.999E+003 -9.999E+003 -9.999E+003 -9.999E+003 -9.999E+003 -9.999E+003 -9.999E+003 -9.999E+003 -9.999E+003 -9.999E+003 -9.999E+003 -9.999E+003 -9.999E+003 -9.999E+003 -9.999E+003 -9.999E+003 -9.999E+003 -9.999E+003 -9.999E+003 -9.999E+003 -9.999E+003 -9.999E+003 -9.999E+003 -9.999E+003 -9.999E+003 -9.999E+003 -9.999E+003 -9.999E+003 -9.999E+003 -9.999E+003 -9.999E+003 -9.999E+003 -9.999E+003 -9.999E+003 -9.999E+003 -9.999E+003 -9.999E+003 -9.999E+003 -9.999E+003 -9.999E+003 -9.999E+003 -9.999E+003 -9.999E+003 -9.999E+003 -9.999E+003 -9.999E+003 -9.999E+003 -9.999E+003 -9.999E+003 -9.999E+003 -9.999E+003 -9.999E+003 -9.999E+003 -9.999E+003 -9.999E+003 -9.999E+003 -9.999E+003 -9.999E+003 -9.999E+003 -9.999E+003 -9.999E+003 -9.999E+003 -9.999E+003 -9.999E+003 -9.999E+003 -9.999E+003 -9.999E+003 -9.999E+003 -9.999E+003 -9.999E+003 -9.999E+003 -9.999E+003 -9.999E+003 -9.999E+003 -9.999E+003 -9.999E+003 -9.999E+003 -9.999E+003 -9.999E+003 -9.999E+003 -9.999E+003 -9.999E+003 -9.999E+003 -9.999E+003 -9.999E+003 -9.999E+003 -9.999E+003 -9.999E+003 -9.999E+003 -9.999E+003 -9.999E+003 -9.999E+003 -9.999E+003 -9.999E+003 -9.999E+003 -9.999E+003 -9.999E+003 -9.999E+003 -9.999E+003 -9.999E+003 -9.999E+003 -9.999E+003 -9.999E+003 -9.999E+003 -9.999E+003 -9.999E+003 -9.999E+003 -9.999E+003 -9.999E+003 -9.999E+003 -9.999E+003 -9.999E+003 -9.999E+003 -9.999E+003 -9.999E+003 -9.999E+003 -9.999E+003 -9.999E+003 -9.999E+003 -9.999E+003 -9.999E+003 -9.999E+003 -9.999E+003 -9.999E+003 -9.999E+003 -9.999E+003 -9.999E+003 -9.999E+003 -9.999E+003 -9.999E+003 -9.999E+003 -9.999E+003 -9.999E+003 -9.999E+003 -9.999E+003 -9.999E+003 -9.999E+003 -9.999E+003 -9.999E+003 -9.999E+003 -9.999E+003 -9.999E+003 -9.999E+003 -9.999E+003 -9.999E+003
 -9.999E+003 -9.999E+003 -9.999E+003 -9.999E+003 -9.999E+003 -9.999E+003 -9.999E+003 -9.999E+003 -9.999E+003 -9.999E+003 -9.999E+003 -9.999E+003 -9.999E+003 -9.999E+003 -9.999E+003 -9.999E+003 -9.999E+003 -9.999E+003 -9.999E+003 -9.999E+003 -9.999E+003 -9.999E+003 -9.999E+003 -9.999E+003 -9.999E+003 -9.999E+003 -9.999E+003 -9.999E+003 -9.999E+003 -9.999E+003 -9.999E+003 -9.999E+003 -9.999E+003 -9.999E+003 -9.999E+003 -9.999E+003 -9.999E+003 -9.999E+003 -9.999E+003 -9.999E+003 -9.999E+003 -9.999E+003 -9.999E+003 -9.999E+003 -9.999E+003 -9.999E+003 -9.999E+003 -9.999E+003 -9.999E+003 -9.999E+003 -9.999E+003 -9.999E+003 -9.999E+003 -9.999E+003 -9.999E+003 -9.999E+003 -9.999E+003 -9.999E+003 -9.999E+003 -9.999E+003 -9.999E+003 -9.999E+003 -9.999E+003 -9.999E+003 -9.999E+003 -9.999E+003 -9.999E+003 -9.999E+003 -9.999E+003 -9.999E+003 -9.999E+003 -9.999E+003 -9.999E+003 -9.999E+003 -9.999E+003 -9.999E+003 -9.999E+003 -9.999E+003 -9.999E+003 -9.999E+003 -9.999E+003 -9.999E+003 -9.999E+003 -9.999E+003 -9.999E+003 -9.999E+003 -9.999E+003 -9.999E+003 -9.999E+003 -9.999E+003 -9.999E+003 -9.999E+003 -9.999E+003 -9.999E+003 -9.999E+003 -9.999E+003 -9.999E+003 -9.999E+003 -9.999E+003 -9.999E+003 -9.999E+003 -9.999E+003 -9.999E+003 -9.999E+003 -9.999E+003 -9.999E+003 -9.999E+003 -9.999E+003 -9.999E+003 -9.999E+003 -9.999E+003 -9.999E+003 -9.999E+003 -9.999E+003 -9.999E+003 -9.999E+003 -9.999E+003 -9.999E+003 -9.999E+003 -9.999E+003 -9.999E+003 -9.999E+003 -9.999E+003 -9.999E+003 -9.999E+003 -9.999E+003 -9.999E+003 -9.999E+003 -9.999E+003 -9.999E+003 -9.999E+003 -9.999E+003 -9.999E+003 -9.999E+003 -9.999E+003 -9.999E+003 -9.999E+003 -9.999E+003 -9.999E+003 -9.999E+003 -9.999E+003 -9.999E+003 -9.999E+003 -9.999E+003 -9.999E+003 -9.999E+003 -9.999E+003 -9.999E+003 -9.999E+003 -9.999E+003
 -9.999E+003 -9.999E+003 -9.999E+003 -9.999E+003 -9.999E+003 -9.999E+003 -9.999E+003 -9.999E+003 -9.999E+003 -9.999E+003 -9.999E+003 -9.999E+003 -9.999E+003 -9.999E+003 -9.999E+003 -9.999E+003 -9.999E+003 -9.999E+003 -9.999E+003 -9.999E+003 -9.999E+003 -9.999E+003 -9.999E+003 -9.999E+003 -9.999E+003 -9.999E+003 -9.999E+003 -9.999E+003 -9.999E+003 -9.999E+003 -9.999E+003 -9.999E+003 -9.999E+003 -9.999E+003 -9.999E+003 -9.999E+003 -9.999E+003 -9.999E+003 -9.999E+003 -9.999E+003 -9.999E+003 -9.999E+003 -9.999E+003 -9.999E+003 -9.999E+003 -9.999E+003 -9.999E+003 -9.999E+003 -9.999E+003 -9.999E+003 -9.999E+003 -9.999E+003 -9.999E+003 -9.999E+003 -9.999E+003 -9.999E+003 -9.999E+003 -9.999E+003 -9.999E+003 -9.999E+003 -9.999E+003 -9.999E+003 -9.999E+003 -9.999E+003 -9.999E+003 -9.999E+003 -9.999E+003 -9.999E+003 -9.999E+003 -9.999E+003 -9.999E+003 -9.999E+003 -9.999E+003 -9.999E+003 -9.999E+003 -9.999E+003 -9.999E+003 -9.999E+003 -9.999E+003 -9.999E+003 -9.999E+003 -9.999E+003 -9.999E+003 -9.999E+003 -9.999E+003 -9.999E+003 -9.999E+003 -9.999E+003 -9.999E+003 -9.999E+003 -9.999E+003 -9.999E+003 -9.999E+003 -9.999E+003 -9.999E+003 -9.999E+003 -9.999E+003 -9.999E+003 -9.999E+003 -9.999E+003 -9.999E+003 -9.999E+003 -9.999E+003 -9.999E+003 -9.999E+003 -9.999E+003 -9.999E+003 -9.999E+003 -9.999E+003 -9.999E+003 -9.999E+003 -9.999E+003 -9.999E+003 -9.999E+003 -9.999E+003 -9.999E+003 -9.999E+003 -9.999E+003 -9.999E+003 -9.999E+003 -9.999E+003 -9.999E+003 -9.999E+003 -9.999E+003 -9.999E+003 -9.999E+003 -9.999E+003 -9.999E+003 -9.999E+003 -9.999E+003 -9.999E+003 -9.999E+003 -9.999E+003 -9.999E+003 -9.999E+003 -9.999E+003 -9.999E+003 -9.999E+003 -9.999E+003 -9.999E+003 -9.999E+003 -9.999E+003 -9.999E+003 -9.999E+003 -9.999E+003 -9.999E+003 -9.999E+003 -9.999E+003 -9.999E+003 -9.999E+003
 -9.999E+003 -9.999E+003 -9.999E+003 -9.999E+003 -9.999E+003 -9.999E+003 -9.999E+003 -9.999E+003 -9.999E+003 -9.999E+003 -9.999E+003 -9.999E+003 -9.999E+003 -9.999E+003 -9.999E+003 -9.999E+003 -9.999E+003 -9.999E+003 -9.999E+003 -9.999E+003 -9.999E+003 -9.999E+003 -9.999E+003 -9.999E+003 -9.999E+003 -9.999E+003 -9.999E+003 -9.999E+003 -9.999E+003 -9.999E+003 -9.999E+003 -9.999E+003 -9.999E+003 -9.999E+003 -9.999E+003 -9.999E+003 -9.999E+003 -9.999E+003 -9.999E+003 -9.999E+003 -9.999E+003 -9.999E+003 -9.999E+003 -9.999E+003 -9.999E+003 -9.999E+003 -9.999E+003 -9.999E+003 -9.999E+003 -9.999E+003 -9.999E+003 -9.999E+003 -9.999E+003 -9.999E+003 -9.999E+003 -9.999E+003 -9.999E+003 -9.999E+003 -9.999E+003 -9.999E+003 -9.999E+003 -9.999E+003 -9.999E+003 -9.999E+003 -9.999E+003 -9.999E+003 -9.999E+003 -9.999E+003 -9.999E+003 -9.999E+003 -9.999E+003 -9.999E+003 -9.999E+003 -9.999E+003 -9.999E+003 -9.999E+003 -9.999E+003 -9.999E+003 -9.999E+003 -9.999E+003 -9.999E+003 -9.999E+003 -9.999E+003 -9.999E+003 -9.999E+003 -9.999E+003 -9.999E+003 -9.999E+003 -9.999E+003 -9.999E+003 -9.999E+003 -9.999E+003 -9.999E+003 -9.999E+003 -9.999E+003 -9.999E+003 -9.999E+003 -9.999E+003 -9.999E+003 -9.999E+003 -9.999E+003 -9.999E+003 -9.999E+003 -9.999E+003 -9.999E+003 -9.999E+003 -9.999E+003 -9.999E+003 -9.999E+003 -9.999E+003 -9.999E+003 -9.999E+003 -9.999E+003 -9.999E+003 -9.999E+003 -9.999E+003 -9.999E+003 -9.999E+003 -9.999E+003 -9.999E+003 -9.999E+003 -9.999E+003 -9.999E+003 -9.999E+003 -9.999E+003 -9.999E+003 -9.999E+003 -9.999E+003 -9.999E+003 -9.999E+003 -9.999E+003 -9.999E+003 -9.999E+003 -9.999E+003 -9.999E+003 -9.999E+003 -9.999E+003 -9.999E+003 -9.999E+003 -9.999E+003 -9.999E+003 -9.999E+003 -9.999E+003 -9.999E+003 -9.999E+003 -9.999E+003 -9.999E+003 -9.999E+003 -9.999E+003 -9.999E+003
 -9.999E+003 -9.999E+003 -9.999E+003 -9.999E+003 -9.999E+003 -9.999E+003 -9.999E+003 -9.999E+003 -9.999E+003 -9.999E+003 -9.999E+003 -9.999E+003 -9.999E+003 -9.999E+003 -9.999E+003 -9.999E+003 -9.999E+003 -9.999E+003 -9.999E+003 -9.999E+003 -9.999E+003 -9.999E+003 -9.999E+003 -9.999E+003 -9.999E+003 -9.999E+003 -9.999E+003 -9.999E+003 -9.999E+003 -9.999E+003 -9.999E+003 -9.999E+003 -9.999E+003 -9.999E+003 -9.999E+003 -9.999E+003 -9.999E+003 -9.999E+003 -9.999E+003 -9.999E+003 -9.999E+003 -9.999E+003 -9.999E+003 -9.999E+003 -9.999E+003 -9.999E+003 -9.999E+003 -9.999E+003 -9.999E+003 -9.999E+003 -9.999E+003 -9.999E+003 -9.999E+003 -9.999E+003 -9.999E+003 -9.999E+003 -9.999E+003 -9.999E+003 -9.999E+003 -9.999E+003 -9.999E+003 -9.999E+003 -9.999E+003 -9.999E+003 -9.999E+003 -9.999E+003 -9.999E+003 -9.999E+003 -9.999E+003 -9.999E+003 -9.999E+003 -9.999E+003 -9.999E+003 -9.999E+003 -9.999E+003 -9.999E+003 -9.999E+003 -9.999E+003 -9.999E+003 -9.999E+003 -9.999E+003 -9.999E+003 -9.999E+003 -9.999E+003 -9.999E+003 -9.999E+003 -9.999E+003 -9.999E+003 -9.999E+003 -9.999E+003 -9.999E+003 -9.999E+003 -9.999E+003 -9.999E+003 -9.999E+003 -9.999E+003 -9.999E+003 -9.999E+003 -9.999E+003 -9.999E+003 -9.999E+003 -9.999E+003 -9.999E+003 -9.999E+003 -9.999E+003 -9.999E+003 -9.999E+003 -9.999E+003 -9.999E+003 -9.999E+003 -9.999E+003 -9.999E+003 -9.999E+003 -9.999E+003 -9.999E+003 -9.999E+003 -9.999E+003 -9.999E+003 -9.999E+003 -9.999E+003 -9.999E+003 -9.999E+003 -9.999E+003 -9.999E+003 -9.999E+003 -9.999E+003 -9.999E+003 -9.999E+003 -9.999E+003 -9.999E+003 -9.999E+003 -9.999E+003 -9.999E+003 -9.999E+003 -9.999E+003 -9.999E+003 -9.999E+003 -9.999E+003 -9.999E+003 -9.999E+003 -9.999E+003 -9.999E+003 -9.999E+003 -9.999E+003 -9.999E+003 -9.999E+003 -9.999E+003 -9.999E+003 -9.999E+003 -9.999E+003
 -9.999E+003 -9.999E+003 -9.999E+003 -9.999E+003 -9.999E+003 -9.999E+003 -9.999E+003 -9.999E+003 -9.999E+003 -9.999E+003 -9.999E+003 -9.999E+003 -9.999E+003 -9.999E+003 -9.999E+003 -9.999E+003 -9.999E+003 -9.999E+003 -9.999E+003 -9.999E+003 -9.999E+003 -9.999E+003 -9.999E+003 -9.999E+003 -9.999E+003 -9.999E+003 -9.999E+003 -9.999E+003 -9.999E+003 -9.999E+003 -9.999E+003 -9.999E+003 -9.999E+003 -9.999E+003 -9.999E+003 -9.999E+003 -9.999E+003 -9.999E+003 -9.999E+003 -9.999E+003 -9.999E+003 -9.999E+003 -9.999E+003 -9.999E+003 -9.999E+003 -9.999E+003 -9.999E+003 -9.999E+003 -9.999E+003 -9.999E+003 -9.999E+003 -9.999E+003 -9.999E+003 -9.999E+003 -9.999E+003 -9.999E+003 -9.999E+003 -9.999E+003 -9.999E+003 -9.999E+003 -9.999E+003 -9.999E+003 -9.999E+003 -9.999E+003 -9.999E+003 -9.999E+003 -9.999E+003 -9.999E+003 -9.999E+003 -9.999E+003 -9.999E+003 -9.999E+003 -9.999E+003 -9.999E+003 -9.999E+003 -9.999E+003 -9.999E+003 -9.999E+003 -9.999E+003 -9.999E+003 -9.999E+003 -9.999E+003 -9.999E+003 -9.999E+003 -9.999E+003 -9.999E+003 -9.999E+003 -9.999E+003 -9.999E+003 -9.999E+003 -9.999E+003 -9.999E+003 -9.999E+003 -9.999E+003 -9.999E+003 -9.999E+003 -9.999E+003 -9.999E+003 -9.999E+003 -9.999E+003 -9.999E+003 -9.999E+003 -9.999E+003 -9.999E+003 -9.999E+003 -9.999E+003 -9.999E+003 -9.999E+003 -9.999E+003 -9.999E+003 -9.999E+003 -9.999E+003 -9.999E+003 -9.999E+003 -9.999E+003 -9.999E+003 -9.999E+003 -9.999E+003 -9.999E+003 -9.999E+003 -9.999E+003 -9.999E+003 -9.999E+003 -9.999E+003 -9.999E+003 -9.999E+003 -9.999E+003 -9.999E+003 -9.999E+003 -9.999E+003 -9.999E+003 -9.999E+003 -9.999E+003 -9.999E+003 -9.999E+003 -9.999E+003 -9.999E+003 -9.999E+003 -9.999E+003 -9.999E+003 -9.999E+003 -9.999E+003 -9.999E+003 -9.999E+003 -9.999E+003 -9.999E+003 -9.999E+003 -9.999E+003 -9.999E+003 -9.999E+003
 -9.999E+003 -9.999E+003 -9.999E+003 -9.999E+003 -9.999E+003 -9.999E+003 -9.999E+003 -9.999E+003 -9.999E+003 -9.999E+003 -9.999E+003 -9.999E+003 -9.999E+003 -9.999E+003 -9.999E+003 -9.999E+003 -9.999E+003 -9.999E+003 -9.999E+003 -9.999E+003 -9.999E+003 -9.999E+003 -9.999E+003 -9.999E+003 -9.999E+003 -9.999E+003 -9.999E+003 -9.999E+003 -9.999E+003 -9.999E+003 -9.999E+003 -9.999E+003 -9.999E+003 -9.999E+003 -9.999E+003 -9.999E+003 -9.999E+003 -9.999E+003 -9.999E+003 -9.999E+003 -9.999E+003 -9.999E+003 -9.999E+003 -9.999E+003 -9.999E+003 -9.999E+003 -9.999E+003 -9.999E+003 -9.999E+003 -9.999E+003 -9.999E+003 -9.999E+003 -9.999E+003 -9.999E+003 -9.999E+003 -9.999E+003 -9.999E+003 -9.999E+003 -9.999E+003 -9.999E+003 -9.999E+003 -9.999E+003 -9.999E+003 -9.999E+003 -9.999E+003 -9.999E+003 -9.999E+003 -9.999E+003 -9.999E+003 -9.999E+003 -9.999E+003 -9.999E+003 -9.999E+003 -9.999E+003 -9.999E+003 -9.999E+003 -9.999E+003 -9.999E+003 -9.999E+003 -9.999E+003 -9.999E+003 -9.999E+003 -9.999E+003 -9.999E+003 -9.999E+003 -9.999E+003 -9.999E+003 -9.999E+003 -9.999E+003 -9.999E+003 -9.999E+003 -9.999E+003 -9.999E+003 -9.999E+003 -9.999E+003 -9.999E+003 -9.999E+003 -9.999E+003 -9.999E+003 -9.999E+003 -9.999E+003 -9.999E+003 -9.999E+003 -9.999E+003 -9.999E+003 -9.999E+003 -9.999E+003 -9.999E+003 -9.999E+003 -9.999E+003 -9.999E+003 -9.999E+003 -9.999E+003 -9.999E+003 -9.999E+003 -9.999E+003 -9.999E+003 -9.999E+003 -9.999E+003 -9.999E+003 -9.999E+003 -9.999E+003 -9.999E+003 -9.999E+003 -9.999E+003 -9.999E+003 -9.999E+003 -9.999E+003 -9.999E+003 -9.999E+003 -9.999E+003 -9.999E+003 -9.999E+003 -9.999E+003 -9.999E+003 -9.999E+003 -9.999E+003 -9.999E+003 -9.999E+003 -9.999E+003 -9.999E+003 -9.999E+003 -9.999E+003 -9.999E+003 -9.999E+003 -9.999E+003 -9.999E+003 -9.999E+003 -9.999E+003 -9.999E+003
 -9.999E+003 -9.999E+003 -9.999E+003 -9.999E+003 -9.999E+003 -9.999E+003 -9.999E+003 -9.999E+003 -9.999E+003 -9.999E+003 -9.999E+003 -9.999E+003 -9.999E+003 -9.999E+003 -9.999E+003 -9.999E+003 -9.999E+003 -9.999E+003 -9.999E+003 -9.999E+003 -9.999E+003 -9.999E+003 -9.999E+003 -9.999E+003 -9.999E+003 -9.999E+003 -9.999E+003 -9.999E+003 -9.999E+003 -9.999E+003 -9.999E+003 -9.999E+003 -9.999E+003 -9.999E+003 -9.999E+003 -9.999E+003 -9.999E+003 -9.999E+003 -9.999E+003 -9.999E+003 -9.999E+003 -9.999E+003 -9.999E+003 -9.999E+003 -9.999E+003 -9.999E+003 -9.999E+003 -9.999E+003 -9.999E+003 -9.999E+003 -9.999E+003 -9.999E+003 -9.999E+003 -9.999E+003 -9.999E+003 -9.999E+003 -9.999E+003 -9.999E+003 -9.999E+003 -9.999E+003 -9.999E+003 -9.999E+003 -9.999E+003 -9.999E+003 -9.999E+003 -9.999E+003 -9.999E+003 -9.999E+003 -9.999E+003 -9.999E+003 -9.999E+003 -9.999E+003 -9.999E+003 -9.999E+003 -9.999E+003 -9.999E+003 -9.999E+003 -9.999E+003 -9.999E+003 -9.999E+003 -9.999E+003 -9.999E+003 -9.999E+003 -9.999E+003 -9.999E+003 -9.999E+003 -9.999E+003 -9.999E+003 -9.999E+003 -9.999E+003 -9.999E+003 -9.999E+003 -9.999E+003 -9.999E+003 -9.999E+003 -9.999E+003 -9.999E+003 -9.999E+003 -9.999E+003 -9.999E+003 -9.999E+003 -9.999E+003 -9.999E+003 -9.999E+003 -9.999E+003 -9.999E+003 -9.999E+003 -9.999E+003 -9.999E+003 -9.999E+003 -9.999E+003 -9.999E+003 -9.999E+003 -9.999E+003 -9.999E+003 -9.999E+003 -9.999E+003 -9.999E+003 -9.999E+003 -9.999E+003 -9.999E+003 -9.999E+003 -9.999E+003 -9.999E+003 -9.999E+003 -9.999E+003 -9.999E+003 -9.999E+003 -9.999E+003 -9.999E+003 -9.999E+003 -9.999E+003 -9.999E+003 -9.999E+003 -9.999E+003 -9.999E+003 -9.999E+003 -9.999E+003 -9.999E+003 -9.999E+003 -9.999E+003 -9.999E+003 -9.999E+003 -9.999E+003 -9.999E+003 -9.999E+003 -9.999E+003 -9.999E+003 -9.999E+003 -9.999E+003
 -9.999E+003 -9.999E+003 -9.999E+003 -9.999E+003 -9.999E+003 -9.999E+003 -9.999E+003 -9.999E+003 -9.999E+003 -9.999E+003 -9.999E+003 -9.999E+003 -9.999E+003 -9.999E+003 -9.999E+003 -9.999E+003 -9.999E+003 -9.999E+003 -9.999E+003 -9.999E+003 -9.999E+003 -9.999E+003 -9.999E+003 -9.999E+003 -9.999E+003 -9.999E+003 -9.999E+003 -9.999E+003 -9.999E+003 -9.999E+003 -9.999E+003 -9.999E+003 -9.999E+003 -9.999E+003 -9.999E+003 -9.999E+003 -9.999E+003 -9.999E+003 -9.999E+003 -9.999E+003 -9.999E+003 -9.999E+003 -9.999E+003 -9.999E+003 -9.999E+003 -9.999E+003 -9.999E+003 -9.999E+003 -9.999E+003 -9.999E+003 -9.999E+003 -9.999E+003 -9.999E+003 -9.999E+003 -9.999E+003 -9.999E+003 -9.999E+003 -9.999E+003 -9.999E+003 -9.999E+003 -9.999E+003 -9.999E+003 -9.999E+003 -9.999E+003 -9.999E+003 -9.999E+003 -9.999E+003 -9.999E+003 -9.999E+003 -9.999E+003 -9.999E+003 -9.999E+003 -9.999E+003 -9.999E+003 -9.999E+003 -9.999E+003 -9.999E+003 -9.999E+003 -9.999E+003 -9.999E+003 -9.999E+003 -9.999E+003 -9.999E+003 -9.999E+003 -9.999E+003 -9.999E+003 -9.999E+003 -9.999E+003 -9.999E+003 -9.999E+003 -9.999E+003 -9.999E+003 -9.999E+003 -9.999E+003 -9.999E+003 -9.999E+003 -9.999E+003 -9.999E+003 -9.999E+003 -9.999E+003 -9.999E+003 -9.999E+003 -9.999E+003 -9.999E+003 -9.999E+003 -9.999E+003 -9.999E+003 -9.999E+003 -9.999E+003 -9.999E+003 -9.999E+003 -9.999E+003 -9.999E+003 -9.999E+003 -9.999E+003 -9.999E+003 -9.999E+003 -9.999E+003 -9.999E+003 -9.999E+003 -9.999E+003 -9.999E+003 -9.999E+003 -9.999E+003 -9.999E+003 -9.999E+003 -9.999E+003 -9.999E+003 -9.999E+003 -9.999E+003 -9.999E+003 -9.999E+003 -9.999E+003 -9.999E+003 -9.999E+003 -9.999E+003 -9.999E+003 -9.999E+003 -9.999E+003 -9.999E+003 -9.999E+003 -9.999E+003 -9.999E+003 -9.999E+003 -9.999E+003 -9.999E+003 -9.999E+003 -9.999E+003 -9.999E+003 -9.999E+003
 -9.999E+003 -9.999E+003 -9.999E+003 -9.999E+003 -9.999E+003 -9.999E+003 -9.999E+003 -9.999E+003 -9.999E+003 -9.999E+003 -9.999E+003 -9.999E+003 -9.999E+003 -9.999E+003 -9.999E+003 -9.999E+003 -9.999E+003 -9.999E+003 -9.999E+003 -9.999E+003 -9.999E+003 -9.999E+003 -9.999E+003 -9.999E+003 -9.999E+003 -9.999E+003 -9.999E+003 -9.999E+003 -9.999E+003 -9.999E+003 -9.999E+003 -9.999E+003 -9.999E+003 -9.999E+003 -9.999E+003 -9.999E+003 -9.999E+003 -9.999E+003 -9.999E+003 -9.999E+003 -9.999E+003 -9.999E+003 -9.999E+003 -9.999E+003 -9.999E+003 -9.999E+003 -9.999E+003 -9.999E+003 -9.999E+003 -9.999E+003 -9.999E+003 -9.999E+003 -9.999E+003 -9.999E+003 -9.999E+003 -9.999E+003 -9.999E+003 -9.999E+003 -9.999E+003 -9.999E+003 -9.999E+003 -9.999E+003 -9.999E+003 -9.999E+003 -9.999E+003 -9.999E+003 -9.999E+003 -9.999E+003 -9.999E+003 -9.999E+003 -9.999E+003 -9.999E+003 -9.999E+003 -9.999E+003 -9.999E+003 -9.999E+003 -9.999E+003 -9.999E+003 -9.999E+003 -9.999E+003 -9.999E+003 -9.999E+003 -9.999E+003 -9.999E+003 -9.999E+003 -9.999E+003 -9.999E+003 -9.999E+003 -9.999E+003 -9.999E+003 -9.999E+003 -9.999E+003 -9.999E+003 -9.999E+003 -9.999E+003 -9.999E+003 -9.999E+003 -9.999E+003 -9.999E+003 -9.999E+003 -9.999E+003 -9.999E+003 -9.999E+003 -9.999E+003 -9.999E+003 -9.999E+003 -9.999E+003 -9.999E+003 -9.999E+003 -9.999E+003 -9.999E+003 -9.999E+003 -9.999E+003 -9.999E+003 -9.999E+003 -9.999E+003 -9.999E+003 -9.999E+003 -9.999E+003 -9.999E+003 -9.999E+003 -9.999E+003 -9.999E+003 -9.999E+003 -9.999E+003 -9.999E+003 -9.999E+003 -9.999E+003 -9.999E+003 -9.999E+003 -9.999E+003 -9.999E+003 -9.999E+003 -9.999E+003 -9.999E+003 -9.999E+003 -9.999E+003 -9.999E+003 -9.999E+003 -9.999E+003 -9.999E+003 -9.999E+003 -9.999E+003 -9.999E+003 -9.999E+003 -9.999E+003 -9.999E+003 -9.999E+003 -9.999E+003 -9.999E+003
 -9.999E+003 -9.999E+003 -9.999E+003 -9.999E+003 -9.999E+003 -9.999E+003 -9.999E+003 -9.999E+003 -9.999E+003 -9.999E+003 -9.999E+003 -9.999E+003 -9.999E+003 -9.999E+003 -9.999E+003 -9.999E+003 -9.999E+003 -9.999E+003 -9.999E+003 -9.999E+003 -9.999E+003 -9.999E+003 -9.999E+003 -9.999E+003 -9.999E+003 -9.999E+003 -9.999E+003 -9.999E+003 -9.999E+003 -9.999E+003 -9.999E+003 -9.999E+003 -9.999E+003 -9.999E+003 -9.999E+003 -9.999E+003 -9.999E+003 -9.999E+003 -9.999E+003 -9.999E+003 -9.999E+003 -9.999E+003 -9.999E+003 -9.999E+003 -9.999E+003 -9.999E+003 -9.999E+003 -9.999E+003 -9.999E+003 -9.999E+003 -9.999E+003 -9.999E+003 -9.999E+003 -9.999E+003 -9.999E+003 -9.999E+003 -9.999E+003 -9.999E+003 -9.999E+003 -9.999E+003 -9.999E+003 -9.999E+003 -9.999E+003 -9.999E+003 -9.999E+003 -9.999E+003 -9.999E+003 -9.999E+003 -9.999E+003 -9.999E+003 -9.999E+003 -9.999E+003 -9.999E+003 -9.999E+003 -9.999E+003 -9.999E+003 -9.999E+003 -9.999E+003 -9.999E+003 -9.999E+003 -9.999E+003 -9.999E+003 -9.999E+003 -9.999E+003 -9.999E+003 -9.999E+003 -9.999E+003 -9.999E+003 -9.999E+003 -9.999E+003 -9.999E+003 -9.999E+003 -9.999E+003 -9.999E+003 -9.999E+003 -9.999E+003 -9.999E+003 -9.999E+003 -9.999E+003 -9.999E+003 -9.999E+003 -9.999E+003 -9.999E+003 -9.999E+003 -9.999E+003 -9.999E+003 -9.999E+003 -9.999E+003 -9.999E+003 -9.999E+003 -9.999E+003 -9.999E+003 -9.999E+003 -9.999E+003 -9.999E+003 -9.999E+003 -9.999E+003 -9.999E+003 -9.999E+003 -9.999E+003 -9.999E+003 -9.999E+003 -9.999E+003 -9.999E+003 -9.999E+003 -9.999E+003 -9.999E+003 -9.999E+003 -9.999E+003 -9.999E+003 -9.999E+003 -9.999E+003 -9.999E+003 -9.999E+003 -9.999E+003 -9.999E+003 -9.999E+003 -9.999E+003 -9.999E+003 -9.999E+003 -9.999E+003 -9.999E+003 -9.999E+003 -9.999E+003 -9.999E+003 -9.999E+003 -9.999E+003 -9.999E+003 -9.999E+003 -9.999E+003
