ncols   150
nrows   200
xllcorner      445700.000
yllcorner     3916450.000
cellsize          40.000
NODATA_value -9999
 -9.999E+003 -9.999E+003 -9.999E+003 -9.999E+003 -9.999E+003 -9.999E+003 -9.999E+003 -9.999E+003 -9.999E+003 -9.999E+003 -9.999E+003 -9.999E+003 -9.999E+003 -9.999E+003 -9.999E+003 -9.999E+003 -9.999E+003 -9.999E+003 -9.999E+003 -9.999E+003 -9.999E+003 -9.999E+003 -9.999E+003 -9.999E+003 -9.999E+003 -9.999E+003 -9.999E+003 -9.999E+003 -9.999E+003 -9.999E+003 -9.999E+003 -9.999E+003 -9.999E+003 -9.999E+003 -9.999E+003 -9.999E+003 -9.999E+003 -9.999E+003 -9.999E+003 -9.999E+003 -9.999E+003 -9.999E+003 -9.999E+003 -9.999E+003 -9.999E+003 -9.999E+003 -9.999E+003 -9.999E+003 -9.999E+003 -9.999E+003 -9.999E+003 -9.999E+003 -9.999E+003 -9.999E+003 -9.999E+003 -9.999E+003 -9.999E+003 -9.999E+003 -9.999E+003 -9.999E+003 -9.999E+003 -9.999E+003 -9.999E+003 -9.999E+003 -9.999E+003 -9.999E+003 -9.999E+003 -9.999E+003 -9.999E+003 -9.999E+003 -9.999E+003 -9.999E+003 -9.999E+003 -9.999E+003 -9.999E+003 -9.999E+003 -9.999E+003 -9.999E+003 -9.999E+003 -9.999E+003 -9.999E+003 -9.999E+003 -9.999E+003 -9.999E+003 -9.999E+003 -9.999E+003 -9.999E+003 -9.999E+003 -9.999E+003 -9.999E+003 -9.999E+003 -9.999E+003 -9.999E+003 -9.999E+003 -9.999E+003 -9.999E+003 -9.999E+003 -9.999E+003 -9.999E+003 -9.999E+003 -9.999E+003 -9.999E+003 -9.999E+003 -9.999E+003 -9.999E+003 -9.999E+003 -9.999E+003 -9.999E+003 -9.999E+003 -9.999E+003 -9.999E+003 -9.999E+003 -9.999E+003 -9.999E+003 -9.999E+003 -9.999E+003 -9.999E+003 -9.999E+003 -9.999E+003 -9.999E+003 -9.999E+003 -9.999E+003 -9.999E+003 -9.999E+003 -9.999E+003 -9.999E+003 -9.999E+003 -9.999E+003 -9.999E+003 -9.999E+003 -9.999E+003 -9.999E+003 -9.999E+003 -9.999E+003 -9.999E+003 -9.999E+003 -9.999E+003 -9.999E+003 -9.999E+003 -9.999E+003 -9.999E+003 -9.999E+003 -9.999E+003 -9.999E+003 -9.999E+003 -9.999E+003 -9.999E+003 -9.999E+003 -9.999E+003 -9.999E+003
 -9.999E+003 -9.999E+003 -9.999E+003 -9.999E+003 -9.999E+003 -9.999E+003 -9.999E+003 -9.999E+003 -9.999E+003 -9.999E+003 -9.999E+003 -9.999E+003 -9.999E+003 -9.999E+003 -9.999E+003 -9.999E+003 -9.999E+003 -9.999E+003 -9.999E+003 -9.999E+003 -9.999E+003 -9.999E+003 -9.999E+003 -9.999E+003 -9.999E+003 -9.999E+003 -9.999E+003 -9.999E+003 -9.999E+003 -9.999E+003 -9.999E+003 -9.999E+003 -9.999E+003 -9.999E+003 -9.999E+003 -9.999E+003 -9.999E+003 -9.999E+003 -9.999E+003 -9.999E+003 -9.999E+003 -9.999E+003 -9.999E+003 -9.999E+003 -9.999E+003 -9.999E+003 -9.999E+003 -9.999E+003 -9.999E+003 -9.999E+003 -9.999E+003 -9.999E+003 -9.999E+003 -9.999E+003 -9.999E+003 -9.999E+003 -9.999E+003 -9.999E+003 -9.999E+003 -9.999E+003 -9.999E+003 -9.999E+003 -9.999E+003 -9.999E+003 -9.999E+003 -9.999E+003 -9.999E+003 -9.999E+003 -9.999E+003 -9.999E+003 -9.999E+003 -9.999E+003 -9.999E+003 -9.999E+003 -9.999E+003 -9.999E+003 -9.999E+003 -9.999E+003 -9.999E+003 -9.999E+003 -9.999E+003 -9.999E+003 -9.999E+003 -9.999E+003 -9.999E+003 -9.999E+003 -9.999E+003 -9.999E+003 -9.999E+003 -9.999E+003 -9.999E+003 -9.999E+003 -9.999E+003 -9.999E+003 -9.999E+003 -9.999E+003 -9.999E+003 -9.999E+003 -9.999E+003 -9.999E+003 -9.999E+003 -9.999E+003 -9.999E+003 -9.999E+003 -9.999E+003 -9.999E+003 -9.999E+003 -9.999E+003 -9.999E+003 -9.999E+003 -9.999E+003 -9.999E+003 -9.999E+003 -9.999E+003 -9.999E+003 -9.999E+003 -9.999E+003 -9.999E+003 -9.999E+003 -9.999E+003 -9.999E+003 -9.999E+003 -9.999E+003 -9.999E+003 -9.999E+003 -9.999E+003 -9.999E+003 -9.999E+003 -9.999E+003 -9.999E+003 -9.999E+003 -9.999E+003 -9.999E+003 -9.999E+003 -9.999E+003 -9.999E+003 -9.999E+003 -9.999E+003 -9.999E+003 -9.999E+003 -9.999E+003 -9.999E+003 -9.999E+003 -9.999E+003 -9.999E+003 -9.999E+003 -9.999E+003 -9.999E+003 -9.999E+003 -9.999E+003
 -9.999E+003 -9.999E+003 -9.999E+003 -9.999E+003 -9.999E+003 -9.999E+003 -9.999E+003 -9.999E+003 -9.999E+003 -9.999E+003 -9.999E+003 -9.999E+003 -9.999E+003 -9.999E+003 -9.999E+003 -9.999E+003 -9.999E+003 -9.999E+003 -9.999E+003 -9.999E+003 -9.999E+003 -9.999E+003 -9.999E+003 -9.999E+003 -9.999E+003 -9.999E+003 -9.999E+003 -9.999E+003 -9.999E+003 -9.999E+003 -9.999E+003 -9.999E+003 -9.999E+003 -9.999E+003 -9.999E+003 -9.999E+003 -9.999E+003 -9.999E+003 -9.999E+003 -9.999E+003 -9.999E+003 -9.999E+003 -9.999E+003 -9.999E+003 -9.999E+003 -9.999E+003 -9.999E+003 -9.999E+003 -9.999E+003 -9.999E+003 -9.999E+003 -9.999E+003 -9.999E+003 -9.999E+003 -9.999E+003 -9.999E+003 -9.999E+003 -9.999E+003 -9.999E+003 -9.999E+003 -9.999E+003 -9.999E+003 -9.999E+003 -9.999E+003 -9.999E+003 -9.999E+003 -9.999E+003 -9.999E+003 -9.999E+003 -9.999E+003 -9.999E+003 -9.999E+003 -9.999E+003 -9.999E+003 -9.999E+003 -9.999E+003 -9.999E+003 -9.999E+003 -9.999E+003 -9.999E+003 -9.999E+003 -9.999E+003 -9.999E+003 -9.999E+003 -9.999E+003 -9.999E+003 -9.999E+003 -9.999E+003 -9.999E+003 -9.999E+003 -9.999E+003 -9.999E+003 -9.999E+003 -9.999E+003 -9.999E+003 -9.999E+003 -9.999E+003 -9.999E+003 -9.999E+003 -9.999E+003 -9.999E+003 -9.999E+003 -9.999E+003 -9.999E+003 -9.999E+003 -9.999E+003 -9.999E+003 -9.999E+003 -9.999E+003 -9.999E+003 -9.999E+003 -9.999E+003 -9.999E+003 -9.999E+003 -9.999E+003 -9.999E+003 -9.999E+003 -9.999E+003 -9.999E+003 -9.999E+003 -9.999E+003 -9.999E+003 -9.999E+003 -9.999E+003 -9.999E+003 -9.999E+003 -9.999E+003 -9.999E+003 -9.999E+003 -9.999E+003 -9.999E+003 -9.999E+003 -9.999E+003 -9.999E+003 -9.999E+003 -9.999E+003 -9.999E+003 -9.999E+003 -9.999E+003 -9.999E+003 -9.999E+003 -9.999E+003 -9.999E+003 -9.999E+003 -9.999E+003 -9.999E+003 -9.999E+003 -9.999E+003 -9.999E+003 -9.999E+003
 -9.999E+003 -9.999E+003 -9.999E+003 -9.999E+003 -9.999E+003 -9.999E+003 -9.999E+003 -9.999E+003 -9.999E+003 -9.999E+003 -9.999E+003 -9.999E+003 -9.999E+003 -9.999E+003 -9.999E+003 -9.999E+003 -9.999E+003 -9.999E+003 -9.999E+003 -9.999E+003 -9.999E+003 -9.999E+003 -9.999E+003 -9.999E+003 -9.999E+003 -9.999E+003 -9.999E+003 -9.999E+003 -9.999E+003 -9.999E+003 -9.999E+003 -9.999E+003 -9.999E+003 -9.999E+003 -9.999E+003 -9.999E+003 -9.999E+003 -9.999E+003 -9.999E+003 -9.999E+003 -9.999E+003 -9.999E+003 -9.999E+003 -9.999E+003 -9.999E+003 -9.999E+003 -9.999E+003 -9.999E+003 -9.999E+003 -9.999E+003 -9.999E+003 -9.999E+003 -9.999E+003 -9.999E+003 -9.999E+003 -9.999E+003 -9.999E+003 -9.999E+003 -9.999E+003 -9.999E+003 -9.999E+003 -9.999E+003 -9.999E+003 -9.999E+003 -9.999E+003 -9.999E+003 -9.999E+003 -9.999E+003 -9.999E+003 -9.999E+003 -9.999E+003 -9.999E+003 -9.999E+003 -9.999E+003 -9.999E+003 -9.999E+003 -9.999E+003 -9.999E+003 -9.999E+003 -9.999E+003 -9.999E+003 -9.999E+003 -9.999E+003 -9.999E+003 -9.999E+003 -9.999E+003 -9.999E+003 -9.999E+003 -9.999E+003 -9.999E+003 -9.999E+003 -9.999E+003 -9.999E+003 -9.999E+003 -9.999E+003 -9.999E+003 -9.999E+003 -9.999E+003 -9.999E+003 -9.999E+003 -9.999E+003 -9.999E+003 -9.999E+003 -9.999E+003 -9.999E+003 -9.999E+003 -9.999E+003 -9.999E+003 -9.999E+003 -9.999E+003 -9.999E+003 -9.999E+003 -9.999E+003 -9.999E+003 -9.999E+003 -9.999E+003 -9.999E+003 -9.999E+003 -9.999E+003 -9.999E+003 -9.999E+003 -9.999E+003 -9.999E+003 -9.999E+003 -9.999E+003 -9.999E+003 -9.999E+003 -9.999E+003 -9.999E+003 -9.999E+003 -9.999E+003 -9.999E+003 -9.999E+003 -9.999E+003 -9.999E+003 -9.999E+003 -9.999E+003 -9.999E+003 -9.999E+003 -9.999E+003 -9.999E+003 -9.999E+003 -9.999E+003 -9.999E+003 -9.999E+003 -9.999E+003 -9.999E+003 -9.999E+003 -9.999E+003 -9.999E+003
 -9.999E+003 -9.999E+003 -9.999E+003 -9.999E+003 -9.999E+003 -9.999E+003 -9.999E+003 -9.999E+003 -9.999E+003 -9.999E+003 -9.999E+003 -9.999E+003 -9.999E+003 -9.999E+003 -9.999E+003 -9.999E+003 -9.999E+003 -9.999E+003 -9.999E+003 -9.999E+003 -9.999E+003 -9.999E+003 -9.999E+003 -9.999E+003 -9.999E+003 -9.999E+003 -9.999E+003 -9.999E+003 -9.999E+003 -9.999E+003 -9.999E+003 -9.999E+003 -9.999E+003 -9.999E+003 -9.999E+003 -9.999E+003 -9.999E+003 -9.999E+003 -9.999E+003 -9.999E+003 -9.999E+003 -9.999E+003 -9.999E+003 -9.999E+003 -9.999E+003 -9.999E+003 -9.999E+003 -9.999E+003 -9.999E+003 -9.999E+003 -9.999E+003 -9.999E+003 -9.999E+003 -9.999E+003 -9.999E+003 -9.999E+003 -9.999E+003 -9.999E+003 -9.999E+003 -9.999E+003 -9.999E+003 -9.999E+003 -9.999E+003 -9.999E+003 -9.999E+003 -9.999E+003 -9.999E+003 -9.999E+003 -9.999E+003 -9.999E+003 -9.999E+003 -9.999E+003 -9.999E+003 -9.999E+003 -9.999E+003 -9.999E+003 -9.999E+003 -9.999E+003 -9.999E+003 -9.999E+003 -9.999E+003 -9.999E+003 -9.999E+003 -9.999E+003 -9.999E+003 -9.999E+003 -9.999E+003 -9.999E+003 -9.999E+003 -9.999E+003 -9.999E+003 -9.999E+003 -9.999E+003 -9.999E+003 -9.999E+003 -9.999E+003 -9.999E+003 -9.999E+003 -9.999E+003 -9.999E+003 -9.999E+003 -9.999E+003 -9.999E+003 -9.999E+003 -9.999E+003 -9.999E+003 -9.999E+003 -9.999E+003 -9.999E+003 -9.999E+003 -9.999E+003 -9.999E+003 -9.999E+003 -9.999E+003 -9.999E+003 -9.999E+003 -9.999E+003 -9.999E+003 -9.999E+003 -9.999E+003 -9.999E+003 -9.999E+003 -9.999E+003 -9.999E+003 -9.999E+003 -9.999E+003 -9.999E+003 -9.999E+003 -9.999E+003 -9.999E+003 -9.999E+003 -9.999E+003 -9.999E+003 -9.999E+003 -9.999E+003 -9.999E+003 -9.999E+003 -9.999E+003 -9.999E+003 -9.999E+003 -9.999E+003 -9.999E+003 -9.999E+003 -9.999E+003 -9.999E+003 -9.999E+003 -9.999E+003 -9.999E+003 -9.999E+003 -9.999E+003
 -9.999E+003 -9.999E+003 -9.999E+003 -9.999E+003 -9.999E+003 -9.999E+003 -9.999E+003 -9.999E+003 -9.999E+003 -9.999E+003 -9.999E+003 -9.999E+003 -9.999E+003 -9.999E+003 -9.999E+003 -9.999E+003 -9.999E+003 -9.999E+003 -9.999E+003 -9.999E+003 -9.999E+003 -9.999E+003 -9.999E+003 -9.999E+003 -9.999E+003 -9.999E+003 -9.999E+003 -9.999E+003 -9.999E+003 -9.999E+003 -9.999E+003 -9.999E+003 -9.999E+003 -9.999E+003 -9.999E+003 -9.999E+003 -9.999E+003 -9.999E+003 -9.999E+003 -9.999E+003 -9.999E+003 -9.999E+003 -9.999E+003 -9.999E+003 -9.999E+003 -9.999E+003 -9.999E+003 -9.999E+003 -9.999E+003 -9.999E+003 -9.999E+003 -9.999E+003 -9.999E+003 -9.999E+003 -9.999E+003 -9.999E+003 -9.999E+003 -9.999E+003 -9.999E+003 -9.999E+003 -9.999E+003 -9.999E+003 -9.999E+003 -9.999E+003 -9.999E+003 -9.999E+003 -9.999E+003 -9.999E+003 -9.999E+003 -9.999E+003 -9.999E+003 -9.999E+003 -9.999E+003 -9.999E+003 -9.999E+003 -9.999E+003 -9.999E+003 -9.999E+003 -9.999E+003 -9.999E+003 -9.999E+003 -9.999E+003 -9.999E+003 -9.999E+003 -9.999E+003 -9.999E+003 -9.999E+003 -9.999E+003 -9.999E+003 -9.999E+003 -9.999E+003 -9.999E+003 -9.999E+003 -9.999E+003 -9.999E+003 -9.999E+003 -9.999E+003 -9.999E+003 -9.999E+003 -9.999E+003 -9.999E+003 -9.999E+003 -9.999E+003 -9.999E+003 -9.999E+003 -9.999E+003 -9.999E+003 -9.999E+003 -9.999E+003 -9.999E+003 -9.999E+003 -9.999E+003 -9.999E+003 -9.999E+003 -9.999E+003 -9.999E+003 -9.999E+003 -9.999E+003 -9.999E+003 -9.999E+003 -9.999E+003 -9.999E+003 -9.999E+003 -9.999E+003 -9.999E+003 -9.999E+003 -9.999E+003 -9.999E+003 -9.999E+003 -9.999E+003 -9.999E+003 -9.999E+003 -9.999E+003 -9.999E+003 -9.999E+003 -9.999E+003 -9.999E+003 -9.999E+003 -9.999E+003 -9.999E+003 -9.999E+003 -9.999E+003 -9.999E+003 -9.999E+003 -9.999E+003 -9.999E+003 -9.999E+003 -9.999E+003 -9.999E+003 -9.999E+003
 -9.999E+003 -9.999E+003 -9.999E+003 -9.999E+003 -9.999E+003 -9.999E+003 -9.999E+003 -9.999E+003 -9.999E+003 -9.999E+003 -9.999E+003 -9.999E+003 -9.999E+003 -9.999E+003 -9.999E+003 -9.999E+003 -9.999E+003 -9.999E+003 -9.999E+003 -9.999E+003 -9.999E+003 -9.999E+003 -9.999E+003 -9.999E+003 -9.999E+003 -9.999E+003 -9.999E+003 -9.999E+003 -9.999E+003 -9.999E+003 -9.999E+003 -9.999E+003 -9.999E+003 -9.999E+003 -9.999E+003 -9.999E+003 -9.999E+003 -9.999E+003 -9.999E+003 -9.999E+003 -9.999E+003 -9.999E+003 -9.999E+003 -9.999E+003 -9.999E+003 -9.999E+003 -9.999E+003 -9.999E+003 -9.999E+003 -9.999E+003 -9.999E+003 -9.999E+003 -9.999E+003 -9.999E+003 -9.999E+003 -9.999E+003 -9.999E+003 -9.999E+003 -9.999E+003 -9.999E+003 -9.999E+003 -9.999E+003 -9.999E+003 -9.999E+003 -9.999E+003 -9.999E+003 -9.999E+003 -9.999E+003 -9.999E+003 -9.999E+003 -9.999E+003 -9.999E+003 -9.999E+003 -9.999E+003 -9.999E+003 -9.999E+003 -9.999E+003 -9.999E+003 -9.999E+003 -9.999E+003 -9.999E+003 -9.999E+003 -9.999E+003 -9.999E+003 -9.999E+003 -9.999E+003 -9.999E+003 -9.999E+003 -9.999E+003 -9.999E+003 -9.999E+003 -9.999E+003 -9.999E+003 -9.999E+003 -9.999E+003 -9.999E+003 -9.999E+003 -9.999E+003 -9.999E+003 -9.999E+003 -9.999E+003 -9.999E+003 -9.999E+003 -9.999E+003 -9.999E+003 -9.999E+003 -9.999E+003 -9.999E+003 -9.999E+003 -9.999E+003 -9.999E+003 -9.999E+003 -9.999E+003 -9.999E+003 -9.999E+003 -9.999E+003 -9.999E+003 -9.999E+003 -9.999E+003 -9.999E+003 -9.999E+003 -9.999E+003 -9.999E+003 -9.999E+003 -9.999E+003 -9.999E+003 -9.999E+003 -9.999E+003 -9.999E+003 -9.999E+003 -9.999E+003 -9.999E+003 -9.999E+003 -9.999E+003 -9.999E+003 -9.999E+003 -9.999E+003 -9.999E+003 -9.999E+003 -9.999E+003 -9.999E+003 -9.999E+003 -9.999E+003 -9.999E+003 -9.999E+003 -9.999E+003 -9.999E+003 -9.999E+003 -9.999E+003 -9.999E+003
 -9.999E+003 -9.999E+003 -9.999E+003 -9.999E+003 -9.999E+003 -9.999E+003 -9.999E+003 -9.999E+003 -9.999E+003 -9.999E+003 -9.999E+003 -9.999E+003 -9.999E+003 -9.999E+003 -9.999E+003 -9.999E+003 -9.999E+003 -9.999E+003 -9.999E+003 -9.999E+003 -9.999E+003 -9.999E+003 -9.999E+003 -9.999E+003 -9.999E+003 -9.999E+003 -9.999E+003 -9.999E+003 -9.999E+003 -9.999E+003 -9.999E+003 -9.999E+003 -9.999E+003 -9.999E+003 -9.999E+003 -9.999E+003 -9.999E+003 -9.999E+003 -9.999E+003 -9.999E+003 -9.999E+003 -9.999E+003 -9.999E+003 -9.999E+003 -9.999E+003 -9.999E+003 -9.999E+003 -9.999E+003 -9.999E+003 -9.999E+003 -9.999E+003 -9.999E+003 -9.999E+003 -9.999E+003 -9.999E+003 -9.999E+003 -9.999E+003 -9.999E+003 -9.999E+003 -9.999E+003 -9.999E+003 -9.999E+003 -9.999E+003 -9.999E+003 -9.999E+003 -9.999E+003 -9.999E+003 -9.999E+003 -9.999E+003 -9.999E+003 -9.999E+003 -9.999E+003 -9.999E+003 -9.999E+003 -9.999E+003 -9.999E+003 -9.999E+003 -9.999E+003 -9.999E+003 -9.999E+003 -9.999E+003 -9.999E+003 -9.999E+003 -9.999E+003 -9.999E+003 -9.999E+003 -9.999E+003 -9.999E+003 -9.999E+003 -9.999E+003 -9.999E+003 -9.999E+003 -9.999E+003 -9.999E+003 -9.999E+003 -9.999E+003 -9.999E+003 -9.999E+003 -9.999E+003 -9.999E+003 -9.999E+003 -9.999E+003 -9.999E+003 -9.999E+003 -9.999E+003 -9.999E+003 -9.999E+003 -9.999E+003 -9.999E+003 -9.999E+003 -9.999E+003 -9.999E+003 -9.999E+003 -9.999E+003 -9.999E+003 -9.999E+003 -9.999E+003 -9.999E+003 -9.999E+003 -9.999E+003 -9.999E+003 -9.999E+003 -9.999E+003 -9.999E+003 -9.999E+003 -9.999E+003 -9.999E+003 -9.999E+003 -9.999E+003 -9.999E+003 -9.999E+003 -9.999E+003 -9.999E+003 -9.999E+003 -9.999E+003 -9.999E+003 -9.999E+003 -9.999E+003 -9.999E+003 -9.999E+003 -9.999E+003 -9.999E+003 -9.999E+003 -9.999E+003 -9.999E+003 -9.999E+003 -9.999E+003 -9.999E+003 -9.999E+003 -9.999E+003
 -9.999E+003 -9.999E+003 -9.999E+003 -9.999E+003 -9.999E+003 -9.999E+003 -9.999E+003 -9.999E+003 -9.999E+003 -9.999E+003 -9.999E+003 -9.999E+003 -9.999E+003 -9.999E+003 -9.999E+003 -9.999E+003 -9.999E+003 -9.999E+003 -9.999E+003 -9.999E+003 -9.999E+003 -9.999E+003 -9.999E+003 -9.999E+003 -9.999E+003 -9.999E+003 -9.999E+003 -9.999E+003 -9.999E+003 -9.999E+003 -9.999E+003 -9.999E+003 -9.999E+003 -9.999E+003 -9.999E+003 -9.999E+003 -9.999E+003 -9.999E+003 -9.999E+003 -9.999E+003 -9.999E+003 -9.999E+003 -9.999E+003 -9.999E+003 -9.999E+003 -9.999E+003 -9.999E+003 -9.999E+003 -9.999E+003 -9.999E+003 -9.999E+003 -9.999E+003 -9.999E+003 -9.999E+003 -9.999E+003 -9.999E+003 -9.999E+003 -9.999E+003 -9.999E+003 -9.999E+003 -9.999E+003 -9.999E+003 -9.999E+003 -9.999E+003 -9.999E+003 -9.999E+003 -9.999E+003 -9.999E+003 -9.999E+003 -9.999E+003 -9.999E+003 -9.999E+003 -9.999E+003 -9.999E+003 -9.999E+003 -9.999E+003 -9.999E+003 -9.999E+003 -9.999E+003 -9.999E+003 -9.999E+003 -9.999E+003 -9.999E+003 -9.999E+003 -9.999E+003 -9.999E+003 -9.999E+003 -9.999E+003 -9.999E+003 -9.999E+003 -9.999E+003 -9.999E+003 -9.999E+003 -9.999E+003 -9.999E+003 -9.999E+003 -9.999E+003 -9.999E+003 -9.999E+003 -9.999E+003 -9.999E+003 -9.999E+003 -9.999E+003 -9.999E+003 -9.999E+003 -9.999E+003 -9.999E+003 -9.999E+003 -9.999E+003 -9.999E+003 -9.999E+003 -9.999E+003 -9.999E+003 -9.999E+003 -9.999E+003 -9.999E+003 -9.999E+003 -9.999E+003 -9.999E+003 -9.999E+003 -9.999E+003 -9.999E+003 -9.999E+003 -9.999E+003 -9.999E+003 -9.999E+003 -9.999E+003 -9.999E+003 -9.999E+003 -9.999E+003 -9.999E+003 -9.999E+003 -9.999E+003 -9.999E+003 -9.999E+003 -9.999E+003 -9.999E+003 -9.999E+003 -9.999E+003 -9.999E+003 -9.999E+003 -9.999E+003 -9.999E+003 -9.999E+003 -9.999E+003 -9.999E+003 -9.999E+003 -9.999E+003 -9.999E+003 -9.999E+003
 -9.999E+003 -9.999E+003 -9.999E+003 -9.999E+003 -9.999E+003 -9.999E+003 -9.999E+003 -9.999E+003 -9.999E+003 -9.999E+003 -9.999E+003 -9.999E+003 -9.999E+003 -9.999E+003 -9.999E+003 -9.999E+003 -9.999E+003 -9.999E+003 -9.999E+003 -9.999E+003 -9.999E+003 -9.999E+003 -9.999E+003 -9.999E+003 -9.999E+003 -9.999E+003 -9.999E+003 -9.999E+003 -9.999E+003 -9.999E+003 -9.999E+003 -9.999E+003 -9.999E+003 -9.999E+003 -9.999E+003 -9.999E+003 -9.999E+003 -9.999E+003 -9.999E+003 -9.999E+003 -9.999E+003 -9.999E+003 -9.999E+003 -9.999E+003 -9.999E+003 -9.999E+003 -9.999E+003 -9.999E+003 -9.999E+003 -9.999E+003 -9.999E+003 -9.999E+003 -9.999E+003 -9.999E+003 -9.999E+003 -9.999E+003 -9.999E+003 -9.999E+003 -9.999E+003 -9.999E+003 -9.999E+003 -9.999E+003 -9.999E+003 -9.999E+003 -9.999E+003 -9.999E+003 -9.999E+003 -9.999E+003 -9.999E+003 -9.999E+003 -9.999E+003 -9.999E+003 -9.999E+003 -9.999E+003 -9.999E+003 -9.999E+003 -9.999E+003 -9.999E+003 -9.999E+003 -9.999E+003 -9.999E+003 -9.999E+003 -9.999E+003 -9.999E+003 -9.999E+003 -9.999E+003 -9.999E+003 -9.999E+003 -9.999E+003 -9.999E+003 -9.999E+003 -9.999E+003 -9.999E+003 -9.999E+003 -9.999E+003 -9.999E+003 -9.999E+003 -9.999E+003 -9.999E+003 -9.999E+003 -9.999E+003 -9.999E+003 -9.999E+003 -9.999E+003 -9.999E+003 -9.999E+003 -9.999E+003 -9.999E+003 -9.999E+003 -9.999E+003 -9.999E+003 -9.999E+003 -9.999E+003 -9.999E+003 -9.999E+003 -9.999E+003 -9.999E+003 -9.999E+003 -9.999E+003 -9.999E+003 -9.999E+003 -9.999E+003 -9.999E+003 -9.999E+003 -9.999E+003 -9.999E+003 -9.999E+003 -9.999E+003 -9.999E+003 -9.999E+003 -9.999E+003 -9.999E+003 -9.999E+003 -9.999E+003 -9.999E+003 -9.999E+003 -9.999E+003 -9.999E+003 -9.999E+003 -9.999E+003 -9.999E+003 -9.999E+003 -9.999E+003 -9.999E+003 -9.999E+003 -9.999E+003 -9.999E+003 -9.999E+003 -9.999E+003 -9.999E+003
 -9.999E+003 -9.999E+003 -9.999E+003 -9.999E+003 -9.999E+003 -9.999E+003 -9.999E+003 -9.999E+003 -9.999E+003 -9.999E+003 -9.999E+003 -9.999E+003 -9.999E+003 -9.999E+003 -9.999E+003 -9.999E+003 -9.999E+003 -9.999E+003 -9.999E+003 -9.999E+003 -9.999E+003 -9.999E+003 -9.999E+003 -9.999E+003 -9.999E+003 -9.999E+003 -9.999E+003 -9.999E+003 -9.999E+003 -9.999E+003 -9.999E+003 -9.999E+003 -9.999E+003 -9.999E+003 -9.999E+003 -9.999E+003 -9.999E+003 -9.999E+003 -9.999E+003 -9.999E+003 -9.999E+003 -9.999E+003 -9.999E+003 -9.999E+003 -9.999E+003 -9.999E+003 -9.999E+003 -9.999E+003 -9.999E+003 -9.999E+003 -9.999E+003 -9.999E+003 -9.999E+003 -9.999E+003 -9.999E+003 -9.999E+003 -9.999E+003 -9.999E+003 -9.999E+003 -9.999E+003 -9.999E+003 -9.999E+003 -9.999E+003 -9.999E+003 -9.999E+003 -9.999E+003 -9.999E+003 -9.999E+003 -9.999E+003 -9.999E+003 -9.999E+003 -9.999E+003 -9.999E+003 -9.999E+003 -9.999E+003 -9.999E+003 -9.999E+003 -9.999E+003 -9.999E+003 -9.999E+003 -9.999E+003 -9.999E+003 -9.999E+003 -9.999E+003 -9.999E+003 -9.999E+003 -9.999E+003 -9.999E+003 -9.999E+003 -9.999E+003 -9.999E+003 -9.999E+003 -9.999E+003 -9.999E+003 -9.999E+003 -9.999E+003 -9.999E+003 -9.999E+003 -9.999E+003 -9.999E+003 -9.999E+003 -9.999E+003 -9.999E+003 -9.999E+003 -9.999E+003 -9.999E+003 -9.999E+003 -9.999E+003 -9.999E+003 -9.999E+003 -9.999E+003 -9.999E+003 -9.999E+003 -9.999E+003 -9.999E+003 -9.999E+003 -9.999E+003 -9.999E+003 -9.999E+003 -9.999E+003 -9.999E+003 -9.999E+003 -9.999E+003 -9.999E+003 -9.999E+003 -9.999E+003 -9.999E+003 -9.999E+003 -9.999E+003 -9.999E+003 -9.999E+003 -9.999E+003 -9.999E+003 -9.999E+003 -9.999E+003 -9.999E+003 -9.999E+003 -9.999E+003 -9.999E+003 -9.999E+003 -9.999E+003 -9.999E+003 -9.999E+003 -9.999E+003 -9.999E+003 -9.999E+003 -9.999E+003 -9.999E+003 -9.999E+003 -9.999E+003
 -9.999E+003 -9.999E+003 -9.999E+003 -9.999E+003 -9.999E+003 -9.999E+003 -9.999E+003 -9.999E+003 -9.999E+003 -9.999E+003 -9.999E+003 -9.999E+003 -9.999E+003 -9.999E+003 -9.999E+003 -9.999E+003 -9.999E+003 -9.999E+003 -9.999E+003 -9.999E+003 -9.999E+003 -9.999E+003 -9.999E+003 -9.999E+003 -9.999E+003 -9.999E+003 -9.999E+003 -9.999E+003 -9.999E+003 -9.999E+003 -9.999E+003 -9.999E+003 -9.999E+003 -9.999E+003 -9.999E+003 -9.999E+003 -9.999E+003 -9.999E+003 -9.999E+003 -9.999E+003 -9.999E+003 -9.999E+003 -9.999E+003 -9.999E+003 -9.999E+003 -9.999E+003 -9.999E+003 -9.999E+003 -9.999E+003 -9.999E+003 -9.999E+003 -9.999E+003 -9.999E+003 -9.999E+003 -9.999E+003 -9.999E+003 -9.999E+003 -9.999E+003 -9.999E+003 -9.999E+003 -9.999E+003 -9.999E+003 -9.999E+003 -9.999E+003 -9.999E+003 -9.999E+003 -9.999E+003 -9.999E+003 -9.999E+003 -9.999E+003 -9.999E+003 -9.999E+003 -9.999E+003 -9.999E+003 -9.999E+003 -9.999E+003 -9.999E+003 -9.999E+003 -9.999E+003 -9.999E+003 -9.999E+003 -9.999E+003 -9.999E+003 -9.999E+003 -9.999E+003 -9.999E+003 -9.999E+003 -9.999E+003 -9.999E+003 -9.999E+003 -9.999E+003 -9.999E+003 -9.999E+003 -9.999E+003 -9.999E+003 -9.999E+003 -9.999E+003 -9.999E+003 -9.999E+003 -9.999E+003 -9.999E+003 -9.999E+003 -9.999E+003 -9.999E+003 -9.999E+003 -9.999E+003 -9.999E+003 -9.999E+003 -9.999E+003 -9.999E+003 -9.999E+003 -9.999E+003 -9.999E+003 -9.999E+003 -9.999E+003 -9.999E+003 -9.999E+003 -9.999E+003 -9.999E+003 -9.999E+003 -9.999E+003 -9.999E+003 -9.999E+003 -9.999E+003 -9.999E+003 -9.999E+003 -9.999E+003 -9.999E+003 -9.999E+003 -9.999E+003 -9.999E+003 -9.999E+003 -9.999E+003 -9.999E+003 -9.999E+003 -9.999E+003 -9.999E+003 -9.999E+003 -9.999E+003 -9.999E+003 -9.999E+003 -9.999E+003 -9.999E+003 -9.999E+003 -9.999E+003 -9.999E+003 -9.999E+003 -9.999E+003 -9.999E+003 -9.999E+003
 -9.999E+003 -9.999E+003 -9.999E+003 -9.999E+003 -9.999E+003 -9.999E+003 -9.999E+003 -9.999E+003 -9.999E+003 -9.999E+003 -9.999E+003 -9.999E+003 -9.999E+003 -9.999E+003 -9.999E+003 -9.999E+003 -9.999E+003 -9.999E+003 -9.999E+003 -9.999E+003 -9.999E+003 -9.999E+003 -9.999E+003 -9.999E+003 -9.999E+003 -9.999E+003 -9.999E+003 -9.999E+003 -9.999E+003 -9.999E+003 -9.999E+003 -9.999E+003 -9.999E+003 -9.999E+003 -9.999E+003 -9.999E+003 -9.999E+003 -9.999E+003 -9.999E+003 -9.999E+003 -9.999E+003 -9.999E+003 -9.999E+003 -9.999E+003 -9.999E+003 -9.999E+003 -9.999E+003 -9.999E+003 -9.999E+003 -9.999E+003 -9.999E+003 -9.999E+003 -9.999E+003 -9.999E+003 -9.999E+003 -9.999E+003 -9.999E+003 -9.999E+003 -9.999E+003 -9.999E+003 -9.999E+003 -9.999E+003 -9.999E+003 -9.999E+003 -9.999E+003 -9.999E+003 -9.999E+003 -9.999E+003 -9.999E+003 -9.999E+003 -9.999E+003 -9.999E+003 -9.999E+003 -9.999E+003 -9.999E+003 -9.999E+003 -9.999E+003 -9.999E+003 -9.999E+003 -9.999E+003 -9.999E+003 -9.999E+003 -9.999E+003 -9.999E+003 -9.999E+003 -9.999E+003 -9.999E+003 -9.999E+003 -9.999E+003 -9.999E+003 -9.999E+003 -9.999E+003 -9.999E+003 -9.999E+003 -9.999E+003 -9.999E+003 -9.999E+003 -9.999E+003 -9.999E+003 -9.999E+003 -9.999E+003 -9.999E+003 -9.999E+003 -9.999E+003 -9.999E+003 -9.999E+003 -9.999E+003 -9.999E+003 -9.999E+003 -9.999E+003 -9.999E+003 -9.999E+003 -9.999E+003 -9.999E+003 -9.999E+003 -9.999E+003 -9.999E+003 -9.999E+003 -9.999E+003 -9.999E+003 -9.999E+003 -9.999E+003 -9.999E+003 -9.999E+003 -9.999E+003 -9.999E+003 -9.999E+003 -9.999E+003 -9.999E+003 -9.999E+003 -9.999E+003 -9.999E+003 -9.999E+003 -9.999E+003 -9.999E+003 -9.999E+003 -9.999E+003 -9.999E+003 -9.999E+003 -9.999E+003 -9.999E+003 -9.999E+003 -9.999E+003 -9.999E+003 -9.999E+003 -9.999E+003 -9.999E+003 -9.999E+003 -9.999E+003 -9.999E+003
 -9.999E+003 -9.999E+003 -9.999E+003 -9.999E+003 -9.999E+003 -9.999E+003 -9.999E+003 -9.999E+003 -9.999E+003 -9.999E+003 -9.999E+003 -9.999E+003 -9.999E+003 -9.999E+003 -9.999E+003 -9.999E+003 -9.999E+003 -9.999E+003 -9.999E+003 -9.999E+003 -9.999E+003 -9.999E+003 -9.999E+003 -9.999E+003 -9.999E+003 -9.999E+003 -9.999E+003 -9.999E+003 -9.999E+003 -9.999E+003 -9.999E+003 -9.999E+003 -9.999E+003 -9.999E+003 -9.999E+003 -9.999E+003 -9.999E+003 -9.999E+003 -9.999E+003 -9.999E+003 -9.999E+003 -9.999E+003 -9.999E+003 -9.999E+003 -9.999E+003 -9.999E+003 -9.999E+003 -9.999E+003 -9.999E+003 -9.999E+003 -9.999E+003 -9.999E+003 -9.999E+003 -9.999E+003 -9.999E+003 -9.999E+003 -9.999E+003 -9.999E+003 -9.999E+003 -9.999E+003 -9.999E+003 -9.999E+003 -9.999E+003 -9.999E+003 -9.999E+003 -9.999E+003 -9.999E+003 -9.999E+003 -9.999E+003 -9.999E+003 -9.999E+003 -9.999E+003 -9.999E+003 -9.999E+003 -9.999E+003 -9.999E+003 -9.999E+003 -9.999E+003 -9.999E+003 -9.999E+003 -9.999E+003 -9.999E+003 -9.999E+003 -9.999E+003 -9.999E+003 -9.999E+003 -9.999E+003 -9.999E+003 -9.999E+003 -9.999E+003 -9.999E+003 -9.999E+003 -9.999E+003 -9.999E+003 -9.999E+003 -9.999E+003 -9.999E+003 -9.999E+003 -9.999E+003 -9.999E+003 -9.999E+003 -9.999E+003 -9.999E+003 -9.999E+003 -9.999E+003 -9.999E+003 -9.999E+003 -9.999E+003 -9.999E+003 -9.999E+003 -9.999E+003 -9.999E+003 -9.999E+003 -9.999E+003 -9.999E+003 -9.999E+003 -9.999E+003 -9.999E+003 -9.999E+003 -9.999E+003 -9.999E+003 -9.999E+003 -9.999E+003 -9.999E+003 -9.999E+003 -9.999E+003 -9.999E+003 -9.999E+003 -9.999E+003 -9.999E+003 -9.999E+003 -9.999E+003 -9.999E+003 -9.999E+003 -9.999E+003 -9.999E+003 -9.999E+003 -9.999E+003 -9.999E+003 -9.999E+003 -9.999E+003 -9.999E+003 -9.999E+003 -9.999E+003 -9.999E+003 -9.999E+003 -9.999E+003 -9.999E+003 -9.999E+003 -9.999E+003
 -9.999E+003 -9.999E+003 -9.999E+003 -9.999E+003 -9.999E+003 -9.999E+003 -9.999E+003 -9.999E+003 -9.999E+003 -9.999E+003 -9.999E+003 -9.999E+003 -9.999E+003 -9.999E+003 -9.999E+003 -9.999E+003 -9.999E+003 -9.999E+003 -9.999E+003 -9.999E+003 -9.999E+003 -9.999E+003 -9.999E+003 -9.999E+003 -9.999E+003 -9.999E+003 -9.999E+003 -9.999E+003 -9.999E+003 -9.999E+003 -9.999E+003 -9.999E+003 -9.999E+003 -9.999E+003 -9.999E+003 -9.999E+003 -9.999E+003 -9.999E+003 -9.999E+003 -9.999E+003 -9.999E+003 -9.999E+003 -9.999E+003 -9.999E+003 -9.999E+003 -9.999E+003 -9.999E+003 -9.999E+003 -9.999E+003 -9.999E+003 -9.999E+003 -9.999E+003 -9.999E+003 -9.999E+003 -9.999E+003 -9.999E+003 -9.999E+003 -9.999E+003 -9.999E+003 -9.999E+003 -9.999E+003 -9.999E+003 -9.999E+003 -9.999E+003 -9.999E+003 -9.999E+003 -9.999E+003 -9.999E+003 -9.999E+003 -9.999E+003 -9.999E+003 -9.999E+003 -9.999E+003 -9.999E+003 -9.999E+003 -9.999E+003 -9.999E+003 -9.999E+003 -9.999E+003 -9.999E+003 -9.999E+003 -9.999E+003 -9.999E+003 -9.999E+003 -9.999E+003 -9.999E+003 -9.999E+003 -9.999E+003 -9.999E+003 -9.999E+003 -9.999E+003 -9.999E+003 -9.999E+003 -9.999E+003 -9.999E+003 -9.999E+003 -9.999E+003 -9.999E+003 -9.999E+003 -9.999E+003 -9.999E+003 -9.999E+003 -9.999E+003 -9.999E+003 -9.999E+003 -9.999E+003 -9.999E+003 -9.999E+003 -9.999E+003 -9.999E+003 -9.999E+003 -9.999E+003 -9.999E+003 -9.999E+003 -9.999E+003 -9.999E+003 -9.999E+003 -9.999E+003 -9.999E+003 -9.999E+003 -9.999E+003 -9.999E+003 -9.999E+003 -9.999E+003 -9.999E+003 -9.999E+003 -9.999E+003 -9.999E+003 -9.999E+003 -9.999E+003 -9.999E+003 -9.999E+003 -9.999E+003 -9.999E+003 -9.999E+003 -9.999E+003 -9.999E+003 -9.999E+003 -9.999E+003 -9.999E+003 -9.999E+003 -9.999E+003 -9.999E+003 -9.999E+003 -9.999E+003 -9.999E+003 -9.999E+003 -9.999E+003 -9.999E+003 -9.999E+003
 -9.999E+003 -9.999E+003 -9.999E+003 -9.999E+003 -9.999E+003 -9.999E+003 -9.999E+003 -9.999E+003 -9.999E+003 -9.999E+003 -9.999E+003 -9.999E+003 -9.999E+003 -9.999E+003 -9.999E+003 -9.999E+003 -9.999E+003 -9.999E+003 -9.999E+003 -9.999E+003 -9.999E+003 -9.999E+003 -9.999E+003 -9.999E+003 -9.999E+003 -9.999E+003 -9.999E+003 -9.999E+003 -9.999E+003 -9.999E+003 -9.999E+003 -9.999E+003 -9.999E+003 -9.999E+003 -9.999E+003 -9.999E+003 -9.999E+003 -9.999E+003 -9.999E+003 -9.999E+003 -9.999E+003 -9.999E+003 -9.999E+003 -9.999E+003 -9.999E+003 -9.999E+003 -9.999E+003 -9.999E+003 -9.999E+003 -9.999E+003 -9.999E+003 -9.999E+003 -9.999E+003 -9.999E+003 -9.999E+003 -9.999E+003 -9.999E+003 -9.999E+003 -9.999E+003 -9.999E+003 -9.999E+003 -9.999E+003 -9.999E+003 -9.999E+003 -9.999E+003 -9.999E+003 -9.999E+003 -9.999E+003 -9.999E+003 -9.999E+003 -9.999E+003 -9.999E+003 -9.999E+003 -9.999E+003 -9.999E+003 -9.999E+003 -9.999E+003 -9.999E+003 -9.999E+003 -9.999E+003 -9.999E+003 -9.999E+003 -9.999E+003 -9.999E+003 -9.999E+003 -9.999E+003 -9.999E+003 -9.999E+003 -9.999E+003 -9.999E+003 -9.999E+003 -9.999E+003 -9.999E+003 -9.999E+003 -9.999E+003 -9.999E+003 -9.999E+003 -9.999E+003 -9.999E+003 -9.999E+003 -9.999E+003 -9.999E+003 -9.999E+003 -9.999E+003 -9.999E+003 -9.999E+003 -9.999E+003 -9.999E+003 -9.999E+003 -9.999E+003 -9.999E+003 -9.999E+003 -9.999E+003 -9.999E+003 -9.999E+003 -9.999E+003 -9.999E+003 -9.999E+003 -9.999E+003 -9.999E+003 -9.999E+003 -9.999E+003 -9.999E+003 -9.999E+003 -9.999E+003 -9.999E+003 -9.999E+003 -9.999E+003 -9.999E+003 -9.999E+003 -9.999E+003 -9.999E+003 -9.999E+003 -9.999E+003 -9.999E+003 -9.999E+003 -9.999E+003 -9.999E+003 -9.999E+003 -9.999E+003 -9.999E+003 -9.999E+003 -9.999E+003 -9.999E+003 -9.999E+003 -9.999E+003 -9.999E+003 -9.999E+003 -9.999E+003 -9.999E+003
 -9.999E+003 -9.999E+003 -9.999E+003 -9.999E+003 -9.999E+003 -9.999E+003 -9.999E+003 -9.999E+003 -9.999E+003 -9.999E+003 -9.999E+003 -9.999E+003 -9.999E+003 -9.999E+003 -9.999E+003 -9.999E+003 -9.999E+003 -9.999E+003 -9.999E+003 -9.999E+003 -9.999E+003 -9.999E+003 -9.999E+003 -9.999E+003 -9.999E+003 -9.999E+003 -9.999E+003 -9.999E+003 -9.999E+003 -9.999E+003 -9.999E+003 -9.999E+003 -9.999E+003 -9.999E+003 -9.999E+003 -9.999E+003 -9.999E+003 -9.999E+003 -9.999E+003 -9.999E+003 -9.999E+003 -9.999E+003 -9.999E+003 -9.999E+003 -9.999E+003 -9.999E+003 -9.999E+003 -9.999E+003 -9.999E+003 -9.999E+003 -9.999E+003 -9.999E+003 -9.999E+003 -9.999E+003 -9.999E+003 -9.999E+003 -9.999E+003 -9.999E+003 -9.999E+003 -9.999E+003 -9.999E+003 -9.999E+003 -9.999E+003 -9.999E+003 -9.999E+003 -9.999E+003 -9.999E+003 -9.999E+003 -9.999E+003 -9.999E+003 -9.999E+003 -9.999E+003 -9.999E+003 -9.999E+003 -9.999E+003 -9.999E+003 -9.999E+003 -9.999E+003 -9.999E+003 -9.999E+003 -9.999E+003 -9.999E+003 -9.999E+003 -9.999E+003 -9.999E+003 -9.999E+003 -9.999E+003 -9.999E+003 -9.999E+003 -9.999E+003 -9.999E+003 -9.999E+003 -9.999E+003 -9.999E+003 -9.999E+003 -9.999E+003 -9.999E+003 -9.999E+003 -9.999E+003 -9.999E+003 -9.999E+003 -9.999E+003 -9.999E+003 -9.999E+003 -9.999E+003 -9.999E+003 -9.999E+003 -9.999E+003 -9.999E+003 -9.999E+003 -9.999E+003 -9.999E+003 -9.999E+003 -9.999E+003 -9.999E+003 -9.999E+003 -9.999E+003 -9.999E+003 -9.999E+003 -9.999E+003 -9.999E+003 -9.999E+003 -9.999E+003 -9.999E+003 -9.999E+003 -9.999E+003 -9.999E+003 -9.999E+003 -9.999E+003 -9.999E+003 -9.999E+003 -9.999E+003 -9.999E+003 -9.999E+003 -9.999E+003 -9.999E+003 -9.999E+003 -9.999E+003 -9.999E+003 -9.999E+003 -9.999E+003 -9.999E+003 -9.999E+003 -9.999E+003 -9.999E+003 -9.999E+003 -9.999E+003 -9.999E+003 -9.999E+003 -9.999E+003
 -9.999E+003 -9.999E+003 -9.999E+003 -9.999E+003 -9.999E+003 -9.999E+003 -9.999E+003 -9.999E+003 -9.999E+003 -9.999E+003 -9.999E+003 -9.999E+003 -9.999E+003 -9.999E+003 -9.999E+003 -9.999E+003 -9.999E+003 -9.999E+003 -9.999E+003 -9.999E+003 -9.999E+003 -9.999E+003 -9.999E+003 -9.999E+003 -9.999E+003 -9.999E+003 -9.999E+003 -9.999E+003 -9.999E+003 -9.999E+003 -9.999E+003 -9.999E+003 -9.999E+003 -9.999E+003 -9.999E+003 -9.999E+003 -9.999E+003 -9.999E+003 -9.999E+003 -9.999E+003 -9.999E+003 -9.999E+003 -9.999E+003 -9.999E+003 -9.999E+003 -9.999E+003 -9.999E+003 -9.999E+003 -9.999E+003 -9.999E+003 -9.999E+003 -9.999E+003 -9.999E+003 -9.999E+003 -9.999E+003 -9.999E+003 -9.999E+003 -9.999E+003 -9.999E+003 -9.999E+003 -9.999E+003 -9.999E+003 -9.999E+003 -9.999E+003 -9.999E+003 -9.999E+003 -9.999E+003 -9.999E+003 -9.999E+003 -9.999E+003 -9.999E+003 -9.999E+003 -9.999E+003 -9.999E+003 -9.999E+003 -9.999E+003 -9.999E+003 -9.999E+003 -9.999E+003 -9.999E+003 -9.999E+003 -9.999E+003 -9.999E+003 -9.999E+003 -9.999E+003 -9.999E+003 -9.999E+003 -9.999E+003 -9.999E+003 -9.999E+003 -9.999E+003 -9.999E+003 -9.999E+003 -9.999E+003 -9.999E+003 -9.999E+003 -9.999E+003 -9.999E+003 -9.999E+003 -9.999E+003 -9.999E+003 -9.999E+003 -9.999E+003 -9.999E+003 -9.999E+003 -9.999E+003 -9.999E+003 -9.999E+003 -9.999E+003 -9.999E+003 -9.999E+003 -9.999E+003 -9.999E+003 -9.999E+003 -9.999E+003 -9.999E+003 -9.999E+003 -9.999E+003 -9.999E+003 -9.999E+003 -9.999E+003 -9.999E+003 -9.999E+003 -9.999E+003 -9.999E+003 -9.999E+003 -9.999E+003 -9.999E+003 -9.999E+003 -9.999E+003 -9.999E+003 -9.999E+003 -9.999E+003 -9.999E+003 -9.999E+003 -9.999E+003 -9.999E+003 -9.999E+003 -9.999E+003 -9.999E+003 -9.999E+003 -9.999E+003 -9.999E+003 -9.999E+003 -9.999E+003 -9.999E+003 -9.999E+003 -9.999E+003 -9.999E+003 -9.999E+003
 -9.999E+003 -9.999E+003 -9.999E+003 -9.999E+003 -9.999E+003 -9.999E+003 -9.999E+003 -9.999E+003 -9.999E+003 -9.999E+003 -9.999E+003 -9.999E+003 -9.999E+003 -9.999E+003 -9.999E+003 -9.999E+003 -9.999E+003 -9.999E+003 -9.999E+003 -9.999E+003 -9.999E+003 -9.999E+003 -9.999E+003 -9.999E+003 -9.999E+003 -9.999E+003 -9.999E+003 -9.999E+003 -9.999E+003 -9.999E+003 -9.999E+003 -9.999E+003 -9.999E+003 -9.999E+003 -9.999E+003 -9.999E+003 -9.999E+003 -9.999E+003 -9.999E+003 -9.999E+003 -9.999E+003 -9.999E+003 -9.999E+003 -9.999E+003 -9.999E+003 -9.999E+003 -9.999E+003 -9.999E+003 -9.999E+003 -9.999E+003 -9.999E+003 -9.999E+003 -9.999E+003 -9.999E+003 -9.999E+003 -9.999E+003 -9.999E+003 -9.999E+003 -9.999E+003 -9.999E+003 -9.999E+003 -9.999E+003 -9.999E+003 -9.999E+003 -9.999E+003 -9.999E+003 -9.999E+003 -9.999E+003 -9.999E+003 -9.999E+003 -9.999E+003 -9.999E+003 -9.999E+003 -9.999E+003 -9.999E+003 -9.999E+003 -9.999E+003 -9.999E+003 -9.999E+003 -9.999E+003 -9.999E+003 -9.999E+003 -9.999E+003 -9.999E+003 -9.999E+003 -9.999E+003 -9.999E+003 -9.999E+003 -9.999E+003 -9.999E+003 -9.999E+003 -9.999E+003 -9.999E+003 -9.999E+003 -9.999E+003 -9.999E+003 -9.999E+003 -9.999E+003 -9.999E+003 -9.999E+003 -9.999E+003 -9.999E+003 -9.999E+003 -9.999E+003 -9.999E+003 -9.999E+003 -9.999E+003 -9.999E+003 -9.999E+003 -9.999E+003 -9.999E+003 -9.999E+003 -9.999E+003 -9.999E+003 -9.999E+003 -9.999E+003 -9.999E+003 -9.999E+003 -9.999E+003 -9.999E+003 -9.999E+003 -9.999E+003 -9.999E+003 -9.999E+003 -9.999E+003 -9.999E+003 -9.999E+003 -9.999E+003 -9.999E+003 -9.999E+003 -9.999E+003 -9.999E+003 -9.999E+003 -9.999E+003 -9.999E+003 -9.999E+003 -9.999E+003 -9.999E+003 -9.999E+003 -9.999E+003 -9.999E+003 -9.999E+003 -9.999E+003 -9.999E+003 -9.999E+003 -9.999E+003 -9.999E+003 -9.999E+003 -9.999E+003 -9.999E+003
 -9.999E+003 -9.999E+003 -9.999E+003 -9.999E+003 -9.999E+003 -9.999E+003 -9.999E+003 -9.999E+003 -9.999E+003 -9.999E+003 -9.999E+003 -9.999E+003 -9.999E+003 -9.999E+003 -9.999E+003 -9.999E+003 -9.999E+003 -9.999E+003 -9.999E+003 -9.999E+003 -9.999E+003 -9.999E+003 -9.999E+003 -9.999E+003 -9.999E+003 -9.999E+003 -9.999E+003 -9.999E+003 -9.999E+003 -9.999E+003 -9.999E+003 -9.999E+003 -9.999E+003 -9.999E+003 -9.999E+003 -9.999E+003 -9.999E+003 -9.999E+003 -9.999E+003 -9.999E+003 -9.999E+003 -9.999E+003 -9.999E+003 -9.999E+003 -9.999E+003 -9.999E+003 -9.999E+003 -9.999E+003 -9.999E+003 -9.999E+003 -9.999E+003 -9.999E+003 -9.999E+003 -9.999E+003 -9.999E+003 -9.999E+003 -9.999E+003 -9.999E+003 -9.999E+003 -9.999E+003 -9.999E+003 -9.999E+003 -9.999E+003 -9.999E+003 -9.999E+003 -9.999E+003 -9.999E+003 -9.999E+003 -9.999E+003 -9.999E+003 -9.999E+003 -9.999E+003 -9.999E+003 -9.999E+003 -9.999E+003 -9.999E+003 -9.999E+003 -9.999E+003 -9.999E+003 -9.999E+003 -9.999E+003 -9.999E+003 -9.999E+003 -9.999E+003 -9.999E+003 -9.999E+003 -9.999E+003 -9.999E+003 -9.999E+003 -9.999E+003 -9.999E+003 -9.999E+003 -9.999E+003 -9.999E+003 -9.999E+003 -9.999E+003 -9.999E+003 -9.999E+003 -9.999E+003 -9.999E+003 -9.999E+003 -9.999E+003 -9.999E+003 -9.999E+003 -9.999E+003 -9.999E+003 -9.999E+003 -9.999E+003 -9.999E+003 -9.999E+003 -9.999E+003 -9.999E+003 -9.999E+003 -9.999E+003 -9.999E+003 -9.999E+003 -9.999E+003 -9.999E+003 -9.999E+003 -9.999E+003 -9.999E+003 -9.999E+003 -9.999E+003 -9.999E+003 -9.999E+003 -9.999E+003 -9.999E+003 -9.999E+003 -9.999E+003 -9.999E+003 -9.999E+003 -9.999E+003 -9.999E+003 -9.999E+003 -9.999E+003 -9.999E+003 -9.999E+003 -9.999E+003 -9.999E+003 -9.999E+003 -9.999E+003 -9.999E+003 -9.999E+003 -9.999E+003 -9.999E+003 -9.999E+003 -9.999E+003 -9.999E+003 -9.999E+003 -9.999E+003
 -9.999E+003 -9.999E+003 -9.999E+003 -9.999E+003 -9.999E+003 -9.999E+003 -9.999E+003 -9.999E+003 -9.999E+003 -9.999E+003 -9.999E+003 -9.999E+003 -9.999E+003 -9.999E+003 -9.999E+003 -9.999E+003 -9.999E+003 -9.999E+003 -9.999E+003 -9.999E+003 -9.999E+003 -9.999E+003 -9.999E+003 -9.999E+003 -9.999E+003 -9.999E+003 -9.999E+003 -9.999E+003 -9.999E+003 -9.999E+003 -9.999E+003 -9.999E+003 -9.999E+003 -9.999E+003 -9.999E+003 -9.999E+003 -9.999E+003 -9.999E+003 -9.999E+003 -9.999E+003 -9.999E+003 -9.999E+003 -9.999E+003 -9.999E+003 -9.999E+003 -9.999E+003 -9.999E+003 -9.999E+003 -9.999E+003 -9.999E+003 -9.999E+003 -9.999E+003 -9.999E+003 -9.999E+003 -9.999E+003 -9.999E+003 -9.999E+003 -9.999E+003 -9.999E+003 -9.999E+003 -9.999E+003 -9.999E+003 -9.999E+003 -9.999E+003 -9.999E+003 -9.999E+003 -9.999E+003 -9.999E+003 -9.999E+003 -9.999E+003 -9.999E+003 -9.999E+003 -9.999E+003 -9.999E+003 -9.999E+003 -9.999E+003 -9.999E+003 -9.999E+003 -9.999E+003 -9.999E+003 -9.999E+003 -9.999E+003 -9.999E+003 -9.999E+003 -9.999E+003 -9.999E+003 -9.999E+003 -9.999E+003 -9.999E+003 -9.999E+003 -9.999E+003 -9.999E+003 -9.999E+003 -9.999E+003 -9.999E+003 -9.999E+003 -9.999E+003 -9.999E+003 -9.999E+003 -9.999E+003 -9.999E+003 -9.999E+003 -9.999E+003 -9.999E+003 -9.999E+003 -9.999E+003 -9.999E+003 -9.999E+003 -9.999E+003 -9.999E+003 -9.999E+003 -9.999E+003 -9.999E+003 -9.999E+003 -9.999E+003 -9.999E+003 -9.999E+003 -9.999E+003 -9.999E+003 -9.999E+003 -9.999E+003 -9.999E+003 -9.999E+003 -9.999E+003 -9.999E+003 -9.999E+003 -9.999E+003 -9.999E+003 -9.999E+003 -9.999E+003 -9.999E+003 -9.999E+003 -9.999E+003 -9.999E+003 -9.999E+003 -9.999E+003 -9.999E+003 -9.999E+003 -9.999E+003 -9.999E+003 -9.999E+003 -9.999E+003 -9.999E+003 -9.999E+003 -9.999E+003 -9.999E+003 -9.999E+003 -9.999E+003 -9.999E+003 -9.999E+003
 -9.999E+003 -9.999E+003 -9.999E+003 -9.999E+003 -9.999E+003 -9.999E+003 -9.999E+003 -9.999E+003 -9.999E+003 -9.999E+003 -9.999E+003 -9.999E+003 -9.999E+003 -9.999E+003 -9.999E+003 -9.999E+003 -9.999E+003 -9.999E+003 -9.999E+003 -9.999E+003 -9.999E+003 -9.999E+003 -9.999E+003 -9.999E+003 -9.999E+003 -9.999E+003 -9.999E+003 -9.999E+003 -9.999E+003 -9.999E+003 -9.999E+003 -9.999E+003 -9.999E+003 -9.999E+003 -9.999E+003 -9.999E+003 -9.999E+003 -9.999E+003 -9.999E+003 -9.999E+003 -9.999E+003 -9.999E+003 -9.999E+003 -9.999E+003 -9.999E+003 -9.999E+003 -9.999E+003 -9.999E+003 -9.999E+003 -9.999E+003 -9.999E+003 -9.999E+003 -9.999E+003 -9.999E+003 -9.999E+003 -9.999E+003 -9.999E+003 -9.999E+003 -9.999E+003 -9.999E+003 -9.999E+003 -9.999E+003 -9.999E+003 -9.999E+003 -9.999E+003 -9.999E+003 -9.999E+003 -9.999E+003 -9.999E+003 -9.999E+003 -9.999E+003 -9.999E+003 -9.999E+003 -9.999E+003 -9.999E+003 -9.999E+003 -9.999E+003 -9.999E+003 -9.999E+003 -9.999E+003 -9.999E+003 -9.999E+003 -9.999E+003 -9.999E+003 -9.999E+003 -9.999E+003 -9.999E+003 -9.999E+003 -9.999E+003 -9.999E+003 -9.999E+003 -9.999E+003 -9.999E+003 -9.999E+003 -9.999E+003 -9.999E+003 -9.999E+003 -9.999E+003 -9.999E+003 -9.999E+003 -9.999E+003 -9.999E+003 -9.999E+003 -9.999E+003 -9.999E+003 -9.999E+003 -9.999E+003 -9.999E+003 -9.999E+003 -9.999E+003 -9.999E+003 -9.999E+003 -9.999E+003 -9.999E+003 -9.999E+003 -9.999E+003 -9.999E+003 -9.999E+003 -9.999E+003 -9.999E+003 -9.999E+003 -9.999E+003 -9.999E+003 -9.999E+003 -9.999E+003 -9.999E+003 -9.999E+003 -9.999E+003 -9.999E+003 -9.999E+003 -9.999E+003 -9.999E+003 -9.999E+003 -9.999E+003 -9.999E+003 -9.999E+003 -9.999E+003 -9.999E+003 -9.999E+003 -9.999E+003 -9.999E+003 -9.999E+003 -9.999E+003 -9.999E+003 -9.999E+003 -9.999E+003 -9.999E+003 -9.999E+003 -9.999E+003 -9.999E+003
 -9.999E+003 -9.999E+003 -9.999E+003 -9.999E+003 -9.999E+003 -9.999E+003 -9.999E+003 -9.999E+003 -9.999E+003 -9.999E+003 -9.999E+003 -9.999E+003 -9.999E+003 -9.999E+003 -9.999E+003 -9.999E+003 -9.999E+003 -9.999E+003 -9.999E+003 -9.999E+003 -9.999E+003 -9.999E+003 -9.999E+003 -9.999E+003 -9.999E+003 -9.999E+003 -9.999E+003 -9.999E+003 -9.999E+003 -9.999E+003 -9.999E+003 -9.999E+003 -9.999E+003 -9.999E+003 -9.999E+003 -9.999E+003 -9.999E+003 -9.999E+003 -9.999E+003 -9.999E+003 -9.999E+003 -9.999E+003 -9.999E+003 -9.999E+003 -9.999E+003 -9.999E+003 -9.999E+003 -9.999E+003 -9.999E+003 -9.999E+003 -9.999E+003 -9.999E+003 -9.999E+003 -9.999E+003 -9.999E+003 -9.999E+003 -9.999E+003 -9.999E+003 -9.999E+003 -9.999E+003 -9.999E+003 -9.999E+003 -9.999E+003 -9.999E+003 -9.999E+003 -9.999E+003 -9.999E+003 -9.999E+003 -9.999E+003 -9.999E+003 -9.999E+003 -9.999E+003 -9.999E+003 -9.999E+003 -9.999E+003 -9.999E+003 -9.999E+003 -9.999E+003 -9.999E+003 -9.999E+003 -9.999E+003 -9.999E+003 -9.999E+003 -9.999E+003 -9.999E+003 -9.999E+003 -9.999E+003 -9.999E+003 -9.999E+003 -9.999E+003 -9.999E+003 -9.999E+003 -9.999E+003 -9.999E+003 -9.999E+003 -9.999E+003 -9.999E+003 -9.999E+003 -9.999E+003 -9.999E+003 -9.999E+003 -9.999E+003 -9.999E+003 -9.999E+003 -9.999E+003 -9.999E+003 -9.999E+003 -9.999E+003 -9.999E+003 -9.999E+003 -9.999E+003 -9.999E+003 -9.999E+003 -9.999E+003 -9.999E+003 -9.999E+003 -9.999E+003 -9.999E+003 -9.999E+003 -9.999E+003 -9.999E+003 -9.999E+003 -9.999E+003 -9.999E+003 -9.999E+003 -9.999E+003 -9.999E+003 -9.999E+003 -9.999E+003 -9.999E+003 -9.999E+003 -9.999E+003 -9.999E+003 -9.999E+003 -9.999E+003 -9.999E+003 -9.999E+003 -9.999E+003 -9.999E+003 -9.999E+003 -9.999E+003 -9.999E+003 -9.999E+003 -9.999E+003 -9.999E+003 -9.999E+003 -9.999E+003 -9.999E+003 -9.999E+003 -9.999E+003
 -9.999E+003 -9.999E+003 -9.999E+003 -9.999E+003 -9.999E+003 -9.999E+003 -9.999E+003 -9.999E+003 -9.999E+003 -9.999E+003 -9.999E+003 -9.999E+003 -9.999E+003 -9.999E+003 -9.999E+003 -9.999E+003 -9.999E+003 -9.999E+003 -9.999E+003 -9.999E+003 -9.999E+003 -9.999E+003 -9.999E+003 -9.999E+003 -9.999E+003 -9.999E+003 -9.999E+003 -9.999E+003 -9.999E+003 -9.999E+003 -9.999E+003 -9.999E+003 -9.999E+003 -9.999E+003 -9.999E+003 -9.999E+003 -9.999E+003 -9.999E+003 -9.999E+003 -9.999E+003 -9.999E+003 -9.999E+003 -9.999E+003 -9.999E+003 -9.999E+003 -9.999E+003 -9.999E+003 -9.999E+003 -9.999E+003 -9.999E+003 -9.999E+003 -9.999E+003 -9.999E+003 -9.999E+003 -9.999E+003 -9.999E+003 -9.999E+003 -9.999E+003 -9.999E+003 -9.999E+003 -9.999E+003 -9.999E+003 -9.999E+003 -9.999E+003 -9.999E+003 -9.999E+003 -9.999E+003 -9.999E+003 -9.999E+003 -9.999E+003 -9.999E+003 -9.999E+003 -9.999E+003 -9.999E+003 -9.999E+003 -9.999E+003 -9.999E+003 -9.999E+003 -9.999E+003 -9.999E+003 -9.999E+003 -9.999E+003 -9.999E+003 -9.999E+003 -9.999E+003 -9.999E+003 -9.999E+003 -9.999E+003 -9.999E+003 -9.999E+003 -9.999E+003 -9.999E+003 -9.999E+003 -9.999E+003 -9.999E+003 -9.999E+003 -9.999E+003 -9.999E+003 -9.999E+003 -9.999E+003 -9.999E+003 -9.999E+003 -9.999E+003 -9.999E+003 -9.999E+003 -9.999E+003 -9.999E+003 -9.999E+003 -9.999E+003 -9.999E+003 -9.999E+003 -9.999E+003 -9.999E+003 -9.999E+003 -9.999E+003 -9.999E+003 -9.999E+003 -9.999E+003 -9.999E+003 -9.999E+003 -9.999E+003 -9.999E+003 -9.999E+003 -9.999E+003 -9.999E+003 -9.999E+003 -9.999E+003 -9.999E+003 -9.999E+003 -9.999E+003 -9.999E+003 -9.999E+003 -9.999E+003 -9.999E+003 -9.999E+003 -9.999E+003 -9.999E+003 -9.999E+003 -9.999E+003 -9.999E+003 -9.999E+003 -9.999E+003 -9.999E+003 -9.999E+003 -9.999E+003 -9.999E+003 -9.999E+003 -9.999E+003 -9.999E+003 -9.999E+003
 -9.999E+003 -9.999E+003 -9.999E+003 -9.999E+003 -9.999E+003 -9.999E+003 -9.999E+003 -9.999E+003 -9.999E+003 -9.999E+003 -9.999E+003 -9.999E+003 -9.999E+003 -9.999E+003 -9.999E+003 -9.999E+003 -9.999E+003 -9.999E+003 -9.999E+003 -9.999E+003 -9.999E+003 -9.999E+003 -9.999E+003 -9.999E+003 -9.999E+003 -9.999E+003 -9.999E+003 -9.999E+003 -9.999E+003 -9.999E+003 -9.999E+003 -9.999E+003 -9.999E+003 -9.999E+003 -9.999E+003 -9.999E+003 -9.999E+003 -9.999E+003 -9.999E+003 -9.999E+003 -9.999E+003 -9.999E+003 -9.999E+003 -9.999E+003 -9.999E+003 -9.999E+003 -9.999E+003 -9.999E+003 -9.999E+003 -9.999E+003 -9.999E+003 -9.999E+003 -9.999E+003 -9.999E+003 -9.999E+003 -9.999E+003 -9.999E+003 -9.999E+003 -9.999E+003 -9.999E+003 -9.999E+003 -9.999E+003 -9.999E+003 -9.999E+003 -9.999E+003 -9.999E+003 -9.999E+003 -9.999E+003 -9.999E+003 -9.999E+003 -9.999E+003 -9.999E+003 -9.999E+003 -9.999E+003 -9.999E+003 -9.999E+003 -9.999E+003 -9.999E+003 -9.999E+003 -9.999E+003 -9.999E+003 -9.999E+003 -9.999E+003 -9.999E+003 -9.999E+003 -9.999E+003 -9.999E+003 -9.999E+003 -9.999E+003 -9.999E+003 -9.999E+003 -9.999E+003 -9.999E+003 -9.999E+003 -9.999E+003 -9.999E+003 -9.999E+003 -9.999E+003 -9.999E+003 -9.999E+003 -9.999E+003 -9.999E+003 -9.999E+003 -9.999E+003 -9.999E+003 -9.999E+003 -9.999E+003 -9.999E+003 -9.999E+003 -9.999E+003 -9.999E+003 -9.999E+003 -9.999E+003 -9.999E+003 -9.999E+003 -9.999E+003 -9.999E+003 -9.999E+003 -9.999E+003 -9.999E+003 -9.999E+003 -9.999E+003 -9.999E+003 -9.999E+003 -9.999E+003 -9.999E+003 -9.999E+003 -9.999E+003 -9.999E+003 -9.999E+003 -9.999E+003 -9.999E+003 -9.999E+003 -9.999E+003 -9.999E+003 -9.999E+003 -9.999E+003 -9.999E+003 -9.999E+003 -9.999E+003 -9.999E+003 -9.999E+003 -9.999E+003 -9.999E+003 -9.999E+003 -9.999E+003 -9.999E+003 -9.999E+003 -9.999E+003 -9.999E+003
 -9.999E+003 -9.999E+003 -9.999E+003 -9.999E+003 -9.999E+003 -9.999E+003 -9.999E+003 -9.999E+003 -9.999E+003 -9.999E+003 -9.999E+003 -9.999E+003 -9.999E+003 -9.999E+003 -9.999E+003 -9.999E+003 -9.999E+003 -9.999E+003 -9.999E+003 -9.999E+003 -9.999E+003 -9.999E+003 -9.999E+003 -9.999E+003 -9.999E+003 -9.999E+003 -9.999E+003 -9.999E+003 -9.999E+003 -9.999E+003 -9.999E+003 -9.999E+003 -9.999E+003 -9.999E+003 -9.999E+003 -9.999E+003 -9.999E+003 -9.999E+003 -9.999E+003 -9.999E+003 -9.999E+003 -9.999E+003 -9.999E+003 -9.999E+003 -9.999E+003 -9.999E+003 -9.999E+003 -9.999E+003 -9.999E+003 -9.999E+003 -9.999E+003 -9.999E+003 -9.999E+003 -9.999E+003 -9.999E+003 -9.999E+003 -9.999E+003 -9.999E+003 -9.999E+003 -9.999E+003 -9.999E+003 -9.999E+003 -9.999E+003 -9.999E+003 -9.999E+003 -9.999E+003 -9.999E+003 -9.999E+003 -9.999E+003 -9.999E+003 -9.999E+003 -9.999E+003 -9.999E+003 -9.999E+003 -9.999E+003 -9.999E+003 -9.999E+003 -9.999E+003 -9.999E+003 -9.999E+003 -9.999E+003 -9.999E+003 -9.999E+003 -9.999E+003 -9.999E+003 -9.999E+003 -9.999E+003 -9.999E+003 -9.999E+003 -9.999E+003 -9.999E+003 -9.999E+003 -9.999E+003 -9.999E+003 -9.999E+003 -9.999E+003 -9.999E+003 -9.999E+003 -9.999E+003 -9.999E+003 -9.999E+003 -9.999E+003 -9.999E+003 -9.999E+003 -9.999E+003 -9.999E+003 -9.999E+003 -9.999E+003 -9.999E+003 -9.999E+003 -9.999E+003 -9.999E+003 -9.999E+003 -9.999E+003 -9.999E+003 -9.999E+003 -9.999E+003 -9.999E+003 -9.999E+003 -9.999E+003 -9.999E+003 -9.999E+003 -9.999E+003 -9.999E+003 -9.999E+003 -9.999E+003 -9.999E+003 -9.999E+003 -9.999E+003 -9.999E+003 -9.999E+003 -9.999E+003 -9.999E+003 -9.999E+003 -9.999E+003 -9.999E+003 -9.999E+003 -9.999E+003 -9.999E+003 -9.999E+003 -9.999E+003 -9.999E+003 -9.999E+003 -9.999E+003 -9.999E+003 -9.999E+003 -9.999E+003 -9.999E+003 -9.999E+003 -9.999E+003
 -9.999E+003 -9.999E+003 -9.999E+003 -9.999E+003 -9.999E+003 -9.999E+003 -9.999E+003 -9.999E+003 -9.999E+003 -9.999E+003 -9.999E+003 -9.999E+003 -9.999E+003 -9.999E+003 -9.999E+003 -9.999E+003 -9.999E+003 -9.999E+003 -9.999E+003 -9.999E+003 -9.999E+003 -9.999E+003 -9.999E+003 -9.999E+003 -9.999E+003 -9.999E+003 -9.999E+003 -9.999E+003 -9.999E+003 -9.999E+003 -9.999E+003 -9.999E+003 -9.999E+003 -9.999E+003 -9.999E+003 -9.999E+003 -9.999E+003 -9.999E+003 -9.999E+003 -9.999E+003 -9.999E+003 -9.999E+003 -9.999E+003 -9.999E+003 -9.999E+003 -9.999E+003 -9.999E+003 -9.999E+003 -9.999E+003 -9.999E+003 -9.999E+003 -9.999E+003 -9.999E+003 -9.999E+003 -9.999E+003 -9.999E+003 -9.999E+003 -9.999E+003 -9.999E+003 -9.999E+003 -9.999E+003 -9.999E+003 -9.999E+003 -9.999E+003 -9.999E+003 -9.999E+003 -9.999E+003 -9.999E+003 -9.999E+003 -9.999E+003 -9.999E+003 -9.999E+003 -9.999E+003 -9.999E+003 -9.999E+003 -9.999E+003 -9.999E+003 -9.999E+003 -9.999E+003 -9.999E+003 -9.999E+003 -9.999E+003 -9.999E+003 -9.999E+003 -9.999E+003 -9.999E+003 -9.999E+003 -9.999E+003 -9.999E+003 -9.999E+003 -9.999E+003 -9.999E+003 -9.999E+003 -9.999E+003 -9.999E+003 -9.999E+003 -9.999E+003 -9.999E+003 -9.999E+003 -9.999E+003 -9.999E+003 -9.999E+003 -9.999E+003 -9.999E+003 -9.999E+003 -9.999E+003 -9.999E+003 -9.999E+003 -9.999E+003 -9.999E+003 -9.999E+003 -9.999E+003 -9.999E+003 -9.999E+003 -9.999E+003 -9.999E+003 -9.999E+003 -9.999E+003 -9.999E+003 -9.999E+003 -9.999E+003 -9.999E+003 -9.999E+003 -9.999E+003 -9.999E+003 -9.999E+003 -9.999E+003 -9.999E+003 -9.999E+003 -9.999E+003 -9.999E+003 -9.999E+003 -9.999E+003 -9.999E+003 -9.999E+003 -9.999E+003 -9.999E+003 -9.999E+003 -9.999E+003 -9.999E+003 -9.999E+003 -9.999E+003 -9.999E+003 -9.999E+003 -9.999E+003 -9.999E+003 -9.999E+003 -9.999E+003 -9.999E+003 -9.999E+003
 -9.999E+003 -9.999E+003 -9.999E+003 -9.999E+003 -9.999E+003 -9.999E+003 -9.999E+003 -9.999E+003 -9.999E+003 -9.999E+003 -9.999E+003 -9.999E+003 -9.999E+003 -9.999E+003 -9.999E+003 -9.999E+003 -9.999E+003 -9.999E+003 -9.999E+003 -9.999E+003 -9.999E+003 -9.999E+003 -9.999E+003 -9.999E+003 -9.999E+003 -9.999E+003 -9.999E+003 -9.999E+003 -9.999E+003 -9.999E+003 -9.999E+003 -9.999E+003 -9.999E+003 -9.999E+003 -9.999E+003 -9.999E+003 -9.999E+003 -9.999E+003 -9.999E+003 -9.999E+003 -9.999E+003 -9.999E+003 -9.999E+003 -9.999E+003 -9.999E+003 -9.999E+003 -9.999E+003 -9.999E+003 -9.999E+003 -9.999E+003 -9.999E+003 -9.999E+003 -9.999E+003 -9.999E+003 -9.999E+003 -9.999E+003 -9.999E+003 -9.999E+003 -9.999E+003 -9.999E+003 -9.999E+003 -9.999E+003 -9.999E+003 -9.999E+003 -9.999E+003 -9.999E+003 -9.999E+003 -9.999E+003 -9.999E+003 -9.999E+003 -9.999E+003 -9.999E+003 -9.999E+003 -9.999E+003 -9.999E+003 -9.999E+003 -9.999E+003 -9.999E+003 -9.999E+003 -9.999E+003 -9.999E+003 -9.999E+003 -9.999E+003 -9.999E+003 -9.999E+003 -9.999E+003 -9.999E+003 -9.999E+003 -9.999E+003 -9.999E+003 -9.999E+003 -9.999E+003 -9.999E+003 -9.999E+003 -9.999E+003 -9.999E+003 -9.999E+003 -9.999E+003 -9.999E+003 -9.999E+003 -9.999E+003 -9.999E+003 -9.999E+003 -9.999E+003 -9.999E+003 -9.999E+003 -9.999E+003 -9.999E+003 -9.999E+003 -9.999E+003 -9.999E+003 -9.999E+003 -9.999E+003 -9.999E+003 -9.999E+003 -9.999E+003 -9.999E+003 -9.999E+003 -9.999E+003 -9.999E+003 -9.999E+003 -9.999E+003 -9.999E+003 -9.999E+003 -9.999E+003 -9.999E+003 -9.999E+003 -9.999E+003 -9.999E+003 -9.999E+003 -9.999E+003 -9.999E+003 -9.999E+003 -9.999E+003 -9.999E+003 -9.999E+003 -9.999E+003 -9.999E+003 -9.999E+003 -9.999E+003 -9.999E+003 -9.999E+003 -9.999E+003 -9.999E+003 -9.999E+003 -9.999E+003 -9.999E+003 -9.999E+003 -9.999E+003 -9.999E+003
 -9.999E+003 -9.999E+003 -9.999E+003 -9.999E+003 -9.999E+003 -9.999E+003 -9.999E+003 -9.999E+003 -9.999E+003 -9.999E+003 -9.999E+003 -9.999E+003 -9.999E+003 -9.999E+003 -9.999E+003 -9.999E+003 -9.999E+003 -9.999E+003 -9.999E+003 -9.999E+003 -9.999E+003 -9.999E+003 -9.999E+003 -9.999E+003 -9.999E+003 -9.999E+003 -9.999E+003 -9.999E+003 -9.999E+003 -9.999E+003 -9.999E+003 -9.999E+003 -9.999E+003 -9.999E+003 -9.999E+003 -9.999E+003 -9.999E+003 -9.999E+003 -9.999E+003 -9.999E+003 -9.999E+003 -9.999E+003 -9.999E+003 -9.999E+003 -9.999E+003 -9.999E+003 -9.999E+003 -9.999E+003 -9.999E+003 -9.999E+003 -9.999E+003 -9.999E+003 -9.999E+003 -9.999E+003 -9.999E+003 -9.999E+003 -9.999E+003 -9.999E+003 -9.999E+003 -9.999E+003 -9.999E+003 -9.999E+003 -9.999E+003 -9.999E+003 -9.999E+003 -9.999E+003 -9.999E+003 -9.999E+003 -9.999E+003 -9.999E+003 -9.999E+003 -9.999E+003 -9.999E+003 -9.999E+003 -9.999E+003 -9.999E+003 -9.999E+003 -9.999E+003 -9.999E+003 -9.999E+003 -9.999E+003 -9.999E+003 -9.999E+003 -9.999E+003 -9.999E+003 -9.999E+003 -9.999E+003 -9.999E+003 -9.999E+003 -9.999E+003 -9.999E+003 -9.999E+003 -9.999E+003 -9.999E+003 -9.999E+003 -9.999E+003 -9.999E+003 -9.999E+003 -9.999E+003 -9.999E+003 -9.999E+003 -9.999E+003 -9.999E+003 -9.999E+003 -9.999E+003 -9.999E+003 -9.999E+003 -9.999E+003 -9.999E+003 -9.999E+003 -9.999E+003 -9.999E+003 -9.999E+003 -9.999E+003 -9.999E+003 -9.999E+003 -9.999E+003 -9.999E+003 -9.999E+003 -9.999E+003 -9.999E+003 -9.999E+003 -9.999E+003 -9.999E+003 -9.999E+003 -9.999E+003 -9.999E+003 -9.999E+003 -9.999E+003 -9.999E+003 -9.999E+003 -9.999E+003 -9.999E+003 -9.999E+003 -9.999E+003 -9.999E+003 -9.999E+003 -9.999E+003 -9.999E+003 -9.999E+003 -9.999E+003 -9.999E+003 -9.999E+003 -9.999E+003 -9.999E+003 -9.999E+003 -9.999E+003 -9.999E+003 -9.999E+003 -9.999E+003
 -9.999E+003 -9.999E+003 -9.999E+003 -9.999E+003 -9.999E+003 -9.999E+003 -9.999E+003 -9.999E+003 -9.999E+003 -9.999E+003 -9.999E+003 -9.999E+003 -9.999E+003 -9.999E+003 -9.999E+003 -9.999E+003 -9.999E+003 -9.999E+003 -9.999E+003 -9.999E+003 -9.999E+003 -9.999E+003 -9.999E+003 -9.999E+003 -9.999E+003 -9.999E+003 -9.999E+003 -9.999E+003 -9.999E+003 -9.999E+003 -9.999E+003 -9.999E+003 -9.999E+003 -9.999E+003 -9.999E+003 -9.999E+003 -9.999E+003 -9.999E+003 -9.999E+003 -9.999E+003 -9.999E+003 -9.999E+003 -9.999E+003 -9.999E+003 -9.999E+003 -9.999E+003 -9.999E+003 -9.999E+003 -9.999E+003 -9.999E+003 -9.999E+003 -9.999E+003 -9.999E+003 -9.999E+003 -9.999E+003 -9.999E+003 -9.999E+003 -9.999E+003 -9.999E+003 -9.999E+003 -9.999E+003 -9.999E+003 -9.999E+003 -9.999E+003 -9.999E+003 -9.999E+003 -9.999E+003 -9.999E+003 -9.999E+003 -9.999E+003 -9.999E+003 -9.999E+003 -9.999E+003 -9.999E+003 -9.999E+003 -9.999E+003 -9.999E+003 -9.999E+003 -9.999E+003 -9.999E+003 -9.999E+003 -9.999E+003 -9.999E+003 -9.999E+003 -9.999E+003 -9.999E+003 -9.999E+003 -9.999E+003 -9.999E+003 -9.999E+003 -9.999E+003 -9.999E+003 -9.999E+003 -9.999E+003 -9.999E+003 -9.999E+003 -9.999E+003 -9.999E+003 -9.999E+003 -9.999E+003 -9.999E+003 -9.999E+003 -9.999E+003 -9.999E+003 -9.999E+003 -9.999E+003 -9.999E+003 -9.999E+003 -9.999E+003 -9.999E+003 -9.999E+003 -9.999E+003 -9.999E+003 -9.999E+003 -9.999E+003 -9.999E+003 -9.999E+003 -9.999E+003 -9.999E+003 -9.999E+003 -9.999E+003 -9.999E+003 -9.999E+003 -9.999E+003 -9.999E+003 -9.999E+003 -9.999E+003 -9.999E+003 -9.999E+003 -9.999E+003 -9.999E+003 -9.999E+003 -9.999E+003 -9.999E+003 -9.999E+003 -9.999E+003 -9.999E+003 -9.999E+003 -9.999E+003 -9.999E+003 -9.999E+003 -9.999E+003 -9.999E+003 -9.999E+003 -9.999E+003 -9.999E+003 -9.999E+003 -9.999E+003 -9.999E+003 -9.999E+003
 -9.999E+003 -9.999E+003 -9.999E+003 -9.999E+003 -9.999E+003 -9.999E+003 -9.999E+003 -9.999E+003 -9.999E+003 -9.999E+003 -9.999E+003 -9.999E+003 -9.999E+003 -9.999E+003 -9.999E+003 -9.999E+003 -9.999E+003 -9.999E+003 -9.999E+003 -9.999E+003 -9.999E+003 -9.999E+003 -9.999E+003 -9.999E+003 -9.999E+003 -9.999E+003 -9.999E+003 -9.999E+003 -9.999E+003 -9.999E+003 -9.999E+003 -9.999E+003 -9.999E+003 -9.999E+003 -9.999E+003 -9.999E+003 -9.999E+003 -9.999E+003 -9.999E+003 -9.999E+003 -9.999E+003 -9.999E+003 -9.999E+003 -9.999E+003 -9.999E+003 -9.999E+003 -9.999E+003 -9.999E+003 -9.999E+003 -9.999E+003 -9.999E+003 -9.999E+003 -9.999E+003 -9.999E+003 -9.999E+003 -9.999E+003 -9.999E+003 -9.999E+003 -9.999E+003 -9.999E+003 -9.999E+003 -9.999E+003 -9.999E+003 -9.999E+003 -9.999E+003 -9.999E+003 -9.999E+003 -9.999E+003 -9.999E+003 -9.999E+003 -9.999E+003 -9.999E+003 -9.999E+003 -9.999E+003 -9.999E+003 -9.999E+003 -9.999E+003 -9.999E+003 -9.999E+003 -9.999E+003 -9.999E+003 -9.999E+003 -9.999E+003 -9.999E+003 -9.999E+003 -9.999E+003 -9.999E+003 -9.999E+003 -9.999E+003 -9.999E+003 -9.999E+003 -9.999E+003 -9.999E+003 -9.999E+003 -9.999E+003 -9.999E+003 -9.999E+003 -9.999E+003 -9.999E+003 -9.999E+003 -9.999E+003 -9.999E+003 -9.999E+003 -9.999E+003 -9.999E+003 -9.999E+003 -9.999E+003 -9.999E+003 -9.999E+003 -9.999E+003 -9.999E+003 -9.999E+003 -9.999E+003 -9.999E+003 -9.999E+003 -9.999E+003 -9.999E+003 -9.999E+003 -9.999E+003 -9.999E+003 -9.999E+003 -9.999E+003 -9.999E+003 -9.999E+003 -9.999E+003 -9.999E+003 -9.999E+003 -9.999E+003 -9.999E+003 -9.999E+003 -9.999E+003 -9.999E+003 -9.999E+003 -9.999E+003 -9.999E+003 -9.999E+003 -9.999E+003 -9.999E+003 -9.999E+003 -9.999E+003 -9.999E+003 -9.999E+003 -9.999E+003 -9.999E+003 -9.999E+003 -9.999E+003 -9.999E+003 -9.999E+003 -9.999E+003 -9.999E+003
 -9.999E+003 -9.999E+003 -9.999E+003 -9.999E+003 -9.999E+003 -9.999E+003 -9.999E+003 -9.999E+003 -9.999E+003 -9.999E+003 -9.999E+003 -9.999E+003 -9.999E+003 -9.999E+003 -9.999E+003 -9.999E+003 -9.999E+003 -9.999E+003 -9.999E+003 -9.999E+003 -9.999E+003 -9.999E+003 -9.999E+003 -9.999E+003 -9.999E+003 -9.999E+003 -9.999E+003 -9.999E+003 -9.999E+003 -9.999E+003 -9.999E+003 -9.999E+003 -9.999E+003 -9.999E+003 -9.999E+003 -9.999E+003 -9.999E+003 -9.999E+003 -9.999E+003 -9.999E+003 -9.999E+003 -9.999E+003 -9.999E+003 -9.999E+003 -9.999E+003 -9.999E+003 -9.999E+003 -9.999E+003 -9.999E+003 -9.999E+003 -9.999E+003 -9.999E+003 -9.999E+003 -9.999E+003 -9.999E+003 -9.999E+003 -9.999E+003 -9.999E+003 -9.999E+003 -9.999E+003 -9.999E+003 -9.999E+003 -9.999E+003 -9.999E+003 -9.999E+003 -9.999E+003 -9.999E+003 -9.999E+003 -9.999E+003 -9.999E+003 -9.999E+003 -9.999E+003 -9.999E+003 -9.999E+003 -9.999E+003 -9.999E+003 -9.999E+003 -9.999E+003 -9.999E+003 -9.999E+003 -9.999E+003 -9.999E+003 -9.999E+003 -9.999E+003 -9.999E+003 -9.999E+003 -9.999E+003 -9.999E+003 -9.999E+003 -9.999E+003 -9.999E+003 -9.999E+003 -9.999E+003 -9.999E+003 -9.999E+003 -9.999E+003 -9.999E+003 -9.999E+003 -9.999E+003 -9.999E+003 -9.999E+003 -9.999E+003 -9.999E+003 -9.999E+003 -9.999E+003 -9.999E+003 -9.999E+003 -9.999E+003 -9.999E+003 -9.999E+003 -9.999E+003 -9.999E+003 -9.999E+003 -9.999E+003 -9.999E+003 -9.999E+003 -9.999E+003 -9.999E+003 -9.999E+003 -9.999E+003 -9.999E+003 -9.999E+003 -9.999E+003 -9.999E+003 -9.999E+003 -9.999E+003 -9.999E+003 -9.999E+003 -9.999E+003 -9.999E+003 -9.999E+003 -9.999E+003 -9.999E+003 -9.999E+003 -9.999E+003 -9.999E+003 -9.999E+003 -9.999E+003 -9.999E+003 -9.999E+003 -9.999E+003 -9.999E+003 -9.999E+003 -9.999E+003 -9.999E+003 -9.999E+003 -9.999E+003 -9.999E+003 -9.999E+003 -9.999E+003
 -9.999E+003 -9.999E+003 -9.999E+003 -9.999E+003 -9.999E+003 -9.999E+003 -9.999E+003 -9.999E+003 -9.999E+003 -9.999E+003 -9.999E+003 -9.999E+003 -9.999E+003 -9.999E+003 -9.999E+003 -9.999E+003 -9.999E+003 -9.999E+003 -9.999E+003 -9.999E+003 -9.999E+003 -9.999E+003 -9.999E+003 -9.999E+003 -9.999E+003 -9.999E+003 -9.999E+003 -9.999E+003 -9.999E+003 -9.999E+003 -9.999E+003 -9.999E+003 -9.999E+003 -9.999E+003 -9.999E+003 -9.999E+003 -9.999E+003 -9.999E+003 -9.999E+003 -9.999E+003 -9.999E+003 -9.999E+003 -9.999E+003 -9.999E+003 -9.999E+003 -9.999E+003 -9.999E+003 -9.999E+003 -9.999E+003 -9.999E+003 -9.999E+003 -9.999E+003 -9.999E+003 -9.999E+003 -9.999E+003 -9.999E+003 -9.999E+003 -9.999E+003 -9.999E+003 -9.999E+003 -9.999E+003 -9.999E+003 -9.999E+003 -9.999E+003 -9.999E+003 -9.999E+003 -9.999E+003 -9.999E+003 -9.999E+003 -9.999E+003 -9.999E+003 -9.999E+003 -9.999E+003 -9.999E+003 -9.999E+003 -9.999E+003 -9.999E+003 -9.999E+003 -9.999E+003 -9.999E+003 -9.999E+003 -9.999E+003 -9.999E+003 -9.999E+003 -9.999E+003 -9.999E+003 -9.999E+003 -9.999E+003 -9.999E+003 -9.999E+003 -9.999E+003 -9.999E+003 -9.999E+003 -9.999E+003 -9.999E+003 -9.999E+003 -9.999E+003 -9.999E+003 -9.999E+003 -9.999E+003 -9.999E+003 -9.999E+003 -9.999E+003 -9.999E+003 -9.999E+003 -9.999E+003 -9.999E+003 -9.999E+003 -9.999E+003 -9.999E+003 -9.999E+003 -9.999E+003 -9.999E+003 -9.999E+003 -9.999E+003 -9.999E+003 -9.999E+003 -9.999E+003 -9.999E+003 -9.999E+003 -9.999E+003 -9.999E+003 -9.999E+003 -9.999E+003 -9.999E+003 -9.999E+003 -9.999E+003 -9.999E+003 -9.999E+003 -9.999E+003 -9.999E+003 -9.999E+003 -9.999E+003 -9.999E+003 -9.999E+003 -9.999E+003 -9.999E+003 -9.999E+003 -9.999E+003 -9.999E+003 -9.999E+003 -9.999E+003 -9.999E+003 -9.999E+003 -9.999E+003 -9.999E+003 -9.999E+003 -9.999E+003 -9.999E+003 -9.999E+003
 -9.999E+003 -9.999E+003 -9.999E+003 -9.999E+003 -9.999E+003 -9.999E+003 -9.999E+003 -9.999E+003 -9.999E+003 -9.999E+003 -9.999E+003 -9.999E+003 -9.999E+003 -9.999E+003 -9.999E+003 -9.999E+003 -9.999E+003 -9.999E+003 -9.999E+003 -9.999E+003 -9.999E+003 -9.999E+003 -9.999E+003 -9.999E+003 -9.999E+003 -9.999E+003 -9.999E+003 -9.999E+003 -9.999E+003 -9.999E+003 -9.999E+003 -9.999E+003 -9.999E+003 -9.999E+003 -9.999E+003 -9.999E+003 -9.999E+003 -9.999E+003 -9.999E+003 -9.999E+003 -9.999E+003 -9.999E+003 -9.999E+003 -9.999E+003 -9.999E+003 -9.999E+003 -9.999E+003 -9.999E+003 -9.999E+003 -9.999E+003 -9.999E+003 -9.999E+003 -9.999E+003 -9.999E+003 -9.999E+003 -9.999E+003 -9.999E+003 -9.999E+003 -9.999E+003 -9.999E+003 -9.999E+003 -9.999E+003 -9.999E+003 -9.999E+003 -9.999E+003 -9.999E+003 -9.999E+003 -9.999E+003 -9.999E+003 -9.999E+003 -9.999E+003 -9.999E+003 -9.999E+003 -9.999E+003 -9.999E+003 -9.999E+003 -9.999E+003 -9.999E+003 -9.999E+003 -9.999E+003 -9.999E+003 -9.999E+003 -9.999E+003 -9.999E+003 -9.999E+003 -9.999E+003 -9.999E+003 -9.999E+003 -9.999E+003 -9.999E+003 -9.999E+003 -9.999E+003 -9.999E+003 -9.999E+003 -9.999E+003 -9.999E+003 -9.999E+003 -9.999E+003 -9.999E+003 -9.999E+003 -9.999E+003 -9.999E+003 -9.999E+003 -9.999E+003 -9.999E+003 -9.999E+003 -9.999E+003 -9.999E+003 -9.999E+003 -9.999E+003 -9.999E+003 -9.999E+003 -9.999E+003 -9.999E+003 -9.999E+003 -9.999E+003 -9.999E+003 -9.999E+003 -9.999E+003 -9.999E+003 -9.999E+003 -9.999E+003 -9.999E+003 -9.999E+003 -9.999E+003 -9.999E+003 -9.999E+003 -9.999E+003 -9.999E+003 -9.999E+003 -9.999E+003 -9.999E+003 -9.999E+003 -9.999E+003 -9.999E+003 -9.999E+003 -9.999E+003 -9.999E+003 -9.999E+003 -9.999E+003 -9.999E+003 -9.999E+003 -9.999E+003 -9.999E+003 -9.999E+003 -9.999E+003 -9.999E+003 -9.999E+003 -9.999E+003 -9.999E+003
 -9.999E+003 -9.999E+003 -9.999E+003 -9.999E+003 -9.999E+003 -9.999E+003 -9.999E+003 -9.999E+003 -9.999E+003 -9.999E+003 -9.999E+003 -9.999E+003 -9.999E+003 -9.999E+003 -9.999E+003 -9.999E+003 -9.999E+003 -9.999E+003 -9.999E+003 -9.999E+003 -9.999E+003 -9.999E+003 -9.999E+003 -9.999E+003 -9.999E+003 -9.999E+003 -9.999E+003 -9.999E+003 -9.999E+003 -9.999E+003 -9.999E+003 -9.999E+003 -9.999E+003 -9.999E+003 -9.999E+003 -9.999E+003 -9.999E+003 -9.999E+003 -9.999E+003 -9.999E+003 -9.999E+003 -9.999E+003 -9.999E+003 -9.999E+003 -9.999E+003 -9.999E+003 -9.999E+003 -9.999E+003 -9.999E+003 -9.999E+003 -9.999E+003 -9.999E+003 -9.999E+003 -9.999E+003 -9.999E+003 -9.999E+003 -9.999E+003 -9.999E+003 -9.999E+003 -9.999E+003 -9.999E+003 -9.999E+003 -9.999E+003 -9.999E+003 -9.999E+003 -9.999E+003 -9.999E+003 -9.999E+003 -9.999E+003 -9.999E+003 -9.999E+003 -9.999E+003 -9.999E+003 -9.999E+003 -9.999E+003 -9.999E+003 -9.999E+003 -9.999E+003 -9.999E+003 -9.999E+003 -9.999E+003 -9.999E+003 -9.999E+003 -9.999E+003 -9.999E+003 -9.999E+003 -9.999E+003 -9.999E+003 -9.999E+003 -9.999E+003 -9.999E+003 -9.999E+003 -9.999E+003 -9.999E+003 -9.999E+003 -9.999E+003 -9.999E+003 -9.999E+003 -9.999E+003 -9.999E+003 -9.999E+003 -9.999E+003 -9.999E+003 -9.999E+003 -9.999E+003 -9.999E+003 -9.999E+003 -9.999E+003 -9.999E+003 -9.999E+003 -9.999E+003 -9.999E+003 -9.999E+003 -9.999E+003 -9.999E+003 -9.999E+003 -9.999E+003 -9.999E+003 -9.999E+003 -9.999E+003 -9.999E+003 -9.999E+003 -9.999E+003 -9.999E+003 -9.999E+003 -9.999E+003 -9.999E+003 -9.999E+003 -9.999E+003 -9.999E+003 -9.999E+003 -9.999E+003 -9.999E+003 -9.999E+003 -9.999E+003 -9.999E+003 -9.999E+003 -9.999E+003 -9.999E+003 -9.999E+003 -9.999E+003 -9.999E+003 -9.999E+003 -9.999E+003 -9.999E+003 -9.999E+003 -9.999E+003 -9.999E+003 -9.999E+003 -9.999E+003
 -9.999E+003 -9.999E+003 -9.999E+003 -9.999E+003 -9.999E+003 -9.999E+003 -9.999E+003 -9.999E+003 -9.999E+003 -9.999E+003 -9.999E+003 -9.999E+003 -9.999E+003 -9.999E+003 -9.999E+003 -9.999E+003 -9.999E+003 -9.999E+003 -9.999E+003 -9.999E+003 -9.999E+003 -9.999E+003 -9.999E+003 -9.999E+003 -9.999E+003 -9.999E+003 -9.999E+003 -9.999E+003 -9.999E+003 -9.999E+003 -9.999E+003 -9.999E+003 -9.999E+003 -9.999E+003 -9.999E+003 -9.999E+003 -9.999E+003 -9.999E+003 -9.999E+003 -9.999E+003 -9.999E+003 -9.999E+003 -9.999E+003 -9.999E+003 -9.999E+003 -9.999E+003 -9.999E+003 -9.999E+003 -9.999E+003 -9.999E+003 -9.999E+003 -9.999E+003 -9.999E+003 -9.999E+003 -9.999E+003 -9.999E+003 -9.999E+003 -9.999E+003 -9.999E+003 -9.999E+003 -9.999E+003 -9.999E+003 -9.999E+003 -9.999E+003 -9.999E+003 -9.999E+003 -9.999E+003 -9.999E+003 -9.999E+003 -9.999E+003 -9.999E+003 -9.999E+003 -9.999E+003 -9.999E+003 -9.999E+003 -9.999E+003 -9.999E+003 -9.999E+003 -9.999E+003 -9.999E+003 -9.999E+003 -9.999E+003 -9.999E+003 -9.999E+003 -9.999E+003 -9.999E+003 -9.999E+003 -9.999E+003 -9.999E+003 -9.999E+003 -9.999E+003 -9.999E+003 -9.999E+003 -9.999E+003 -9.999E+003 -9.999E+003 -9.999E+003 -9.999E+003 -9.999E+003 -9.999E+003 -9.999E+003 -9.999E+003 -9.999E+003 -9.999E+003 -9.999E+003 -9.999E+003 -9.999E+003 -9.999E+003 -9.999E+003 -9.999E+003 -9.999E+003 -9.999E+003 -9.999E+003 -9.999E+003 -9.999E+003 -9.999E+003 -9.999E+003 -9.999E+003 -9.999E+003 -9.999E+003 -9.999E+003 -9.999E+003 -9.999E+003 -9.999E+003 -9.999E+003 -9.999E+003 -9.999E+003 -9.999E+003 -9.999E+003 -9.999E+003 -9.999E+003 -9.999E+003 -9.999E+003 -9.999E+003 -9.999E+003 -9.999E+003 -9.999E+003 -9.999E+003 -9.999E+003 -9.999E+003 -9.999E+003 -9.999E+003 -9.999E+003 -9.999E+003 -9.999E+003 -9.999E+003 -9.999E+003 -9.999E+003 -9.999E+003 -9.999E+003
 -9.999E+003 -9.999E+003 -9.999E+003 -9.999E+003 -9.999E+003 -9.999E+003 -9.999E+003 -9.999E+003 -9.999E+003 -9.999E+003 -9.999E+003 -9.999E+003 -9.999E+003 -9.999E+003 -9.999E+003 -9.999E+003 -9.999E+003 -9.999E+003 -9.999E+003 -9.999E+003 -9.999E+003 -9.999E+003 -9.999E+003 -9.999E+003 -9.999E+003 -9.999E+003 -9.999E+003 -9.999E+003 -9.999E+003 -9.999E+003 -9.999E+003 -9.999E+003 -9.999E+003 -9.999E+003 -9.999E+003 -9.999E+003 -9.999E+003 -9.999E+003 -9.999E+003 -9.999E+003 -9.999E+003 -9.999E+003 -9.999E+003 -9.999E+003 -9.999E+003 -9.999E+003 -9.999E+003 -9.999E+003 -9.999E+003 -9.999E+003 -9.999E+003 -9.999E+003 -9.999E+003 -9.999E+003 -9.999E+003 -9.999E+003 -9.999E+003 -9.999E+003 -9.999E+003 -9.999E+003 -9.999E+003 -9.999E+003 -9.999E+003 -9.999E+003 -9.999E+003 -9.999E+003 -9.999E+003 -9.999E+003 -9.999E+003 -9.999E+003 -9.999E+003 -9.999E+003 -9.999E+003 -9.999E+003 -9.999E+003 -9.999E+003 -9.999E+003 -9.999E+003 -9.999E+003 -9.999E+003 -9.999E+003 -9.999E+003 -9.999E+003 -9.999E+003 -9.999E+003 -9.999E+003 -9.999E+003 -9.999E+003 -9.999E+003 -9.999E+003 -9.999E+003 -9.999E+003 -9.999E+003 -9.999E+003 -9.999E+003 -9.999E+003 -9.999E+003 -9.999E+003 -9.999E+003 -9.999E+003 -9.999E+003 -9.999E+003 -9.999E+003 -9.999E+003 -9.999E+003 -9.999E+003 -9.999E+003 -9.999E+003 -9.999E+003 -9.999E+003 -9.999E+003 -9.999E+003 -9.999E+003 -9.999E+003 -9.999E+003 -9.999E+003 -9.999E+003 -9.999E+003 -9.999E+003 -9.999E+003 -9.999E+003 -9.999E+003 -9.999E+003 -9.999E+003 -9.999E+003 -9.999E+003 -9.999E+003 -9.999E+003 -9.999E+003 -9.999E+003 -9.999E+003 -9.999E+003 -9.999E+003 -9.999E+003 -9.999E+003 -9.999E+003 -9.999E+003 -9.999E+003 -9.999E+003 -9.999E+003 -9.999E+003 -9.999E+003 -9.999E+003 -9.999E+003 -9.999E+003 -9.999E+003 -9.999E+003 -9.999E+003 -9.999E+003 -9.999E+003
 -9.999E+003 -9.999E+003 -9.999E+003 -9.999E+003 -9.999E+003 -9.999E+003 -9.999E+003 -9.999E+003 -9.999E+003 -9.999E+003 -9.999E+003 -9.999E+003 -9.999E+003 -9.999E+003 -9.999E+003 -9.999E+003 -9.999E+003 -9.999E+003 -9.999E+003 -9.999E+003 -9.999E+003 -9.999E+003 -9.999E+003 -9.999E+003 -9.999E+003 -9.999E+003 -9.999E+003 -9.999E+003 -9.999E+003 -9.999E+003 -9.999E+003 -9.999E+003 -9.999E+003 -9.999E+003 -9.999E+003 -9.999E+003 -9.999E+003 -9.999E+003 -9.999E+003 -9.999E+003 -9.999E+003 -9.999E+003 -9.999E+003 -9.999E+003 -9.999E+003 -9.999E+003 -9.999E+003 -9.999E+003 -9.999E+003 -9.999E+003 -9.999E+003 -9.999E+003 -9.999E+003 -9.999E+003 -9.999E+003 -9.999E+003 -9.999E+003 -9.999E+003 -9.999E+003 -9.999E+003 -9.999E+003 -9.999E+003 -9.999E+003 -9.999E+003 -9.999E+003 -9.999E+003 -9.999E+003 -9.999E+003 -9.999E+003 -9.999E+003 -9.999E+003 -9.999E+003 -9.999E+003 -9.999E+003 -9.999E+003 -9.999E+003 -9.999E+003 -9.999E+003 -9.999E+003 -9.999E+003 -9.999E+003 -9.999E+003 -9.999E+003 -9.999E+003 -9.999E+003 -9.999E+003 -9.999E+003 -9.999E+003 -9.999E+003 -9.999E+003 -9.999E+003 -9.999E+003 -9.999E+003 -9.999E+003 -9.999E+003 -9.999E+003 -9.999E+003 -9.999E+003 -9.999E+003 -9.999E+003 -9.999E+003 -9.999E+003 -9.999E+003 -9.999E+003 -9.999E+003 -9.999E+003 -9.999E+003 -9.999E+003 -9.999E+003 -9.999E+003 -9.999E+003 -9.999E+003 -9.999E+003 -9.999E+003 -9.999E+003 -9.999E+003 -9.999E+003 -9.999E+003 -9.999E+003 -9.999E+003 -9.999E+003 -9.999E+003 -9.999E+003 -9.999E+003 -9.999E+003 -9.999E+003 -9.999E+003 -9.999E+003 -9.999E+003 -9.999E+003 -9.999E+003 -9.999E+003 -9.999E+003 -9.999E+003 -9.999E+003 -9.999E+003 -9.999E+003 -9.999E+003 -9.999E+003 -9.999E+003 -9.999E+003 -9.999E+003 -9.999E+003 -9.999E+003 -9.999E+003 -9.999E+003 -9.999E+003 -9.999E+003 -9.999E+003 -9.999E+003
 -9.999E+003 -9.999E+003 -9.999E+003 -9.999E+003 -9.999E+003 -9.999E+003 -9.999E+003 -9.999E+003 -9.999E+003 -9.999E+003 -9.999E+003 -9.999E+003 -9.999E+003 -9.999E+003 -9.999E+003 -9.999E+003 -9.999E+003 -9.999E+003 -9.999E+003 -9.999E+003 -9.999E+003 -9.999E+003 -9.999E+003 -9.999E+003 -9.999E+003 -9.999E+003 -9.999E+003 -9.999E+003 -9.999E+003 -9.999E+003 -9.999E+003 -9.999E+003 -9.999E+003 -9.999E+003 -9.999E+003 -9.999E+003 -9.999E+003 -9.999E+003 -9.999E+003 -9.999E+003 -9.999E+003 -9.999E+003 -9.999E+003 -9.999E+003 -9.999E+003 -9.999E+003 -9.999E+003 -9.999E+003 -9.999E+003 -9.999E+003 -9.999E+003 -9.999E+003 -9.999E+003 -9.999E+003 -9.999E+003 -9.999E+003 -9.999E+003 -9.999E+003 -9.999E+003 -9.999E+003 -9.999E+003 -9.999E+003 -9.999E+003 -9.999E+003 -9.999E+003 -9.999E+003 -9.999E+003 -9.999E+003 -9.999E+003 -9.999E+003 -9.999E+003 -9.999E+003 -9.999E+003 -9.999E+003 -9.999E+003 -9.999E+003 -9.999E+003 -9.999E+003 -9.999E+003 -9.999E+003 -9.999E+003 -9.999E+003 -9.999E+003 -9.999E+003 -9.999E+003 -9.999E+003 -9.999E+003 -9.999E+003 -9.999E+003 -9.999E+003 -9.999E+003 -9.999E+003 -9.999E+003 -9.999E+003 -9.999E+003 -9.999E+003 -9.999E+003 -9.999E+003 -9.999E+003 -9.999E+003 -9.999E+003 -9.999E+003 -9.999E+003 -9.999E+003 -9.999E+003 -9.999E+003 -9.999E+003 -9.999E+003 -9.999E+003 -9.999E+003 -9.999E+003 -9.999E+003 -9.999E+003 -9.999E+003 -9.999E+003 -9.999E+003 -9.999E+003 -9.999E+003 -9.999E+003 -9.999E+003 -9.999E+003 -9.999E+003 -9.999E+003 -9.999E+003 -9.999E+003 -9.999E+003 -9.999E+003 -9.999E+003 -9.999E+003 -9.999E+003 -9.999E+003 -9.999E+003 -9.999E+003 -9.999E+003 -9.999E+003 -9.999E+003 -9.999E+003 -9.999E+003 -9.999E+003 -9.999E+003 -9.999E+003 -9.999E+003 -9.999E+003 -9.999E+003 -9.999E+003 -9.999E+003 -9.999E+003 -9.999E+003 -9.999E+003 -9.999E+003
 -9.999E+003 -9.999E+003 -9.999E+003 -9.999E+003 -9.999E+003 -9.999E+003 -9.999E+003 -9.999E+003 -9.999E+003 -9.999E+003 -9.999E+003 -9.999E+003 -9.999E+003 -9.999E+003 -9.999E+003 -9.999E+003 -9.999E+003 -9.999E+003 -9.999E+003 -9.999E+003 -9.999E+003 -9.999E+003 -9.999E+003 -9.999E+003 -9.999E+003 -9.999E+003 -9.999E+003 -9.999E+003 -9.999E+003 -9.999E+003 -9.999E+003 -9.999E+003 -9.999E+003 -9.999E+003 -9.999E+003 -9.999E+003 -9.999E+003 -9.999E+003 -9.999E+003 -9.999E+003 -9.999E+003 -9.999E+003 -9.999E+003 -9.999E+003 -9.999E+003 -9.999E+003 -9.999E+003 -9.999E+003 -9.999E+003 -9.999E+003 -9.999E+003 -9.999E+003 -9.999E+003 -9.999E+003 -9.999E+003 -9.999E+003 -9.999E+003 -9.999E+003 -9.999E+003 -9.999E+003 -9.999E+003 -9.999E+003 -9.999E+003 -9.999E+003 -9.999E+003 -9.999E+003 -9.999E+003 -9.999E+003 -9.999E+003 -9.999E+003 -9.999E+003 -9.999E+003 -9.999E+003 -9.999E+003 -9.999E+003 -9.999E+003 -9.999E+003 -9.999E+003 -9.999E+003 -9.999E+003 -9.999E+003 -9.999E+003 -9.999E+003 -9.999E+003 -9.999E+003 -9.999E+003 -9.999E+003 -9.999E+003 -9.999E+003 -9.999E+003 -9.999E+003 -9.999E+003 -9.999E+003 -9.999E+003 -9.999E+003 -9.999E+003 -9.999E+003 -9.999E+003 -9.999E+003 -9.999E+003 -9.999E+003 -9.999E+003 -9.999E+003 -9.999E+003 -9.999E+003 -9.999E+003 -9.999E+003 -9.999E+003 -9.999E+003 -9.999E+003 -9.999E+003 -9.999E+003 -9.999E+003 -9.999E+003 -9.999E+003 -9.999E+003 -9.999E+003 -9.999E+003 -9.999E+003 -9.999E+003 -9.999E+003 -9.999E+003 -9.999E+003 -9.999E+003 -9.999E+003 -9.999E+003 -9.999E+003 -9.999E+003 -9.999E+003 -9.999E+003 -9.999E+003 -9.999E+003 -9.999E+003 -9.999E+003 -9.999E+003 -9.999E+003 -9.999E+003 -9.999E+003 -9.999E+003 -9.999E+003 -9.999E+003 -9.999E+003 -9.999E+003 -9.999E+003 -9.999E+003 -9.999E+003 -9.999E+003 -9.999E+003 -9.999E+003 -9.999E+003
 -9.999E+003 -9.999E+003 -9.999E+003 -9.999E+003 -9.999E+003 -9.999E+003 -9.999E+003 -9.999E+003 -9.999E+003 -9.999E+003 -9.999E+003 -9.999E+003 -9.999E+003 -9.999E+003 -9.999E+003 -9.999E+003 -9.999E+003 -9.999E+003 -9.999E+003 -9.999E+003 -9.999E+003 -9.999E+003 -9.999E+003 -9.999E+003 -9.999E+003 -9.999E+003 -9.999E+003 -9.999E+003 -9.999E+003 -9.999E+003 -9.999E+003 -9.999E+003 -9.999E+003 -9.999E+003 -9.999E+003 -9.999E+003 -9.999E+003 -9.999E+003 -9.999E+003 -9.999E+003 -9.999E+003 -9.999E+003 -9.999E+003 -9.999E+003 -9.999E+003 -9.999E+003 -9.999E+003 -9.999E+003 -9.999E+003 -9.999E+003 -9.999E+003 -9.999E+003 -9.999E+003 -9.999E+003 -9.999E+003 -9.999E+003 -9.999E+003 -9.999E+003 -9.999E+003 -9.999E+003 -9.999E+003 -9.999E+003 -9.999E+003 -9.999E+003 -9.999E+003 -9.999E+003 -9.999E+003 -9.999E+003 -9.999E+003 -9.999E+003 -9.999E+003 -9.999E+003 -9.999E+003 -9.999E+003 -9.999E+003 -9.999E+003 -9.999E+003 -9.999E+003 -9.999E+003 -9.999E+003 -9.999E+003 -9.999E+003 -9.999E+003 -9.999E+003 -9.999E+003 -9.999E+003 -9.999E+003 -9.999E+003 -9.999E+003 -9.999E+003 -9.999E+003 -9.999E+003 -9.999E+003 -9.999E+003 -9.999E+003 -9.999E+003 -9.999E+003 -9.999E+003 -9.999E+003 -9.999E+003 -9.999E+003 -9.999E+003 -9.999E+003 -9.999E+003 -9.999E+003 -9.999E+003 -9.999E+003 -9.999E+003 -9.999E+003 -9.999E+003 -9.999E+003 -9.999E+003 -9.999E+003 -9.999E+003 -9.999E+003 -9.999E+003 -9.999E+003 -9.999E+003 -9.999E+003 -9.999E+003 -9.999E+003 -9.999E+003 -9.999E+003 -9.999E+003 -9.999E+003 -9.999E+003 -9.999E+003 -9.999E+003 -9.999E+003 -9.999E+003 -9.999E+003 -9.999E+003 -9.999E+003 -9.999E+003 -9.999E+003 -9.999E+003 -9.999E+003 -9.999E+003 -9.999E+003 -9.999E+003 -9.999E+003 -9.999E+003 -9.999E+003 -9.999E+003 -9.999E+003 -9.999E+003 -9.999E+003 -9.999E+003 -9.999E+003 -9.999E+003
 -9.999E+003 -9.999E+003 -9.999E+003 -9.999E+003 -9.999E+003 -9.999E+003 -9.999E+003 -9.999E+003 -9.999E+003 -9.999E+003 -9.999E+003 -9.999E+003 -9.999E+003 -9.999E+003 -9.999E+003 -9.999E+003 -9.999E+003 -9.999E+003 -9.999E+003 -9.999E+003 -9.999E+003 -9.999E+003 -9.999E+003 -9.999E+003 -9.999E+003 -9.999E+003 -9.999E+003 -9.999E+003 -9.999E+003 -9.999E+003 -9.999E+003 -9.999E+003 -9.999E+003 -9.999E+003 -9.999E+003 -9.999E+003 -9.999E+003 -9.999E+003 -9.999E+003 -9.999E+003 -9.999E+003 -9.999E+003 -9.999E+003 -9.999E+003 -9.999E+003 -9.999E+003 -9.999E+003 -9.999E+003 -9.999E+003 -9.999E+003 -9.999E+003 -9.999E+003 -9.999E+003 -9.999E+003 -9.999E+003 -9.999E+003 -9.999E+003 -9.999E+003 -9.999E+003 -9.999E+003 -9.999E+003 -9.999E+003 -9.999E+003 -9.999E+003 -9.999E+003 -9.999E+003 -9.999E+003 -9.999E+003 -9.999E+003 -9.999E+003 -9.999E+003 -9.999E+003 -9.999E+003 -9.999E+003 -9.999E+003 -9.999E+003 -9.999E+003 -9.999E+003 -9.999E+003 -9.999E+003 -9.999E+003 -9.999E+003 -9.999E+003 -9.999E+003 -9.999E+003 -9.999E+003 -9.999E+003 -9.999E+003 -9.999E+003 -9.999E+003 -9.999E+003 -9.999E+003 -9.999E+003 -9.999E+003 -9.999E+003 -9.999E+003 -9.999E+003 -9.999E+003 -9.999E+003 -9.999E+003 -9.999E+003 -9.999E+003 -9.999E+003 -9.999E+003 -9.999E+003 -9.999E+003 -9.999E+003 -9.999E+003 -9.999E+003 -9.999E+003 -9.999E+003 -9.999E+003 -9.999E+003 -9.999E+003 -9.999E+003 -9.999E+003 -9.999E+003 -9.999E+003 -9.999E+003 -9.999E+003 -9.999E+003 -9.999E+003 -9.999E+003 -9.999E+003 -9.999E+003 -9.999E+003 -9.999E+003 -9.999E+003 -9.999E+003 -9.999E+003 -9.999E+003 -9.999E+003 -9.999E+003 -9.999E+003 -9.999E+003 -9.999E+003 -9.999E+003 -9.999E+003 -9.999E+003 -9.999E+003 -9.999E+003 -9.999E+003 -9.999E+003 -9.999E+003 -9.999E+003 -9.999E+003 -9.999E+003 -9.999E+003 -9.999E+003 -9.999E+003
 -9.999E+003 -9.999E+003 -9.999E+003 -9.999E+003 -9.999E+003 -9.999E+003 -9.999E+003 -9.999E+003 -9.999E+003 -9.999E+003 -9.999E+003 -9.999E+003 -9.999E+003 -9.999E+003 -9.999E+003 -9.999E+003 -9.999E+003 -9.999E+003 -9.999E+003 -9.999E+003 -9.999E+003 -9.999E+003 -9.999E+003 -9.999E+003 -9.999E+003 -9.999E+003 -9.999E+003 -9.999E+003 -9.999E+003 -9.999E+003 -9.999E+003 -9.999E+003 -9.999E+003 -9.999E+003 -9.999E+003 -9.999E+003 -9.999E+003 -9.999E+003 -9.999E+003 -9.999E+003 -9.999E+003 -9.999E+003 -9.999E+003 -9.999E+003 -9.999E+003 -9.999E+003 -9.999E+003 -9.999E+003 -9.999E+003 -9.999E+003 -9.999E+003 -9.999E+003 -9.999E+003 -9.999E+003 -9.999E+003 -9.999E+003 -9.999E+003 -9.999E+003 -9.999E+003 -9.999E+003 -9.999E+003 -9.999E+003 -9.999E+003 -9.999E+003 -9.999E+003 -9.999E+003 -9.999E+003 -9.999E+003 -9.999E+003 -9.999E+003 -9.999E+003 -9.999E+003 -9.999E+003 -9.999E+003 -9.999E+003 -9.999E+003 -9.999E+003 -9.999E+003 -9.999E+003 -9.999E+003 -9.999E+003 -9.999E+003 -9.999E+003 -9.999E+003 -9.999E+003 -9.999E+003 -9.999E+003 -9.999E+003 -9.999E+003 -9.999E+003 -9.999E+003 -9.999E+003 -9.999E+003 -9.999E+003 -9.999E+003 -9.999E+003 -9.999E+003 -9.999E+003 -9.999E+003 -9.999E+003 -9.999E+003 -9.999E+003 -9.999E+003 -9.999E+003 -9.999E+003 -9.999E+003 -9.999E+003 -9.999E+003 -9.999E+003 -9.999E+003 -9.999E+003 -9.999E+003 -9.999E+003 -9.999E+003 -9.999E+003 -9.999E+003 -9.999E+003 -9.999E+003 -9.999E+003 -9.999E+003 -9.999E+003 -9.999E+003 -9.999E+003 -9.999E+003 -9.999E+003 -9.999E+003 -9.999E+003 -9.999E+003 -9.999E+003 -9.999E+003 -9.999E+003 -9.999E+003 -9.999E+003 -9.999E+003 -9.999E+003 -9.999E+003 -9.999E+003 -9.999E+003 -9.999E+003 -9.999E+003 -9.999E+003 -9.999E+003 -9.999E+003 -9.999E+003 -9.999E+003 -9.999E+003 -9.999E+003 -9.999E+003 -9.999E+003 -9.999E+003
 -9.999E+003 -9.999E+003 -9.999E+003 -9.999E+003 -9.999E+003 -9.999E+003 -9.999E+003 -9.999E+003 -9.999E+003 -9.999E+003 -9.999E+003 -9.999E+003 -9.999E+003 -9.999E+003 -9.999E+003 -9.999E+003 -9.999E+003 -9.999E+003 -9.999E+003 -9.999E+003 -9.999E+003 -9.999E+003 -9.999E+003 -9.999E+003 -9.999E+003 -9.999E+003 -9.999E+003 -9.999E+003 -9.999E+003 -9.999E+003 -9.999E+003 -9.999E+003 -9.999E+003 -9.999E+003 -9.999E+003 -9.999E+003 -9.999E+003 -9.999E+003 -9.999E+003 -9.999E+003 -9.999E+003 -9.999E+003 -9.999E+003 -9.999E+003 -9.999E+003 -9.999E+003 -9.999E+003 -9.999E+003 -9.999E+003 -9.999E+003 -9.999E+003 -9.999E+003 -9.999E+003 -9.999E+003 -9.999E+003 -9.999E+003 -9.999E+003 -9.999E+003 -9.999E+003 -9.999E+003 -9.999E+003 -9.999E+003 -9.999E+003 -9.999E+003 -9.999E+003 -9.999E+003 -9.999E+003 -9.999E+003 -9.999E+003 -9.999E+003 -9.999E+003 -9.999E+003 -9.999E+003 -9.999E+003 -9.999E+003 -9.999E+003 -9.999E+003 -9.999E+003 -9.999E+003 -9.999E+003 -9.999E+003 -9.999E+003 -9.999E+003 -9.999E+003 -9.999E+003 -9.999E+003 -9.999E+003 -9.999E+003 -9.999E+003 -9.999E+003 -9.999E+003 -9.999E+003 -9.999E+003 -9.999E+003 -9.999E+003 -9.999E+003 -9.999E+003 -9.999E+003 -9.999E+003 -9.999E+003 -9.999E+003 -9.999E+003 -9.999E+003 -9.999E+003 -9.999E+003 -9.999E+003 -9.999E+003 -9.999E+003 -9.999E+003 -9.999E+003 -9.999E+003 -9.999E+003 -9.999E+003 -9.999E+003 -9.999E+003 -9.999E+003 -9.999E+003 -9.999E+003 -9.999E+003 -9.999E+003 -9.999E+003 -9.999E+003 -9.999E+003 -9.999E+003 -9.999E+003 -9.999E+003 -9.999E+003 -9.999E+003 -9.999E+003 -9.999E+003 -9.999E+003 -9.999E+003 -9.999E+003 -9.999E+003 -9.999E+003 -9.999E+003 -9.999E+003 -9.999E+003 -9.999E+003 -9.999E+003 -9.999E+003 -9.999E+003 -9.999E+003 -9.999E+003 -9.999E+003 -9.999E+003 -9.999E+003 -9.999E+003 -9.999E+003 -9.999E+003
 -9.999E+003 -9.999E+003 -9.999E+003 -9.999E+003 -9.999E+003 -9.999E+003 -9.999E+003 -9.999E+003 -9.999E+003 -9.999E+003 -9.999E+003 -9.999E+003 -9.999E+003 -9.999E+003 -9.999E+003 -9.999E+003 -9.999E+003 -9.999E+003 -9.999E+003 -9.999E+003 -9.999E+003 -9.999E+003 -9.999E+003 -9.999E+003 -9.999E+003 -9.999E+003 -9.999E+003 -9.999E+003 -9.999E+003 -9.999E+003 -9.999E+003 -9.999E+003 -9.999E+003 -9.999E+003 -9.999E+003 -9.999E+003 -9.999E+003 -9.999E+003 -9.999E+003 -9.999E+003 -9.999E+003 -9.999E+003 -9.999E+003 -9.999E+003 -9.999E+003 -9.999E+003 -9.999E+003 -9.999E+003 -9.999E+003 -9.999E+003 -9.999E+003 -9.999E+003 -9.999E+003 -9.999E+003 -9.999E+003 -9.999E+003 -9.999E+003 -9.999E+003 -9.999E+003 -9.999E+003 -9.999E+003 -9.999E+003 -9.999E+003 -9.999E+003 -9.999E+003 -9.999E+003 -9.999E+003 -9.999E+003 -9.999E+003 -9.999E+003 -9.999E+003 -9.999E+003 -9.999E+003 -9.999E+003 -9.999E+003 -9.999E+003 -9.999E+003 -9.999E+003 -9.999E+003 -9.999E+003 -9.999E+003 -9.999E+003 -9.999E+003 -9.999E+003 -9.999E+003 -9.999E+003 -9.999E+003 -9.999E+003 -9.999E+003 -9.999E+003 -9.999E+003 -9.999E+003 -9.999E+003 -9.999E+003 -9.999E+003 -9.999E+003 -9.999E+003 -9.999E+003 -9.999E+003 -9.999E+003 -9.999E+003 -9.999E+003 -9.999E+003 -9.999E+003 -9.999E+003 -9.999E+003 -9.999E+003 -9.999E+003 -9.999E+003 -9.999E+003 -9.999E+003 -9.999E+003 -9.999E+003 -9.999E+003 -9.999E+003 -9.999E+003 -9.999E+003 -9.999E+003 -9.999E+003 -9.999E+003 -9.999E+003 -9.999E+003 -9.999E+003 -9.999E+003 -9.999E+003 -9.999E+003 -9.999E+003 -9.999E+003 -9.999E+003 -9.999E+003 -9.999E+003 -9.999E+003 -9.999E+003 -9.999E+003 -9.999E+003 -9.999E+003 -9.999E+003 -9.999E+003 -9.999E+003 -9.999E+003 -9.999E+003 -9.999E+003 -9.999E+003 -9.999E+003 -9.999E+003 -9.999E+003 -9.999E+003 -9.999E+003 -9.999E+003 -9.999E+003
 -9.999E+003 -9.999E+003 -9.999E+003 -9.999E+003 -9.999E+003 -9.999E+003 -9.999E+003 -9.999E+003 -9.999E+003 -9.999E+003 -9.999E+003 -9.999E+003 -9.999E+003 -9.999E+003 -9.999E+003 -9.999E+003 -9.999E+003 -9.999E+003 -9.999E+003 -9.999E+003 -9.999E+003 -9.999E+003 -9.999E+003 -9.999E+003 -9.999E+003 -9.999E+003 -9.999E+003 -9.999E+003 -9.999E+003 -9.999E+003 -9.999E+003 -9.999E+003 -9.999E+003 -9.999E+003 -9.999E+003 -9.999E+003 -9.999E+003 -9.999E+003 -9.999E+003 -9.999E+003 -9.999E+003 -9.999E+003 -9.999E+003 -9.999E+003 -9.999E+003 -9.999E+003 -9.999E+003 -9.999E+003 -9.999E+003 -9.999E+003 -9.999E+003 -9.999E+003 -9.999E+003 -9.999E+003 -9.999E+003 -9.999E+003 -9.999E+003 -9.999E+003 -9.999E+003 -9.999E+003 -9.999E+003 -9.999E+003 -9.999E+003 -9.999E+003 -9.999E+003 -9.999E+003 -9.999E+003 -9.999E+003 -9.999E+003 -9.999E+003 -9.999E+003 -9.999E+003 -9.999E+003 -9.999E+003 -9.999E+003 -9.999E+003 -9.999E+003 -9.999E+003 -9.999E+003 -9.999E+003 -9.999E+003 -9.999E+003 -9.999E+003 -9.999E+003 -9.999E+003 -9.999E+003 -9.999E+003 -9.999E+003 -9.999E+003 -9.999E+003 -9.999E+003 -9.999E+003 -9.999E+003 -9.999E+003 -9.999E+003 -9.999E+003 -9.999E+003 -9.999E+003 -9.999E+003 -9.999E+003 -9.999E+003 -9.999E+003 -9.999E+003 -9.999E+003 -9.999E+003 -9.999E+003 -9.999E+003 -9.999E+003 -9.999E+003 -9.999E+003 -9.999E+003 -9.999E+003 -9.999E+003 -9.999E+003 -9.999E+003 -9.999E+003 -9.999E+003 -9.999E+003 -9.999E+003 -9.999E+003 -9.999E+003 -9.999E+003 -9.999E+003 -9.999E+003 -9.999E+003 -9.999E+003 -9.999E+003 -9.999E+003 -9.999E+003 -9.999E+003 -9.999E+003 -9.999E+003 -9.999E+003 -9.999E+003 -9.999E+003 -9.999E+003 -9.999E+003 -9.999E+003 -9.999E+003 -9.999E+003 -9.999E+003 -9.999E+003 -9.999E+003 -9.999E+003 -9.999E+003 -9.999E+003 -9.999E+003 -9.999E+003 -9.999E+003 -9.999E+003
 -9.999E+003 -9.999E+003 -9.999E+003 -9.999E+003 -9.999E+003 -9.999E+003 -9.999E+003 -9.999E+003 -9.999E+003 -9.999E+003 -9.999E+003 -9.999E+003 -9.999E+003 -9.999E+003 -9.999E+003 -9.999E+003 -9.999E+003 -9.999E+003 -9.999E+003 -9.999E+003 -9.999E+003 -9.999E+003 -9.999E+003 -9.999E+003 -9.999E+003 -9.999E+003 -9.999E+003 -9.999E+003 -9.999E+003 -9.999E+003 -9.999E+003 -9.999E+003 -9.999E+003 -9.999E+003 -9.999E+003 -9.999E+003 -9.999E+003 -9.999E+003 -9.999E+003 -9.999E+003 -9.999E+003 -9.999E+003 -9.999E+003 -9.999E+003 -9.999E+003 -9.999E+003 -9.999E+003 -9.999E+003 -9.999E+003 -9.999E+003 -9.999E+003 -9.999E+003 -9.999E+003 -9.999E+003 -9.999E+003 -9.999E+003 -9.999E+003 -9.999E+003 -9.999E+003 -9.999E+003 -9.999E+003 -9.999E+003 -9.999E+003 -9.999E+003 -9.999E+003 -9.999E+003 -9.999E+003 -9.999E+003 -9.999E+003 -9.999E+003 -9.999E+003 -9.999E+003 -9.999E+003 -9.999E+003 -9.999E+003 -9.999E+003 -9.999E+003 -9.999E+003 -9.999E+003 -9.999E+003 -9.999E+003 -9.999E+003 -9.999E+003 -9.999E+003 -9.999E+003 -9.999E+003 -9.999E+003 -9.999E+003 -9.999E+003 -9.999E+003 -9.999E+003 -9.999E+003 -9.999E+003 -9.999E+003 -9.999E+003 -9.999E+003 -9.999E+003 -9.999E+003 -9.999E+003 -9.999E+003 -9.999E+003 -9.999E+003 -9.999E+003 -9.999E+003 -9.999E+003 -9.999E+003 -9.999E+003 -9.999E+003 -9.999E+003 -9.999E+003 -9.999E+003 -9.999E+003 -9.999E+003 -9.999E+003 -9.999E+003 -9.999E+003 -9.999E+003 -9.999E+003 -9.999E+003 -9.999E+003 -9.999E+003 -9.999E+003 -9.999E+003 -9.999E+003 -9.999E+003 -9.999E+003 -9.999E+003 -9.999E+003 -9.999E+003 -9.999E+003 -9.999E+003 -9.999E+003 -9.999E+003 -9.999E+003 -9.999E+003 -9.999E+003 -9.999E+003 -9.999E+003 -9.999E+003 -9.999E+003 -9.999E+003 -9.999E+003 -9.999E+003 -9.999E+003 -9.999E+003 -9.999E+003 -9.999E+003 -9.999E+003 -9.999E+003 -9.999E+003
 -9.999E+003 -9.999E+003 -9.999E+003 -9.999E+003 -9.999E+003 -9.999E+003 -9.999E+003 -9.999E+003 -9.999E+003 -9.999E+003 -9.999E+003 -9.999E+003 -9.999E+003 -9.999E+003 -9.999E+003 -9.999E+003 -9.999E+003 -9.999E+003 -9.999E+003 -9.999E+003 -9.999E+003 -9.999E+003 -9.999E+003 -9.999E+003 -9.999E+003 -9.999E+003 -9.999E+003 -9.999E+003 -9.999E+003 -9.999E+003 -9.999E+003 -9.999E+003 -9.999E+003 -9.999E+003 -9.999E+003 -9.999E+003 -9.999E+003 -9.999E+003 -9.999E+003 -9.999E+003 -9.999E+003 -9.999E+003 -9.999E+003 -9.999E+003 -9.999E+003 -9.999E+003 -9.999E+003 -9.999E+003 -9.999E+003 -9.999E+003 -9.999E+003 -9.999E+003 -9.999E+003 -9.999E+003 -9.999E+003 -9.999E+003 -9.999E+003 -9.999E+003 -9.999E+003 -9.999E+003 -9.999E+003 -9.999E+003 -9.999E+003 -9.999E+003 -9.999E+003 -9.999E+003 -9.999E+003 -9.999E+003 -9.999E+003 -9.999E+003 -9.999E+003 -9.999E+003 -9.999E+003 -9.999E+003 -9.999E+003 -9.999E+003 -9.999E+003 -9.999E+003 -9.999E+003 -9.999E+003 -9.999E+003 -9.999E+003 -9.999E+003 -9.999E+003 -9.999E+003 -9.999E+003 -9.999E+003 -9.999E+003 -9.999E+003 -9.999E+003 -9.999E+003 -9.999E+003 -9.999E+003 -9.999E+003 -9.999E+003 -9.999E+003 -9.999E+003 -9.999E+003 -9.999E+003 -9.999E+003 -9.999E+003 -9.999E+003 -9.999E+003 -9.999E+003 -9.999E+003 -9.999E+003 -9.999E+003 -9.999E+003 -9.999E+003 -9.999E+003 -9.999E+003 -9.999E+003 -9.999E+003 -9.999E+003 -9.999E+003 -9.999E+003 -9.999E+003 -9.999E+003 -9.999E+003 -9.999E+003 -9.999E+003 -9.999E+003 -9.999E+003 -9.999E+003 -9.999E+003 -9.999E+003 -9.999E+003 -9.999E+003 -9.999E+003 -9.999E+003 -9.999E+003 -9.999E+003 -9.999E+003 -9.999E+003 -9.999E+003 -9.999E+003 -9.999E+003 -9.999E+003 -9.999E+003 -9.999E+003 -9.999E+003 -9.999E+003 -9.999E+003 -9.999E+003 -9.999E+003 -9.999E+003 -9.999E+003 -9.999E+003 -9.999E+003 -9.999E+003
 -9.999E+003 -9.999E+003 -9.999E+003 -9.999E+003 -9.999E+003 -9.999E+003 -9.999E+003 -9.999E+003 -9.999E+003 -9.999E+003 -9.999E+003 -9.999E+003 -9.999E+003 -9.999E+003 -9.999E+003 -9.999E+003 -9.999E+003 -9.999E+003 -9.999E+003 -9.999E+003 -9.999E+003 -9.999E+003 -9.999E+003 -9.999E+003 -9.999E+003 -9.999E+003 -9.999E+003 -9.999E+003 -9.999E+003 -9.999E+003 -9.999E+003 -9.999E+003 -9.999E+003 -9.999E+003 -9.999E+003 -9.999E+003 -9.999E+003 -9.999E+003 -9.999E+003 -9.999E+003 -9.999E+003 -9.999E+003 -9.999E+003 -9.999E+003 -9.999E+003 -9.999E+003 -9.999E+003 -9.999E+003 -9.999E+003 -9.999E+003 -9.999E+003 -9.999E+003 -9.999E+003 -9.999E+003 -9.999E+003 -9.999E+003 -9.999E+003 -9.999E+003 -9.999E+003 -9.999E+003 -9.999E+003 -9.999E+003 -9.999E+003 -9.999E+003 -9.999E+003 -9.999E+003 -9.999E+003 -9.999E+003 -9.999E+003 -9.999E+003 -9.999E+003 -9.999E+003 -9.999E+003 -9.999E+003 -9.999E+003 -9.999E+003 -9.999E+003 -9.999E+003 -9.999E+003 -9.999E+003 -9.999E+003 -9.999E+003 -9.999E+003 -9.999E+003 -9.999E+003 -9.999E+003 -9.999E+003 -9.999E+003 -9.999E+003 -9.999E+003 -9.999E+003 -9.999E+003 -9.999E+003 -9.999E+003 -9.999E+003 -9.999E+003 -9.999E+003 -9.999E+003 -9.999E+003 -9.999E+003 -9.999E+003 -9.999E+003 -9.999E+003 -9.999E+003 -9.999E+003 -9.999E+003 -9.999E+003 -9.999E+003 -9.999E+003 -9.999E+003 -9.999E+003 -9.999E+003 -9.999E+003 -9.999E+003 -9.999E+003 -9.999E+003 -9.999E+003 -9.999E+003 -9.999E+003 -9.999E+003 -9.999E+003 -9.999E+003 -9.999E+003 -9.999E+003 -9.999E+003 -9.999E+003 -9.999E+003 -9.999E+003 -9.999E+003 -9.999E+003 -9.999E+003 -9.999E+003 -9.999E+003 -9.999E+003 -9.999E+003 -9.999E+003 -9.999E+003 -9.999E+003 -9.999E+003 -9.999E+003 -9.999E+003 -9.999E+003 -9.999E+003 -9.999E+003 -9.999E+003 -9.999E+003 -9.999E+003 -9.999E+003 -9.999E+003 -9.999E+003
 -9.999E+003 -9.999E+003 -9.999E+003 -9.999E+003 -9.999E+003 -9.999E+003 -9.999E+003 -9.999E+003 -9.999E+003 -9.999E+003 -9.999E+003 -9.999E+003 -9.999E+003 -9.999E+003 -9.999E+003 -9.999E+003 -9.999E+003 -9.999E+003 -9.999E+003 -9.999E+003 -9.999E+003 -9.999E+003 -9.999E+003 -9.999E+003 -9.999E+003 -9.999E+003 -9.999E+003 -9.999E+003 -9.999E+003 -9.999E+003 -9.999E+003 -9.999E+003 -9.999E+003 -9.999E+003 -9.999E+003 -9.999E+003 -9.999E+003 -9.999E+003 -9.999E+003 -9.999E+003 -9.999E+003 -9.999E+003 -9.999E+003 -9.999E+003 -9.999E+003 -9.999E+003 -9.999E+003 -9.999E+003 -9.999E+003 -9.999E+003 -9.999E+003 -9.999E+003 -9.999E+003 -9.999E+003 -9.999E+003 -9.999E+003 -9.999E+003 -9.999E+003 -9.999E+003 -9.999E+003 -9.999E+003 -9.999E+003 -9.999E+003 -9.999E+003 -9.999E+003 -9.999E+003 -9.999E+003 -9.999E+003 -9.999E+003 -9.999E+003 -9.999E+003 -9.999E+003 -9.999E+003 -9.999E+003 -9.999E+003 -9.999E+003 -9.999E+003 -9.999E+003 -9.999E+003 -9.999E+003 -9.999E+003 -9.999E+003 -9.999E+003 -9.999E+003 -9.999E+003 -9.999E+003 -9.999E+003 -9.999E+003 -9.999E+003 -9.999E+003 -9.999E+003 -9.999E+003 -9.999E+003 -9.999E+003 -9.999E+003 -9.999E+003 -9.999E+003 -9.999E+003 -9.999E+003 -9.999E+003 -9.999E+003 -9.999E+003 -9.999E+003 -9.999E+003 -9.999E+003 -9.999E+003 -9.999E+003 -9.999E+003 -9.999E+003 -9.999E+003 -9.999E+003 -9.999E+003 -9.999E+003 -9.999E+003 -9.999E+003 -9.999E+003 -9.999E+003 -9.999E+003 -9.999E+003 -9.999E+003 -9.999E+003 -9.999E+003 -9.999E+003 -9.999E+003 -9.999E+003 -9.999E+003 -9.999E+003 -9.999E+003 -9.999E+003 -9.999E+003 -9.999E+003 -9.999E+003 -9.999E+003 -9.999E+003 -9.999E+003 -9.999E+003 -9.999E+003 -9.999E+003 -9.999E+003 -9.999E+003 -9.999E+003 -9.999E+003 -9.999E+003 -9.999E+003 -9.999E+003 -9.999E+003 -9.999E+003 -9.999E+003 -9.999E+003 -9.999E+003
 -9.999E+003 -9.999E+003 -9.999E+003 -9.999E+003 -9.999E+003 -9.999E+003 -9.999E+003 -9.999E+003 -9.999E+003 -9.999E+003 -9.999E+003 -9.999E+003 -9.999E+003 -9.999E+003 -9.999E+003 -9.999E+003 -9.999E+003 -9.999E+003 -9.999E+003 -9.999E+003 -9.999E+003 -9.999E+003 -9.999E+003 -9.999E+003 -9.999E+003 -9.999E+003 -9.999E+003 -9.999E+003 -9.999E+003 -9.999E+003 -9.999E+003 -9.999E+003 -9.999E+003 -9.999E+003 -9.999E+003 -9.999E+003 -9.999E+003 -9.999E+003 -9.999E+003 -9.999E+003 -9.999E+003 -9.999E+003 -9.999E+003 -9.999E+003 -9.999E+003 -9.999E+003 -9.999E+003 -9.999E+003 -9.999E+003 -9.999E+003 -9.999E+003 -9.999E+003 -9.999E+003 -9.999E+003 -9.999E+003 -9.999E+003 -9.999E+003 -9.999E+003 -9.999E+003 -9.999E+003 -9.999E+003 -9.999E+003 -9.999E+003 -9.999E+003 -9.999E+003 -9.999E+003 -9.999E+003 -9.999E+003 -9.999E+003 -9.999E+003 -9.999E+003 -9.999E+003 -9.999E+003 -9.999E+003 -9.999E+003 -9.999E+003 -9.999E+003 -9.999E+003 -9.999E+003 -9.999E+003 -9.999E+003 -9.999E+003 -9.999E+003 -9.999E+003 -9.999E+003 -9.999E+003 -9.999E+003 -9.999E+003 -9.999E+003 -9.999E+003 -9.999E+003 -9.999E+003 -9.999E+003 -9.999E+003 -9.999E+003 -9.999E+003 -9.999E+003 -9.999E+003 -9.999E+003 -9.999E+003 -9.999E+003 -9.999E+003 -9.999E+003 -9.999E+003 -9.999E+003 -9.999E+003 -9.999E+003 -9.999E+003 -9.999E+003 -9.999E+003 -9.999E+003 -9.999E+003 -9.999E+003 -9.999E+003 -9.999E+003 -9.999E+003 -9.999E+003 -9.999E+003 -9.999E+003 -9.999E+003 -9.999E+003 -9.999E+003 -9.999E+003 -9.999E+003 -9.999E+003 -9.999E+003 -9.999E+003 -9.999E+003 -9.999E+003 -9.999E+003 -9.999E+003 -9.999E+003 -9.999E+003 -9.999E+003 -9.999E+003 -9.999E+003 -9.999E+003 -9.999E+003 -9.999E+003 -9.999E+003 -9.999E+003 -9.999E+003 -9.999E+003 -9.999E+003 -9.999E+003 -9.999E+003 -9.999E+003 -9.999E+003 -9.999E+003 -9.999E+003
 -9.999E+003 -9.999E+003 -9.999E+003 -9.999E+003 -9.999E+003 -9.999E+003 -9.999E+003 -9.999E+003 -9.999E+003 -9.999E+003 -9.999E+003 -9.999E+003 -9.999E+003 -9.999E+003 -9.999E+003 -9.999E+003 -9.999E+003 -9.999E+003 -9.999E+003 -9.999E+003 -9.999E+003 -9.999E+003 -9.999E+003 -9.999E+003 -9.999E+003 -9.999E+003 -9.999E+003 -9.999E+003 -9.999E+003 -9.999E+003 -9.999E+003 -9.999E+003 -9.999E+003 -9.999E+003 -9.999E+003 -9.999E+003 -9.999E+003 -9.999E+003 -9.999E+003 -9.999E+003 -9.999E+003 -9.999E+003 -9.999E+003 -9.999E+003 -9.999E+003 -9.999E+003 -9.999E+003 -9.999E+003 -9.999E+003 -9.999E+003 -9.999E+003 -9.999E+003 -9.999E+003 -9.999E+003 -9.999E+003 -9.999E+003 -9.999E+003 -9.999E+003 -9.999E+003 -9.999E+003 -9.999E+003 -9.999E+003 -9.999E+003 -9.999E+003 -9.999E+003 -9.999E+003 -9.999E+003 -9.999E+003 -9.999E+003 -9.999E+003 -9.999E+003 -9.999E+003 -9.999E+003 -9.999E+003 -9.999E+003 -9.999E+003 -9.999E+003 -9.999E+003 -9.999E+003 -9.999E+003 -9.999E+003 -9.999E+003 -9.999E+003 -9.999E+003 -9.999E+003 -9.999E+003 -9.999E+003 -9.999E+003 -9.999E+003 -9.999E+003 -9.999E+003 -9.999E+003 -9.999E+003 -9.999E+003 -9.999E+003 -9.999E+003 -9.999E+003 -9.999E+003 -9.999E+003 -9.999E+003 -9.999E+003 -9.999E+003 -9.999E+003 -9.999E+003 -9.999E+003 -9.999E+003 -9.999E+003 -9.999E+003 -9.999E+003 -9.999E+003 -9.999E+003 -9.999E+003 -9.999E+003 -9.999E+003 -9.999E+003 -9.999E+003 -9.999E+003 -9.999E+003 -9.999E+003 -9.999E+003 -9.999E+003 -9.999E+003 -9.999E+003 -9.999E+003 -9.999E+003 -9.999E+003 -9.999E+003 -9.999E+003 -9.999E+003 -9.999E+003 -9.999E+003 -9.999E+003 -9.999E+003 -9.999E+003 -9.999E+003 -9.999E+003 -9.999E+003 -9.999E+003 -9.999E+003 -9.999E+003 -9.999E+003 -9.999E+003 -9.999E+003 -9.999E+003 -9.999E+003 -9.999E+003 -9.999E+003 -9.999E+003 -9.999E+003 -9.999E+003
 -9.999E+003 -9.999E+003 -9.999E+003 -9.999E+003 -9.999E+003 -9.999E+003 -9.999E+003 -9.999E+003 -9.999E+003 -9.999E+003 -9.999E+003 -9.999E+003 -9.999E+003 -9.999E+003 -9.999E+003 -9.999E+003 -9.999E+003 -9.999E+003 -9.999E+003 -9.999E+003 -9.999E+003 -9.999E+003 -9.999E+003 -9.999E+003 -9.999E+003 -9.999E+003 -9.999E+003 -9.999E+003 -9.999E+003 -9.999E+003 -9.999E+003 -9.999E+003 -9.999E+003 -9.999E+003 -9.999E+003 -9.999E+003 -9.999E+003 -9.999E+003 -9.999E+003 -9.999E+003 -9.999E+003 -9.999E+003 -9.999E+003 -9.999E+003 -9.999E+003 -9.999E+003 -9.999E+003 -9.999E+003 -9.999E+003 -9.999E+003 -9.999E+003 -9.999E+003 -9.999E+003 -9.999E+003 -9.999E+003 -9.999E+003 -9.999E+003 -9.999E+003 -9.999E+003 -9.999E+003 -9.999E+003 -9.999E+003 -9.999E+003 -9.999E+003 -9.999E+003 -9.999E+003 -9.999E+003 -9.999E+003 -9.999E+003 -9.999E+003 -9.999E+003 -9.999E+003 -9.999E+003 -9.999E+003 -9.999E+003 -9.999E+003 -9.999E+003 -9.999E+003 -9.999E+003 -9.999E+003 -9.999E+003 -9.999E+003 -9.999E+003 -9.999E+003 -9.999E+003 -9.999E+003 -9.999E+003 -9.999E+003 -9.999E+003 -9.999E+003 -9.999E+003 -9.999E+003 -9.999E+003 -9.999E+003 -9.999E+003 -9.999E+003 -9.999E+003 -9.999E+003 -9.999E+003 -9.999E+003 -9.999E+003 -9.999E+003 -9.999E+003 -9.999E+003 -9.999E+003 -9.999E+003 -9.999E+003 -9.999E+003 -9.999E+003 -9.999E+003 -9.999E+003 -9.999E+003 -9.999E+003 -9.999E+003 -9.999E+003 -9.999E+003 -9.999E+003 -9.999E+003 -9.999E+003 -9.999E+003 -9.999E+003 -9.999E+003 -9.999E+003 -9.999E+003 -9.999E+003 -9.999E+003 -9.999E+003 -9.999E+003 -9.999E+003 -9.999E+003 -9.999E+003 -9.999E+003 -9.999E+003 -9.999E+003 -9.999E+003 -9.999E+003 -9.999E+003 -9.999E+003 -9.999E+003 -9.999E+003 -9.999E+003 -9.999E+003 -9.999E+003 -9.999E+003 -9.999E+003 -9.999E+003 -9.999E+003 -9.999E+003 -9.999E+003 -9.999E+003
 -9.999E+003 -9.999E+003 -9.999E+003 -9.999E+003 -9.999E+003 -9.999E+003 -9.999E+003 -9.999E+003 -9.999E+003 -9.999E+003 -9.999E+003 -9.999E+003 -9.999E+003 -9.999E+003 -9.999E+003 -9.999E+003 -9.999E+003 -9.999E+003 -9.999E+003 -9.999E+003 -9.999E+003 -9.999E+003 -9.999E+003 -9.999E+003 -9.999E+003 -9.999E+003 -9.999E+003 -9.999E+003 -9.999E+003 -9.999E+003 -9.999E+003 -9.999E+003 -9.999E+003 -9.999E+003 -9.999E+003 -9.999E+003 -9.999E+003 -9.999E+003 -9.999E+003 -9.999E+003 -9.999E+003 -9.999E+003 -9.999E+003 -9.999E+003 -9.999E+003 -9.999E+003 -9.999E+003 -9.999E+003 -9.999E+003 -9.999E+003 -9.999E+003 -9.999E+003 -9.999E+003 -9.999E+003 -9.999E+003 -9.999E+003 -9.999E+003 -9.999E+003 -9.999E+003 -9.999E+003 -9.999E+003 -9.999E+003 -9.999E+003 -9.999E+003 -9.999E+003 -9.999E+003 -9.999E+003 -9.999E+003 -9.999E+003 -9.999E+003 -9.999E+003 -9.999E+003 -9.999E+003 -9.999E+003 -9.999E+003 -9.999E+003 -9.999E+003 -9.999E+003 -9.999E+003 -9.999E+003 -9.999E+003 -9.999E+003 -9.999E+003 -9.999E+003 -9.999E+003 -9.999E+003 -9.999E+003 -9.999E+003 -9.999E+003 -9.999E+003 -9.999E+003 -9.999E+003 -9.999E+003 -9.999E+003 -9.999E+003 -9.999E+003 -9.999E+003 -9.999E+003 -9.999E+003 -9.999E+003 -9.999E+003 -9.999E+003 -9.999E+003 -9.999E+003 -9.999E+003 -9.999E+003 -9.999E+003 -9.999E+003 -9.999E+003 -9.999E+003 -9.999E+003 -9.999E+003 -9.999E+003 -9.999E+003 -9.999E+003 -9.999E+003 -9.999E+003 -9.999E+003 -9.999E+003 -9.999E+003 -9.999E+003 -9.999E+003 -9.999E+003 -9.999E+003 -9.999E+003 -9.999E+003 -9.999E+003 -9.999E+003 -9.999E+003 -9.999E+003 -9.999E+003 -9.999E+003 -9.999E+003 -9.999E+003 -9.999E+003 -9.999E+003 -9.999E+003 -9.999E+003 -9.999E+003 -9.999E+003 -9.999E+003 -9.999E+003 -9.999E+003 -9.999E+003 -9.999E+003 -9.999E+003 -9.999E+003 -9.999E+003 -9.999E+003 -9.999E+003
 -9.999E+003 -9.999E+003 -9.999E+003 -9.999E+003 -9.999E+003 -9.999E+003 -9.999E+003 -9.999E+003 -9.999E+003 -9.999E+003 -9.999E+003 -9.999E+003 -9.999E+003 -9.999E+003 -9.999E+003 -9.999E+003 -9.999E+003 -9.999E+003 -9.999E+003 -9.999E+003 -9.999E+003 -9.999E+003 -9.999E+003 -9.999E+003 -9.999E+003 -9.999E+003 -9.999E+003 -9.999E+003 -9.999E+003 -9.999E+003 -9.999E+003 -9.999E+003 -9.999E+003 -9.999E+003 -9.999E+003 -9.999E+003 -9.999E+003 -9.999E+003 -9.999E+003 -9.999E+003 -9.999E+003 -9.999E+003 -9.999E+003 -9.999E+003 -9.999E+003 -9.999E+003 -9.999E+003 -9.999E+003 -9.999E+003 -9.999E+003 -9.999E+003 -9.999E+003 -9.999E+003 -9.999E+003 -9.999E+003 -9.999E+003 -9.999E+003 -9.999E+003 -9.999E+003 -9.999E+003 -9.999E+003 -9.999E+003 -9.999E+003 -9.999E+003 -9.999E+003 -9.999E+003 -9.999E+003 -9.999E+003 -9.999E+003 -9.999E+003 -9.999E+003 -9.999E+003 -9.999E+003 -9.999E+003 -9.999E+003 -9.999E+003 -9.999E+003 -9.999E+003 -9.999E+003 -9.999E+003 -9.999E+003 -9.999E+003 -9.999E+003 -9.999E+003 -9.999E+003 -9.999E+003 -9.999E+003 -9.999E+003 -9.999E+003 -9.999E+003 -9.999E+003 -9.999E+003 -9.999E+003 -9.999E+003 -9.999E+003 -9.999E+003 -9.999E+003 -9.999E+003 -9.999E+003 -9.999E+003 -9.999E+003 -9.999E+003 -9.999E+003 -9.999E+003 -9.999E+003 -9.999E+003 -9.999E+003 -9.999E+003 -9.999E+003 -9.999E+003 -9.999E+003 -9.999E+003 -9.999E+003 -9.999E+003 -9.999E+003 -9.999E+003 -9.999E+003 -9.999E+003 -9.999E+003 -9.999E+003 -9.999E+003 -9.999E+003 -9.999E+003 -9.999E+003 -9.999E+003 -9.999E+003 -9.999E+003 -9.999E+003 -9.999E+003 -9.999E+003 -9.999E+003 -9.999E+003 -9.999E+003 -9.999E+003 -9.999E+003 -9.999E+003 -9.999E+003 -9.999E+003 -9.999E+003 -9.999E+003 -9.999E+003 -9.999E+003 -9.999E+003 -9.999E+003 -9.999E+003 -9.999E+003 -9.999E+003 -9.999E+003 -9.999E+003 -9.999E+003
 -9.999E+003 -9.999E+003 -9.999E+003 -9.999E+003 -9.999E+003 -9.999E+003 -9.999E+003 -9.999E+003 -9.999E+003 -9.999E+003 -9.999E+003 -9.999E+003 -9.999E+003 -9.999E+003 -9.999E+003 -9.999E+003 -9.999E+003 -9.999E+003 -9.999E+003 -9.999E+003 -9.999E+003 -9.999E+003 -9.999E+003 -9.999E+003 -9.999E+003 -9.999E+003 -9.999E+003 -9.999E+003 -9.999E+003 -9.999E+003 -9.999E+003 -9.999E+003 -9.999E+003 -9.999E+003 -9.999E+003 -9.999E+003 -9.999E+003 -9.999E+003 -9.999E+003 -9.999E+003 -9.999E+003 -9.999E+003 -9.999E+003 -9.999E+003 -9.999E+003 -9.999E+003 -9.999E+003 -9.999E+003 -9.999E+003 -9.999E+003 -9.999E+003 -9.999E+003 -9.999E+003 -9.999E+003 -9.999E+003 -9.999E+003 -9.999E+003 -9.999E+003 -9.999E+003 -9.999E+003 -9.999E+003 -9.999E+003 -9.999E+003 -9.999E+003 -9.999E+003 -9.999E+003 -9.999E+003 -9.999E+003 -9.999E+003 -9.999E+003 -9.999E+003 -9.999E+003 -9.999E+003 -9.999E+003 -9.999E+003 -9.999E+003 -9.999E+003 -9.999E+003 -9.999E+003 -9.999E+003 -9.999E+003 -9.999E+003 -9.999E+003 -9.999E+003 -9.999E+003 -9.999E+003 -9.999E+003 -9.999E+003 -9.999E+003 -9.999E+003 -9.999E+003 -9.999E+003 -9.999E+003 -9.999E+003 -9.999E+003 -9.999E+003 -9.999E+003 -9.999E+003 -9.999E+003 -9.999E+003 -9.999E+003 -9.999E+003 -9.999E+003 -9.999E+003 -9.999E+003 -9.999E+003 -9.999E+003 -9.999E+003 -9.999E+003 -9.999E+003 -9.999E+003 -9.999E+003 -9.999E+003 -9.999E+003 -9.999E+003 -9.999E+003 -9.999E+003 -9.999E+003 -9.999E+003 -9.999E+003 -9.999E+003 -9.999E+003 -9.999E+003 -9.999E+003 -9.999E+003 -9.999E+003 -9.999E+003 -9.999E+003 -9.999E+003 -9.999E+003 -9.999E+003 -9.999E+003 -9.999E+003 -9.999E+003 -9.999E+003 -9.999E+003 -9.999E+003 -9.999E+003 -9.999E+003 -9.999E+003 -9.999E+003 -9.999E+003 -9.999E+003 -9.999E+003 -9.999E+003 -9.999E+003 -9.999E+003 -9.999E+003 -9.999E+003 -9.999E+003
 -9.999E+003 -9.999E+003 -9.999E+003 -9.999E+003 -9.999E+003 -9.999E+003 -9.999E+003 -9.999E+003 -9.999E+003 -9.999E+003 -9.999E+003 -9.999E+003 -9.999E+003 -9.999E+003 -9.999E+003 -9.999E+003 -9.999E+003 -9.999E+003 -9.999E+003 -9.999E+003 -9.999E+003 -9.999E+003 -9.999E+003 -9.999E+003 -9.999E+003 -9.999E+003 -9.999E+003 -9.999E+003 -9.999E+003 -9.999E+003 -9.999E+003 -9.999E+003 -9.999E+003 -9.999E+003 -9.999E+003 -9.999E+003 -9.999E+003 -9.999E+003 -9.999E+003 -9.999E+003 -9.999E+003 -9.999E+003 -9.999E+003 -9.999E+003 -9.999E+003 -9.999E+003 -9.999E+003 -9.999E+003 -9.999E+003 -9.999E+003 -9.999E+003 -9.999E+003 -9.999E+003 -9.999E+003 -9.999E+003 -9.999E+003 -9.999E+003 -9.999E+003 -9.999E+003 -9.999E+003 -9.999E+003 -9.999E+003 -9.999E+003 -9.999E+003 -9.999E+003 -9.999E+003 -9.999E+003 -9.999E+003 -9.999E+003 -9.999E+003 -9.999E+003 -9.999E+003 -9.999E+003 -9.999E+003 -9.999E+003 -9.999E+003 -9.999E+003 -9.999E+003 -9.999E+003 -9.999E+003 -9.999E+003 -9.999E+003 -9.999E+003 -9.999E+003 -9.999E+003 -9.999E+003 -9.999E+003 -9.999E+003 -9.999E+003 -9.999E+003 -9.999E+003 -9.999E+003 -9.999E+003 -9.999E+003 -9.999E+003 -9.999E+003 -9.999E+003 -9.999E+003 -9.999E+003 -9.999E+003 -9.999E+003 -9.999E+003 -9.999E+003 -9.999E+003 -9.999E+003 -9.999E+003 -9.999E+003 -9.999E+003 -9.999E+003 -9.999E+003 -9.999E+003 -9.999E+003 -9.999E+003 -9.999E+003 -9.999E+003 -9.999E+003 -9.999E+003 -9.999E+003 -9.999E+003 -9.999E+003 -9.999E+003 -9.999E+003 -9.999E+003 -9.999E+003 -9.999E+003 -9.999E+003 -9.999E+003 -9.999E+003 -9.999E+003 -9.999E+003 -9.999E+003 -9.999E+003 -9.999E+003 -9.999E+003 -9.999E+003 -9.999E+003 -9.999E+003 -9.999E+003 -9.999E+003 -9.999E+003 -9.999E+003 -9.999E+003 -9.999E+003 -9.999E+003 -9.999E+003 -9.999E+003 -9.999E+003 -9.999E+003 -9.999E+003 -9.999E+003
 -9.999E+003 -9.999E+003 -9.999E+003 -9.999E+003 -9.999E+003 -9.999E+003 -9.999E+003 -9.999E+003 -9.999E+003 -9.999E+003 -9.999E+003 -9.999E+003 -9.999E+003 -9.999E+003 -9.999E+003 -9.999E+003 -9.999E+003 -9.999E+003 -9.999E+003 -9.999E+003 -9.999E+003 -9.999E+003 -9.999E+003 -9.999E+003 -9.999E+003 -9.999E+003 -9.999E+003 -9.999E+003 -9.999E+003 -9.999E+003 -9.999E+003 -9.999E+003 -9.999E+003 -9.999E+003 -9.999E+003 -9.999E+003 -9.999E+003 -9.999E+003 -9.999E+003 -9.999E+003 -9.999E+003 -9.999E+003 -9.999E+003 -9.999E+003 -9.999E+003 -9.999E+003 -9.999E+003 -9.999E+003 -9.999E+003 -9.999E+003 -9.999E+003 -9.999E+003 -9.999E+003 -9.999E+003 -9.999E+003 -9.999E+003 -9.999E+003 -9.999E+003 -9.999E+003 -9.999E+003 -9.999E+003 -9.999E+003 -9.999E+003 -9.999E+003 -9.999E+003 -9.999E+003 -9.999E+003 -9.999E+003 -9.999E+003 -9.999E+003 -9.999E+003 -9.999E+003 -9.999E+003 -9.999E+003 -9.999E+003 -9.999E+003 -9.999E+003 -9.999E+003 -9.999E+003 -9.999E+003 -9.999E+003 -9.999E+003 -9.999E+003 -9.999E+003 -9.999E+003 -9.999E+003 -9.999E+003 -9.999E+003 -9.999E+003 -9.999E+003 -9.999E+003 -9.999E+003 -9.999E+003 -9.999E+003 -9.999E+003 -9.999E+003 -9.999E+003 -9.999E+003 -9.999E+003 -9.999E+003 -9.999E+003 -9.999E+003 -9.999E+003 -9.999E+003 -9.999E+003 -9.999E+003 -9.999E+003 -9.999E+003 -9.999E+003 -9.999E+003 -9.999E+003 -9.999E+003 -9.999E+003 -9.999E+003 -9.999E+003 -9.999E+003 -9.999E+003 -9.999E+003 -9.999E+003 -9.999E+003 -9.999E+003 -9.999E+003 -9.999E+003 -9.999E+003 -9.999E+003 -9.999E+003 -9.999E+003 -9.999E+003 -9.999E+003 -9.999E+003 -9.999E+003 -9.999E+003 -9.999E+003 -9.999E+003 -9.999E+003 -9.999E+003 -9.999E+003 -9.999E+003 -9.999E+003 -9.999E+003 -9.999E+003 -9.999E+003 -9.999E+003 -9.999E+003 -9.999E+003 -9.999E+003 -9.999E+003 -9.999E+003 -9.999E+003 -9.999E+003
 -9.999E+003 -9.999E+003 -9.999E+003 -9.999E+003 -9.999E+003 -9.999E+003 -9.999E+003 -9.999E+003 -9.999E+003 -9.999E+003 -9.999E+003 -9.999E+003 -9.999E+003 -9.999E+003 -9.999E+003 -9.999E+003 -9.999E+003 -9.999E+003 -9.999E+003 -9.999E+003 -9.999E+003 -9.999E+003 -9.999E+003 -9.999E+003 -9.999E+003 -9.999E+003 -9.999E+003 -9.999E+003 -9.999E+003 -9.999E+003 -9.999E+003 -9.999E+003 -9.999E+003 -9.999E+003 -9.999E+003 -9.999E+003 -9.999E+003 -9.999E+003 -9.999E+003 -9.999E+003 -9.999E+003 -9.999E+003 -9.999E+003 -9.999E+003 -9.999E+003 -9.999E+003 -9.999E+003 -9.999E+003 -9.999E+003 -9.999E+003 -9.999E+003 -9.999E+003 -9.999E+003 -9.999E+003 -9.999E+003 -9.999E+003 -9.999E+003 -9.999E+003 -9.999E+003 -9.999E+003 -9.999E+003 -9.999E+003 -9.999E+003 -9.999E+003 -9.999E+003 -9.999E+003 -9.999E+003 -9.999E+003 -9.999E+003 -9.999E+003 -9.999E+003 -9.999E+003 -9.999E+003 -9.999E+003 -9.999E+003 -9.999E+003 -9.999E+003 -9.999E+003 -9.999E+003 -9.999E+003 -9.999E+003 -9.999E+003 -9.999E+003 -9.999E+003 -9.999E+003 -9.999E+003 -9.999E+003 -9.999E+003 -9.999E+003 -9.999E+003 -9.999E+003 -9.999E+003 -9.999E+003 -9.999E+003 -9.999E+003 -9.999E+003 -9.999E+003 -9.999E+003 -9.999E+003 -9.999E+003 -9.999E+003 -9.999E+003 -9.999E+003 -9.999E+003 -9.999E+003 -9.999E+003 -9.999E+003 -9.999E+003 -9.999E+003 -9.999E+003 -9.999E+003 -9.999E+003 -9.999E+003 -9.999E+003 -9.999E+003 -9.999E+003 -9.999E+003 -9.999E+003 -9.999E+003 -9.999E+003 -9.999E+003 -9.999E+003 -9.999E+003 -9.999E+003 -9.999E+003 -9.999E+003 -9.999E+003 -9.999E+003 -9.999E+003 -9.999E+003 -9.999E+003 -9.999E+003 -9.999E+003 -9.999E+003 -9.999E+003 -9.999E+003 -9.999E+003 -9.999E+003 -9.999E+003 -9.999E+003 -9.999E+003 -9.999E+003 -9.999E+003 -9.999E+003 -9.999E+003 -9.999E+003 -9.999E+003 -9.999E+003 -9.999E+003 -9.999E+003
 -9.999E+003 -9.999E+003 -9.999E+003 -9.999E+003 -9.999E+003 -9.999E+003 -9.999E+003 -9.999E+003 -9.999E+003 -9.999E+003 -9.999E+003 -9.999E+003 -9.999E+003 -9.999E+003 -9.999E+003 -9.999E+003 -9.999E+003 -9.999E+003 -9.999E+003 -9.999E+003 -9.999E+003 -9.999E+003 -9.999E+003 -9.999E+003 -9.999E+003 -9.999E+003 -9.999E+003 -9.999E+003 -9.999E+003 -9.999E+003 -9.999E+003 -9.999E+003 -9.999E+003 -9.999E+003 -9.999E+003 -9.999E+003 -9.999E+003 -9.999E+003 -9.999E+003 -9.999E+003 -9.999E+003 -9.999E+003 -9.999E+003 -9.999E+003 -9.999E+003 -9.999E+003 -9.999E+003 -9.999E+003 -9.999E+003 -9.999E+003 -9.999E+003 -9.999E+003 -9.999E+003 -9.999E+003 -9.999E+003 -9.999E+003 -9.999E+003 -9.999E+003 -9.999E+003 -9.999E+003 -9.999E+003 -9.999E+003 -9.999E+003 -9.999E+003 -9.999E+003 -9.999E+003 -9.999E+003 -9.999E+003 -9.999E+003 -9.999E+003 -9.999E+003 -9.999E+003 -9.999E+003 -9.999E+003 -9.999E+003 -9.999E+003 -9.999E+003 -9.999E+003 -9.999E+003 -9.999E+003 -9.999E+003 -9.999E+003 -9.999E+003 -9.999E+003 -9.999E+003 -9.999E+003 -9.999E+003 -9.999E+003 -9.999E+003 -9.999E+003 -9.999E+003 -9.999E+003 -9.999E+003 -9.999E+003 -9.999E+003 -9.999E+003 -9.999E+003 -9.999E+003 -9.999E+003 -9.999E+003 -9.999E+003 -9.999E+003 -9.999E+003 -9.999E+003 -9.999E+003 -9.999E+003 -9.999E+003 -9.999E+003 -9.999E+003 -9.999E+003 -9.999E+003 -9.999E+003 -9.999E+003 -9.999E+003 -9.999E+003 -9.999E+003 -9.999E+003 -9.999E+003 -9.999E+003 -9.999E+003 -9.999E+003 -9.999E+003 -9.999E+003 -9.999E+003 -9.999E+003 -9.999E+003 -9.999E+003 -9.999E+003 -9.999E+003 -9.999E+003 -9.999E+003 -9.999E+003 -9.999E+003 -9.999E+003 -9.999E+003 -9.999E+003 -9.999E+003 -9.999E+003 -9.999E+003 -9.999E+003 -9.999E+003 -9.999E+003 -9.999E+003 -9.999E+003 -9.999E+003 -9.999E+003 -9.999E+003 -9.999E+003 -9.999E+003 -9.999E+003
 -9.999E+003 -9.999E+003 -9.999E+003 -9.999E+003 -9.999E+003 -9.999E+003 -9.999E+003 -9.999E+003 -9.999E+003 -9.999E+003 -9.999E+003 -9.999E+003 -9.999E+003 -9.999E+003 -9.999E+003 -9.999E+003 -9.999E+003 -9.999E+003 -9.999E+003 -9.999E+003 -9.999E+003 -9.999E+003 -9.999E+003 -9.999E+003 -9.999E+003 -9.999E+003 -9.999E+003 -9.999E+003 -9.999E+003 -9.999E+003 -9.999E+003 -9.999E+003 -9.999E+003 -9.999E+003 -9.999E+003 -9.999E+003 -9.999E+003 -9.999E+003 -9.999E+003 -9.999E+003 -9.999E+003 -9.999E+003 -9.999E+003 -9.999E+003 -9.999E+003 -9.999E+003 -9.999E+003 -9.999E+003 -9.999E+003 -9.999E+003 -9.999E+003 -9.999E+003 -9.999E+003 -9.999E+003 -9.999E+003 -9.999E+003 -9.999E+003 -9.999E+003 -9.999E+003 -9.999E+003 -9.999E+003 -9.999E+003 -9.999E+003 -9.999E+003 -9.999E+003 -9.999E+003 -9.999E+003 -9.999E+003 -9.999E+003 -9.999E+003 -9.999E+003 -9.999E+003 -9.999E+003 -9.999E+003 -9.999E+003 -9.999E+003 -9.999E+003 -9.999E+003 -9.999E+003 -9.999E+003 -9.999E+003 -9.999E+003 -9.999E+003 -9.999E+003 -9.999E+003 -9.999E+003 -9.999E+003 -9.999E+003 -9.999E+003 -9.999E+003 -9.999E+003 -9.999E+003 -9.999E+003 -9.999E+003 -9.999E+003 -9.999E+003 -9.999E+003 -9.999E+003 -9.999E+003 -9.999E+003 -9.999E+003 -9.999E+003 -9.999E+003 -9.999E+003 -9.999E+003 -9.999E+003 -9.999E+003 -9.999E+003 -9.999E+003 -9.999E+003 -9.999E+003 -9.999E+003 -9.999E+003 -9.999E+003 -9.999E+003 -9.999E+003 -9.999E+003 -9.999E+003 -9.999E+003 -9.999E+003 -9.999E+003 -9.999E+003 -9.999E+003 -9.999E+003 -9.999E+003 -9.999E+003 -9.999E+003 -9.999E+003 -9.999E+003 -9.999E+003 -9.999E+003 -9.999E+003 -9.999E+003 -9.999E+003 -9.999E+003 -9.999E+003 -9.999E+003 -9.999E+003 -9.999E+003 -9.999E+003 -9.999E+003 -9.999E+003 -9.999E+003 -9.999E+003 -9.999E+003 -9.999E+003 -9.999E+003 -9.999E+003 -9.999E+003 -9.999E+003
 -9.999E+003 -9.999E+003 -9.999E+003 -9.999E+003 -9.999E+003 -9.999E+003 -9.999E+003 -9.999E+003 -9.999E+003 -9.999E+003 -9.999E+003 -9.999E+003 -9.999E+003 -9.999E+003 -9.999E+003 -9.999E+003 -9.999E+003 -9.999E+003 -9.999E+003 -9.999E+003 -9.999E+003 -9.999E+003 -9.999E+003 -9.999E+003 -9.999E+003 -9.999E+003 -9.999E+003 -9.999E+003 -9.999E+003 -9.999E+003 -9.999E+003 -9.999E+003 -9.999E+003 -9.999E+003 -9.999E+003 -9.999E+003 -9.999E+003 -9.999E+003 -9.999E+003 -9.999E+003 -9.999E+003 -9.999E+003 -9.999E+003 -9.999E+003 -9.999E+003 -9.999E+003 -9.999E+003 -9.999E+003 -9.999E+003 -9.999E+003 -9.999E+003 -9.999E+003 -9.999E+003 -9.999E+003 -9.999E+003 -9.999E+003 -9.999E+003 -9.999E+003 -9.999E+003 -9.999E+003 -9.999E+003 -9.999E+003 -9.999E+003 -9.999E+003 -9.999E+003 -9.999E+003 -9.999E+003 -9.999E+003 -9.999E+003 -9.999E+003 -9.999E+003 -9.999E+003 -9.999E+003 -9.999E+003 -9.999E+003 -9.999E+003 -9.999E+003 -9.999E+003 -9.999E+003 -9.999E+003 -9.999E+003 -9.999E+003 -9.999E+003 -9.999E+003 -9.999E+003 -9.999E+003 -9.999E+003 -9.999E+003 -9.999E+003 -9.999E+003 -9.999E+003 -9.999E+003 -9.999E+003 -9.999E+003 -9.999E+003 -9.999E+003 -9.999E+003 -9.999E+003 -9.999E+003 -9.999E+003 -9.999E+003 -9.999E+003 -9.999E+003 -9.999E+003 -9.999E+003 -9.999E+003 -9.999E+003 -9.999E+003 -9.999E+003 -9.999E+003 -9.999E+003 -9.999E+003 -9.999E+003 -9.999E+003 -9.999E+003 -9.999E+003 -9.999E+003 -9.999E+003 -9.999E+003 -9.999E+003 -9.999E+003 -9.999E+003 -9.999E+003 -9.999E+003 -9.999E+003 -9.999E+003 -9.999E+003 -9.999E+003 -9.999E+003 -9.999E+003 -9.999E+003 -9.999E+003 -9.999E+003 -9.999E+003 -9.999E+003 -9.999E+003 -9.999E+003 -9.999E+003 -9.999E+003 -9.999E+003 -9.999E+003 -9.999E+003 -9.999E+003 -9.999E+003 -9.999E+003 -9.999E+003 -9.999E+003 -9.999E+003 -9.999E+003 -9.999E+003
 -9.999E+003 -9.999E+003 -9.999E+003 -9.999E+003 -9.999E+003 -9.999E+003 -9.999E+003 -9.999E+003 -9.999E+003 -9.999E+003 -9.999E+003 -9.999E+003 -9.999E+003 -9.999E+003 -9.999E+003 -9.999E+003 -9.999E+003 -9.999E+003 -9.999E+003 -9.999E+003 -9.999E+003 -9.999E+003 -9.999E+003 -9.999E+003 -9.999E+003 -9.999E+003 -9.999E+003 -9.999E+003 -9.999E+003 -9.999E+003 -9.999E+003 -9.999E+003 -9.999E+003 -9.999E+003 -9.999E+003 -9.999E+003 -9.999E+003 -9.999E+003 -9.999E+003 -9.999E+003 -9.999E+003 -9.999E+003 -9.999E+003 -9.999E+003 -9.999E+003 -9.999E+003 -9.999E+003 -9.999E+003 -9.999E+003 -9.999E+003 -9.999E+003 -9.999E+003 -9.999E+003 -9.999E+003 -9.999E+003 -9.999E+003 -9.999E+003 -9.999E+003 -9.999E+003 -9.999E+003 -9.999E+003 -9.999E+003 -9.999E+003 -9.999E+003 -9.999E+003 -9.999E+003 -9.999E+003 -9.999E+003 -9.999E+003 -9.999E+003 -9.999E+003 -9.999E+003 -9.999E+003 -9.999E+003 -9.999E+003 -9.999E+003 -9.999E+003 -9.999E+003 -9.999E+003 -9.999E+003 -9.999E+003 -9.999E+003 -9.999E+003 -9.999E+003 -9.999E+003 -9.999E+003 -9.999E+003 -9.999E+003 -9.999E+003 -9.999E+003 -9.999E+003 -9.999E+003 -9.999E+003 -9.999E+003 -9.999E+003 -9.999E+003 -9.999E+003 -9.999E+003 -9.999E+003 -9.999E+003 -9.999E+003 -9.999E+003 -9.999E+003 -9.999E+003 -9.999E+003 -9.999E+003 -9.999E+003 -9.999E+003 -9.999E+003 -9.999E+003 -9.999E+003 -9.999E+003 -9.999E+003 -9.999E+003 -9.999E+003 -9.999E+003 -9.999E+003 -9.999E+003 -9.999E+003 -9.999E+003 -9.999E+003 -9.999E+003 -9.999E+003 -9.999E+003 -9.999E+003 -9.999E+003 -9.999E+003 -9.999E+003 -9.999E+003 -9.999E+003 -9.999E+003 -9.999E+003 -9.999E+003 -9.999E+003 -9.999E+003 -9.999E+003 -9.999E+003 -9.999E+003 -9.999E+003 -9.999E+003 -9.999E+003 -9.999E+003 -9.999E+003 -9.999E+003 -9.999E+003 -9.999E+003 -9.999E+003 -9.999E+003 -9.999E+003 -9.999E+003
 -9.999E+003 -9.999E+003 -9.999E+003 -9.999E+003 -9.999E+003 -9.999E+003 -9.999E+003 -9.999E+003 -9.999E+003 -9.999E+003 -9.999E+003 -9.999E+003 -9.999E+003 -9.999E+003 -9.999E+003 -9.999E+003 -9.999E+003 -9.999E+003 -9.999E+003 -9.999E+003 -9.999E+003 -9.999E+003 -9.999E+003 -9.999E+003 -9.999E+003 -9.999E+003 -9.999E+003 -9.999E+003 -9.999E+003 -9.999E+003 -9.999E+003 -9.999E+003 -9.999E+003 -9.999E+003 -9.999E+003 -9.999E+003 -9.999E+003 -9.999E+003 -9.999E+003 -9.999E+003 -9.999E+003 -9.999E+003 -9.999E+003 -9.999E+003 -9.999E+003 -9.999E+003 -9.999E+003 -9.999E+003 -9.999E+003 -9.999E+003 -9.999E+003 -9.999E+003 -9.999E+003 -9.999E+003 -9.999E+003 -9.999E+003 -9.999E+003 -9.999E+003 -9.999E+003 -9.999E+003 -9.999E+003 -9.999E+003 -9.999E+003 -9.999E+003 -9.999E+003 -9.999E+003 -9.999E+003 -9.999E+003 -9.999E+003 -9.999E+003 -9.999E+003 -9.999E+003 -9.999E+003 -9.999E+003 -9.999E+003 -9.999E+003 -9.999E+003 -9.999E+003 -9.999E+003 -9.999E+003 -9.999E+003 -9.999E+003 -9.999E+003 -9.999E+003 -9.999E+003 -9.999E+003 -9.999E+003 -9.999E+003 -9.999E+003 -9.999E+003 -9.999E+003 -9.999E+003 -9.999E+003 -9.999E+003 -9.999E+003 -9.999E+003 -9.999E+003 -9.999E+003 -9.999E+003 -9.999E+003 -9.999E+003 -9.999E+003 -9.999E+003 -9.999E+003 -9.999E+003 -9.999E+003 -9.999E+003 -9.999E+003 -9.999E+003 -9.999E+003 -9.999E+003 -9.999E+003 -9.999E+003 -9.999E+003 -9.999E+003 -9.999E+003 -9.999E+003 -9.999E+003 -9.999E+003 -9.999E+003 -9.999E+003 -9.999E+003 -9.999E+003 -9.999E+003 -9.999E+003 -9.999E+003 -9.999E+003 -9.999E+003 -9.999E+003 -9.999E+003 -9.999E+003 -9.999E+003 -9.999E+003 -9.999E+003 -9.999E+003 -9.999E+003 -9.999E+003 -9.999E+003 -9.999E+003 -9.999E+003 -9.999E+003 -9.999E+003 -9.999E+003 -9.999E+003 -9.999E+003 -9.999E+003 -9.999E+003 -9.999E+003 -9.999E+003 -9.999E+003
 -9.999E+003 -9.999E+003 -9.999E+003 -9.999E+003 -9.999E+003 -9.999E+003 -9.999E+003 -9.999E+003 -9.999E+003 -9.999E+003 -9.999E+003 -9.999E+003 -9.999E+003 -9.999E+003 -9.999E+003 -9.999E+003 -9.999E+003 -9.999E+003 -9.999E+003 -9.999E+003 -9.999E+003 -9.999E+003 -9.999E+003 -9.999E+003 -9.999E+003 -9.999E+003 -9.999E+003 -9.999E+003 -9.999E+003 -9.999E+003 -9.999E+003 -9.999E+003 -9.999E+003 -9.999E+003 -9.999E+003 -9.999E+003 -9.999E+003 -9.999E+003 -9.999E+003 -9.999E+003 -9.999E+003 -9.999E+003 -9.999E+003 -9.999E+003 -9.999E+003 -9.999E+003 -9.999E+003 -9.999E+003 -9.999E+003 -9.999E+003 -9.999E+003 -9.999E+003 -9.999E+003 -9.999E+003 -9.999E+003 -9.999E+003 -9.999E+003 -9.999E+003 -9.999E+003 -9.999E+003 -9.999E+003 -9.999E+003 -9.999E+003 -9.999E+003 -9.999E+003 -9.999E+003 -9.999E+003 -9.999E+003 -9.999E+003 -9.999E+003 -9.999E+003 -9.999E+003 -9.999E+003 -9.999E+003 -9.999E+003 -9.999E+003 -9.999E+003 -9.999E+003 -9.999E+003 -9.999E+003 -9.999E+003 -9.999E+003 -9.999E+003 -9.999E+003 -9.999E+003 -9.999E+003 -9.999E+003 -9.999E+003 -9.999E+003 -9.999E+003 -9.999E+003 -9.999E+003 -9.999E+003 -9.999E+003 -9.999E+003 -9.999E+003 -9.999E+003 -9.999E+003 -9.999E+003 -9.999E+003 -9.999E+003 -9.999E+003 -9.999E+003 -9.999E+003 -9.999E+003 -9.999E+003 -9.999E+003 -9.999E+003 -9.999E+003 -9.999E+003 -9.999E+003 -9.999E+003 -9.999E+003 -9.999E+003 -9.999E+003 -9.999E+003 -9.999E+003 -9.999E+003 -9.999E+003 -9.999E+003 -9.999E+003 -9.999E+003 -9.999E+003 -9.999E+003 -9.999E+003 -9.999E+003 -9.999E+003 -9.999E+003 -9.999E+003 -9.999E+003 -9.999E+003 -9.999E+003 -9.999E+003 -9.999E+003 -9.999E+003 -9.999E+003 -9.999E+003 -9.999E+003 -9.999E+003 -9.999E+003 -9.999E+003 -9.999E+003 -9.999E+003 -9.999E+003 -9.999E+003 -9.999E+003 -9.999E+003 -9.999E+003 -9.999E+003 -9.999E+003
 -9.999E+003 -9.999E+003 -9.999E+003 -9.999E+003 -9.999E+003 -9.999E+003 -9.999E+003 -9.999E+003 -9.999E+003 -9.999E+003 -9.999E+003 -9.999E+003 -9.999E+003 -9.999E+003 -9.999E+003 -9.999E+003 -9.999E+003 -9.999E+003 -9.999E+003 -9.999E+003 -9.999E+003 -9.999E+003 -9.999E+003 -9.999E+003 -9.999E+003 -9.999E+003 -9.999E+003 -9.999E+003 -9.999E+003 -9.999E+003 -9.999E+003 -9.999E+003 -9.999E+003 -9.999E+003 -9.999E+003 -9.999E+003 -9.999E+003 -9.999E+003 -9.999E+003 -9.999E+003 -9.999E+003 -9.999E+003 -9.999E+003 -9.999E+003 -9.999E+003 -9.999E+003 -9.999E+003 -9.999E+003 -9.999E+003 -9.999E+003 -9.999E+003 -9.999E+003 -9.999E+003 -9.999E+003 -9.999E+003 -9.999E+003 -9.999E+003 -9.999E+003 -9.999E+003 -9.999E+003 -9.999E+003 -9.999E+003 -9.999E+003 -9.999E+003 -9.999E+003 -9.999E+003 -9.999E+003 -9.999E+003 -9.999E+003 -9.999E+003 -9.999E+003 -9.999E+003 -9.999E+003 -9.999E+003 -9.999E+003 -9.999E+003 -9.999E+003 -9.999E+003 -9.999E+003 -9.999E+003 -9.999E+003 -9.999E+003 -9.999E+003 -9.999E+003 -9.999E+003 -9.999E+003 -9.999E+003 -9.999E+003 -9.999E+003 -9.999E+003 -9.999E+003 -9.999E+003 -9.999E+003 -9.999E+003 -9.999E+003 -9.999E+003 -9.999E+003 -9.999E+003 -9.999E+003 -9.999E+003 -9.999E+003 -9.999E+003 -9.999E+003 -9.999E+003 -9.999E+003 -9.999E+003 -9.999E+003 -9.999E+003 -9.999E+003 -9.999E+003 -9.999E+003 -9.999E+003 -9.999E+003 -9.999E+003 -9.999E+003 -9.999E+003 -9.999E+003 -9.999E+003 -9.999E+003 -9.999E+003 -9.999E+003 -9.999E+003 -9.999E+003 -9.999E+003 -9.999E+003 -9.999E+003 -9.999E+003 -9.999E+003 -9.999E+003 -9.999E+003 -9.999E+003 -9.999E+003 -9.999E+003 -9.999E+003 -9.999E+003 -9.999E+003 -9.999E+003 -9.999E+003 -9.999E+003 -9.999E+003 -9.999E+003 -9.999E+003 -9.999E+003 -9.999E+003 -9.999E+003 -9.999E+003 -9.999E+003 -9.999E+003 -9.999E+003 -9.999E+003
 -9.999E+003 -9.999E+003 -9.999E+003 -9.999E+003 -9.999E+003 -9.999E+003 -9.999E+003 -9.999E+003 -9.999E+003 -9.999E+003 -9.999E+003 -9.999E+003 -9.999E+003 -9.999E+003 -9.999E+003 -9.999E+003 -9.999E+003 -9.999E+003 -9.999E+003 -9.999E+003 -9.999E+003 -9.999E+003 -9.999E+003 -9.999E+003 -9.999E+003 -9.999E+003 -9.999E+003 -9.999E+003 -9.999E+003 -9.999E+003 -9.999E+003 -9.999E+003 -9.999E+003 -9.999E+003 -9.999E+003 -9.999E+003 -9.999E+003 -9.999E+003 -9.999E+003 -9.999E+003 -9.999E+003 -9.999E+003 -9.999E+003 -9.999E+003 -9.999E+003 -9.999E+003 -9.999E+003 -9.999E+003 -9.999E+003 -9.999E+003 -9.999E+003 -9.999E+003 -9.999E+003 -9.999E+003 -9.999E+003 -9.999E+003 -9.999E+003 -9.999E+003 -9.999E+003 -9.999E+003 -9.999E+003 -9.999E+003 -9.999E+003 -9.999E+003 -9.999E+003 -9.999E+003 -9.999E+003 -9.999E+003 -9.999E+003 -9.999E+003 -9.999E+003 -9.999E+003 -9.999E+003 -9.999E+003 -9.999E+003 -9.999E+003 -9.999E+003 -9.999E+003 -9.999E+003 -9.999E+003 -9.999E+003 -9.999E+003 -9.999E+003 -9.999E+003 -9.999E+003 -9.999E+003 -9.999E+003 -9.999E+003 -9.999E+003 -9.999E+003 -9.999E+003 -9.999E+003 -9.999E+003 -9.999E+003 -9.999E+003 -9.999E+003 -9.999E+003 -9.999E+003 -9.999E+003 -9.999E+003 -9.999E+003 -9.999E+003 -9.999E+003 -9.999E+003 -9.999E+003 -9.999E+003 -9.999E+003 -9.999E+003 -9.999E+003 -9.999E+003 -9.999E+003 -9.999E+003 -9.999E+003 -9.999E+003 -9.999E+003 -9.999E+003 -9.999E+003 -9.999E+003 -9.999E+003 -9.999E+003 -9.999E+003 -9.999E+003 -9.999E+003 -9.999E+003 -9.999E+003 -9.999E+003 -9.999E+003 -9.999E+003 -9.999E+003 -9.999E+003 -9.999E+003 -9.999E+003 -9.999E+003 -9.999E+003 -9.999E+003 -9.999E+003 -9.999E+003 -9.999E+003 -9.999E+003 -9.999E+003 -9.999E+003 -9.999E+003 -9.999E+003 -9.999E+003 -9.999E+003 -9.999E+003 -9.999E+003 -9.999E+003 -9.999E+003 -9.999E+003
 -9.999E+003 -9.999E+003 -9.999E+003 -9.999E+003 -9.999E+003 -9.999E+003 -9.999E+003 -9.999E+003 -9.999E+003 -9.999E+003 -9.999E+003 -9.999E+003 -9.999E+003 -9.999E+003 -9.999E+003 -9.999E+003 -9.999E+003 -9.999E+003 -9.999E+003 -9.999E+003 -9.999E+003 -9.999E+003 -9.999E+003 -9.999E+003 -9.999E+003 -9.999E+003 -9.999E+003 -9.999E+003 -9.999E+003 -9.999E+003 -9.999E+003 -9.999E+003 -9.999E+003 -9.999E+003 -9.999E+003 -9.999E+003 -9.999E+003 -9.999E+003 -9.999E+003 -9.999E+003 -9.999E+003 -9.999E+003 -9.999E+003 -9.999E+003 -9.999E+003 -9.999E+003 -9.999E+003 -9.999E+003 -9.999E+003 -9.999E+003 -9.999E+003 -9.999E+003 -9.999E+003 -9.999E+003 -9.999E+003 -9.999E+003 -9.999E+003 -9.999E+003 -9.999E+003 -9.999E+003 -9.999E+003 -9.999E+003 -9.999E+003 -9.999E+003 -9.999E+003 -9.999E+003 -9.999E+003 -9.999E+003 -9.999E+003 -9.999E+003 -9.999E+003 -9.999E+003 -9.999E+003 -9.999E+003 -9.999E+003 -9.999E+003 -9.999E+003 -9.999E+003 -9.999E+003 -9.999E+003 -9.999E+003 -9.999E+003 -9.999E+003 -9.999E+003 -9.999E+003 -9.999E+003 -9.999E+003 -9.999E+003 -9.999E+003 -9.999E+003 -9.999E+003 -9.999E+003 -9.999E+003 -9.999E+003 -9.999E+003 -9.999E+003 -9.999E+003 -9.999E+003 -9.999E+003 -9.999E+003 -9.999E+003 -9.999E+003 -9.999E+003 -9.999E+003 -9.999E+003 -9.999E+003 -9.999E+003 -9.999E+003 -9.999E+003 -9.999E+003 -9.999E+003 -9.999E+003 -9.999E+003 -9.999E+003 -9.999E+003 -9.999E+003 -9.999E+003 -9.999E+003 -9.999E+003 -9.999E+003 -9.999E+003 -9.999E+003 -9.999E+003 -9.999E+003 -9.999E+003 -9.999E+003 -9.999E+003 -9.999E+003 -9.999E+003 -9.999E+003 -9.999E+003 -9.999E+003 -9.999E+003 -9.999E+003 -9.999E+003 -9.999E+003 -9.999E+003 -9.999E+003 -9.999E+003 -9.999E+003 -9.999E+003 -9.999E+003 -9.999E+003 -9.999E+003 -9.999E+003 -9.999E+003 -9.999E+003 -9.999E+003 -9.999E+003 -9.999E+003
 -9.999E+003 -9.999E+003 -9.999E+003 -9.999E+003 -9.999E+003 -9.999E+003 -9.999E+003 -9.999E+003 -9.999E+003 -9.999E+003 -9.999E+003 -9.999E+003 -9.999E+003 -9.999E+003 -9.999E+003 -9.999E+003 -9.999E+003 -9.999E+003 -9.999E+003 -9.999E+003 -9.999E+003 -9.999E+003 -9.999E+003 -9.999E+003 -9.999E+003 -9.999E+003 -9.999E+003 -9.999E+003 -9.999E+003 -9.999E+003 -9.999E+003 -9.999E+003 -9.999E+003 -9.999E+003 -9.999E+003 -9.999E+003 -9.999E+003 -9.999E+003 -9.999E+003 -9.999E+003 -9.999E+003 -9.999E+003 -9.999E+003 -9.999E+003 -9.999E+003 -9.999E+003 -9.999E+003 -9.999E+003 -9.999E+003 -9.999E+003 -9.999E+003 -9.999E+003 -9.999E+003 -9.999E+003 -9.999E+003 -9.999E+003 -9.999E+003 -9.999E+003 -9.999E+003 -9.999E+003 -9.999E+003 -9.999E+003 -9.999E+003 -9.999E+003 -9.999E+003 -9.999E+003 -9.999E+003 -9.999E+003 -9.999E+003 -9.999E+003 -9.999E+003 -9.999E+003 -9.999E+003 -9.999E+003 -9.999E+003 -9.999E+003 -9.999E+003 -9.999E+003 -9.999E+003 -9.999E+003 -9.999E+003 -9.999E+003 -9.999E+003 -9.999E+003 -9.999E+003 -9.999E+003 -9.999E+003 -9.999E+003 -9.999E+003 -9.999E+003 -9.999E+003 -9.999E+003 -9.999E+003 -9.999E+003 -9.999E+003 -9.999E+003 -9.999E+003 -9.999E+003 -9.999E+003 -9.999E+003 -9.999E+003 -9.999E+003 -9.999E+003 -9.999E+003 -9.999E+003 -9.999E+003 -9.999E+003 -9.999E+003 -9.999E+003 -9.999E+003 -9.999E+003 -9.999E+003 -9.999E+003 -9.999E+003 -9.999E+003 -9.999E+003 -9.999E+003 -9.999E+003 -9.999E+003 -9.999E+003 -9.999E+003 -9.999E+003 -9.999E+003 -9.999E+003 -9.999E+003 -9.999E+003 -9.999E+003 -9.999E+003 -9.999E+003 -9.999E+003 -9.999E+003 -9.999E+003 -9.999E+003 -9.999E+003 -9.999E+003 -9.999E+003 -9.999E+003 -9.999E+003 -9.999E+003 -9.999E+003 -9.999E+003 -9.999E+003 -9.999E+003 -9.999E+003 -9.999E+003 -9.999E+003 -9.999E+003 -9.999E+003 -9.999E+003 -9.999E+003
 -9.999E+003 -9.999E+003 -9.999E+003 -9.999E+003 -9.999E+003 -9.999E+003 -9.999E+003 -9.999E+003 -9.999E+003 -9.999E+003 -9.999E+003 -9.999E+003 -9.999E+003 -9.999E+003 -9.999E+003 -9.999E+003 -9.999E+003 -9.999E+003 -9.999E+003 -9.999E+003 -9.999E+003 -9.999E+003 -9.999E+003 -9.999E+003 -9.999E+003 -9.999E+003 -9.999E+003 -9.999E+003 -9.999E+003 -9.999E+003 -9.999E+003 -9.999E+003 -9.999E+003 -9.999E+003 -9.999E+003 -9.999E+003 -9.999E+003 -9.999E+003 -9.999E+003 -9.999E+003 -9.999E+003 -9.999E+003 -9.999E+003 -9.999E+003 -9.999E+003 -9.999E+003 -9.999E+003 -9.999E+003 -9.999E+003 -9.999E+003 -9.999E+003 -9.999E+003 -9.999E+003 -9.999E+003 -9.999E+003 -9.999E+003 -9.999E+003 -9.999E+003 -9.999E+003 -9.999E+003 -9.999E+003 -9.999E+003 -9.999E+003 -9.999E+003 -9.999E+003 -9.999E+003 -9.999E+003 -9.999E+003 -9.999E+003 -9.999E+003 -9.999E+003 -9.999E+003 -9.999E+003 -9.999E+003 -9.999E+003 -9.999E+003 -9.999E+003 -9.999E+003 -9.999E+003 -9.999E+003 -9.999E+003 -9.999E+003 -9.999E+003 -9.999E+003 -9.999E+003 -9.999E+003 -9.999E+003 -9.999E+003 -9.999E+003 -9.999E+003 -9.999E+003 -9.999E+003 -9.999E+003 -9.999E+003 -9.999E+003 -9.999E+003 -9.999E+003 -9.999E+003 -9.999E+003 -9.999E+003 -9.999E+003 -9.999E+003 -9.999E+003 -9.999E+003 -9.999E+003 -9.999E+003 -9.999E+003 -9.999E+003 -9.999E+003 -9.999E+003 -9.999E+003 -9.999E+003 -9.999E+003 -9.999E+003 -9.999E+003 -9.999E+003 -9.999E+003 -9.999E+003 -9.999E+003 -9.999E+003 -9.999E+003 -9.999E+003 -9.999E+003 -9.999E+003 -9.999E+003 -9.999E+003 -9.999E+003 -9.999E+003 -9.999E+003 -9.999E+003 -9.999E+003 -9.999E+003 -9.999E+003 -9.999E+003 -9.999E+003 -9.999E+003 -9.999E+003 -9.999E+003 -9.999E+003 -9.999E+003 -9.999E+003 -9.999E+003 -9.999E+003 -9.999E+003 -9.999E+003 -9.999E+003 -9.999E+003 -9.999E+003 -9.999E+003 -9.999E+003
 -9.999E+003 -9.999E+003 -9.999E+003 -9.999E+003 -9.999E+003 -9.999E+003 -9.999E+003 -9.999E+003 -9.999E+003 -9.999E+003 -9.999E+003 -9.999E+003 -9.999E+003 -9.999E+003 -9.999E+003 -9.999E+003 -9.999E+003 -9.999E+003 -9.999E+003 -9.999E+003 -9.999E+003 -9.999E+003 -9.999E+003 -9.999E+003 -9.999E+003 -9.999E+003 -9.999E+003 -9.999E+003 -9.999E+003 -9.999E+003 -9.999E+003 -9.999E+003 -9.999E+003 -9.999E+003 -9.999E+003 -9.999E+003 -9.999E+003 -9.999E+003 -9.999E+003 -9.999E+003 -9.999E+003 -9.999E+003 -9.999E+003 -9.999E+003 -9.999E+003 -9.999E+003 -9.999E+003 -9.999E+003 -9.999E+003 -9.999E+003 -9.999E+003 -9.999E+003 -9.999E+003 -9.999E+003 -9.999E+003 -9.999E+003 -9.999E+003 -9.999E+003 -9.999E+003 -9.999E+003 -9.999E+003 -9.999E+003 -9.999E+003 -9.999E+003 -9.999E+003 -9.999E+003 -9.999E+003 -9.999E+003 -9.999E+003 -9.999E+003 -9.999E+003 -9.999E+003 -9.999E+003 -9.999E+003 -9.999E+003 -9.999E+003 -9.999E+003 -9.999E+003 -9.999E+003 -9.999E+003 -9.999E+003 -9.999E+003 -9.999E+003 -9.999E+003 -9.999E+003 -9.999E+003 -9.999E+003 -9.999E+003 -9.999E+003 -9.999E+003 -9.999E+003 -9.999E+003 -9.999E+003 -9.999E+003 -9.999E+003 -9.999E+003 -9.999E+003 -9.999E+003 -9.999E+003 -9.999E+003 -9.999E+003 -9.999E+003 -9.999E+003 -9.999E+003 -9.999E+003 -9.999E+003 -9.999E+003 -9.999E+003 -9.999E+003 -9.999E+003 -9.999E+003 -9.999E+003 -9.999E+003 -9.999E+003 -9.999E+003 -9.999E+003 -9.999E+003 -9.999E+003 -9.999E+003 -9.999E+003 -9.999E+003 -9.999E+003 -9.999E+003 -9.999E+003 -9.999E+003 -9.999E+003 -9.999E+003 -9.999E+003 -9.999E+003 -9.999E+003 -9.999E+003 -9.999E+003 -9.999E+003 -9.999E+003 -9.999E+003 -9.999E+003 -9.999E+003 -9.999E+003 -9.999E+003 -9.999E+003 -9.999E+003 -9.999E+003 -9.999E+003 -9.999E+003 -9.999E+003 -9.999E+003 -9.999E+003 -9.999E+003 -9.999E+003 -9.999E+003
 -9.999E+003 -9.999E+003 -9.999E+003 -9.999E+003 -9.999E+003 -9.999E+003 -9.999E+003 -9.999E+003 -9.999E+003 -9.999E+003 -9.999E+003 -9.999E+003 -9.999E+003 -9.999E+003 -9.999E+003 -9.999E+003 -9.999E+003 -9.999E+003 -9.999E+003 -9.999E+003 -9.999E+003 -9.999E+003 -9.999E+003 -9.999E+003 -9.999E+003 -9.999E+003 -9.999E+003 -9.999E+003 -9.999E+003 -9.999E+003 -9.999E+003 -9.999E+003 -9.999E+003 -9.999E+003 -9.999E+003 -9.999E+003 -9.999E+003 -9.999E+003 -9.999E+003 -9.999E+003 -9.999E+003 -9.999E+003 -9.999E+003 -9.999E+003 -9.999E+003 -9.999E+003 -9.999E+003 -9.999E+003 -9.999E+003 -9.999E+003 -9.999E+003 -9.999E+003 -9.999E+003 -9.999E+003 -9.999E+003 -9.999E+003 -9.999E+003 -9.999E+003 -9.999E+003 -9.999E+003 -9.999E+003 -9.999E+003 -9.999E+003 -9.999E+003 -9.999E+003 -9.999E+003 -9.999E+003 -9.999E+003 -9.999E+003 -9.999E+003 -9.999E+003 -9.999E+003 -9.999E+003 -9.999E+003 -9.999E+003 -9.999E+003 -9.999E+003 -9.999E+003 -9.999E+003 -9.999E+003 -9.999E+003 -9.999E+003 -9.999E+003 -9.999E+003 -9.999E+003 -9.999E+003 -9.999E+003 -9.999E+003 -9.999E+003 -9.999E+003 -9.999E+003 -9.999E+003 -9.999E+003 -9.999E+003 -9.999E+003 -9.999E+003 -9.999E+003 -9.999E+003 -9.999E+003 -9.999E+003 -9.999E+003 -9.999E+003 -9.999E+003 -9.999E+003 -9.999E+003 -9.999E+003 -9.999E+003 -9.999E+003 -9.999E+003 -9.999E+003 -9.999E+003 -9.999E+003 -9.999E+003 -9.999E+003 -9.999E+003 -9.999E+003 -9.999E+003 -9.999E+003 -9.999E+003 -9.999E+003 -9.999E+003 -9.999E+003 -9.999E+003 -9.999E+003 -9.999E+003 -9.999E+003 -9.999E+003 -9.999E+003 -9.999E+003 -9.999E+003 -9.999E+003 -9.999E+003 -9.999E+003 -9.999E+003 -9.999E+003 -9.999E+003 -9.999E+003 -9.999E+003 -9.999E+003 -9.999E+003 -9.999E+003 -9.999E+003 -9.999E+003 -9.999E+003 -9.999E+003 -9.999E+003 -9.999E+003 -9.999E+003 -9.999E+003 -9.999E+003
 -9.999E+003 -9.999E+003 -9.999E+003 -9.999E+003 -9.999E+003 -9.999E+003 -9.999E+003 -9.999E+003 -9.999E+003 -9.999E+003 -9.999E+003 -9.999E+003 -9.999E+003 -9.999E+003 -9.999E+003 -9.999E+003 -9.999E+003 -9.999E+003 -9.999E+003 -9.999E+003 -9.999E+003 -9.999E+003 -9.999E+003 -9.999E+003 -9.999E+003 -9.999E+003 -9.999E+003 -9.999E+003 -9.999E+003 -9.999E+003 -9.999E+003 -9.999E+003 -9.999E+003 -9.999E+003 -9.999E+003 -9.999E+003 -9.999E+003 -9.999E+003 -9.999E+003 -9.999E+003 -9.999E+003 -9.999E+003 -9.999E+003 -9.999E+003 -9.999E+003 -9.999E+003 -9.999E+003 -9.999E+003 -9.999E+003 -9.999E+003 -9.999E+003 -9.999E+003 -9.999E+003 -9.999E+003 -9.999E+003 -9.999E+003 -9.999E+003 -9.999E+003 -9.999E+003 -9.999E+003 -9.999E+003 -9.999E+003 -9.999E+003 -9.999E+003 -9.999E+003 -9.999E+003 -9.999E+003 -9.999E+003 -9.999E+003 -9.999E+003 -9.999E+003 -9.999E+003 -9.999E+003 -9.999E+003 -9.999E+003 -9.999E+003 -9.999E+003 -9.999E+003 -9.999E+003 -9.999E+003 -9.999E+003 -9.999E+003 -9.999E+003 -9.999E+003 -9.999E+003 -9.999E+003 -9.999E+003 -9.999E+003 -9.999E+003 -9.999E+003 -9.999E+003 -9.999E+003 -9.999E+003 -9.999E+003 -9.999E+003 -9.999E+003 -9.999E+003 -9.999E+003 -9.999E+003 -9.999E+003 -9.999E+003 -9.999E+003 -9.999E+003 -9.999E+003 -9.999E+003 -9.999E+003 -9.999E+003 -9.999E+003 -9.999E+003 -9.999E+003 -9.999E+003 -9.999E+003 -9.999E+003 -9.999E+003 -9.999E+003 -9.999E+003 -9.999E+003 -9.999E+003 -9.999E+003 -9.999E+003 -9.999E+003 -9.999E+003 -9.999E+003 -9.999E+003 -9.999E+003 -9.999E+003 -9.999E+003 -9.999E+003 -9.999E+003 -9.999E+003 -9.999E+003 -9.999E+003 -9.999E+003 -9.999E+003 -9.999E+003 -9.999E+003 -9.999E+003 -9.999E+003 -9.999E+003 -9.999E+003 -9.999E+003 -9.999E+003 -9.999E+003 -9.999E+003 -9.999E+003 -9.999E+003 -9.999E+003 -9.999E+003 -9.999E+003 -9.999E+003
 -9.999E+003 -9.999E+003 -9.999E+003 -9.999E+003 -9.999E+003 -9.999E+003 -9.999E+003 -9.999E+003 -9.999E+003 -9.999E+003 -9.999E+003 -9.999E+003 -9.999E+003 -9.999E+003 -9.999E+003 -9.999E+003 -9.999E+003 -9.999E+003 -9.999E+003 -9.999E+003 -9.999E+003 -9.999E+003 -9.999E+003 -9.999E+003 -9.999E+003 -9.999E+003 -9.999E+003 -9.999E+003 -9.999E+003 -9.999E+003 -9.999E+003 -9.999E+003 -9.999E+003 -9.999E+003 -9.999E+003 -9.999E+003 -9.999E+003 -9.999E+003 -9.999E+003 -9.999E+003 -9.999E+003 -9.999E+003 -9.999E+003 -9.999E+003 -9.999E+003 -9.999E+003 -9.999E+003 -9.999E+003 -9.999E+003 -9.999E+003 -9.999E+003 -9.999E+003 -9.999E+003 -9.999E+003 -9.999E+003 -9.999E+003 -9.999E+003 -9.999E+003 -9.999E+003 -9.999E+003 -9.999E+003 -9.999E+003 -9.999E+003 -9.999E+003 -9.999E+003 -9.999E+003 -9.999E+003 -9.999E+003 -9.999E+003 -9.999E+003 -9.999E+003 -9.999E+003 -9.999E+003 -9.999E+003 -9.999E+003 -9.999E+003 -9.999E+003 -9.999E+003 -9.999E+003 -9.999E+003 -9.999E+003 -9.999E+003 -9.999E+003 -9.999E+003 -9.999E+003 -9.999E+003 -9.999E+003 -9.999E+003 -9.999E+003 -9.999E+003 -9.999E+003 -9.999E+003 -9.999E+003 -9.999E+003 -9.999E+003 -9.999E+003 -9.999E+003 -9.999E+003 -9.999E+003 -9.999E+003 -9.999E+003 -9.999E+003 -9.999E+003 -9.999E+003 -9.999E+003 -9.999E+003 -9.999E+003 -9.999E+003 -9.999E+003 -9.999E+003 -9.999E+003 -9.999E+003 -9.999E+003 -9.999E+003 -9.999E+003 -9.999E+003 -9.999E+003 -9.999E+003 -9.999E+003 -9.999E+003 -9.999E+003 -9.999E+003 -9.999E+003 -9.999E+003 -9.999E+003 -9.999E+003 -9.999E+003 -9.999E+003 -9.999E+003 -9.999E+003 -9.999E+003 -9.999E+003 -9.999E+003 -9.999E+003 -9.999E+003 -9.999E+003 -9.999E+003 -9.999E+003 -9.999E+003 -9.999E+003 -9.999E+003 -9.999E+003 -9.999E+003 -9.999E+003 -9.999E+003 -9.999E+003 -9.999E+003 -9.999E+003 -9.999E+003 -9.999E+003
 -9.999E+003 -9.999E+003 -9.999E+003 -9.999E+003 -9.999E+003 -9.999E+003 -9.999E+003 -9.999E+003 -9.999E+003 -9.999E+003 -9.999E+003 -9.999E+003 -9.999E+003 -9.999E+003 -9.999E+003 -9.999E+003 -9.999E+003 -9.999E+003 -9.999E+003 -9.999E+003 -9.999E+003 -9.999E+003 -9.999E+003 -9.999E+003 -9.999E+003 -9.999E+003 -9.999E+003 -9.999E+003 -9.999E+003 -9.999E+003 -9.999E+003 -9.999E+003 -9.999E+003 -9.999E+003 -9.999E+003 -9.999E+003 -9.999E+003 -9.999E+003 -9.999E+003 -9.999E+003 -9.999E+003 -9.999E+003 -9.999E+003 -9.999E+003 -9.999E+003 -9.999E+003 -9.999E+003 -9.999E+003 -9.999E+003 -9.999E+003 -9.999E+003 -9.999E+003 -9.999E+003 -9.999E+003 -9.999E+003 -9.999E+003 -9.999E+003 -9.999E+003 -9.999E+003 -9.999E+003 -9.999E+003 -9.999E+003 -9.999E+003 -9.999E+003 -9.999E+003 -9.999E+003 -9.999E+003 -9.999E+003 -9.999E+003 -9.999E+003 -9.999E+003 -9.999E+003 -9.999E+003 -9.999E+003 -9.999E+003 -9.999E+003 -9.999E+003 -9.999E+003 -9.999E+003 -9.999E+003 -9.999E+003 -9.999E+003 -9.999E+003 -9.999E+003 -9.999E+003 -9.999E+003 -9.999E+003 -9.999E+003 -9.999E+003 -9.999E+003 -9.999E+003 -9.999E+003 -9.999E+003 -9.999E+003 -9.999E+003 -9.999E+003 -9.999E+003 -9.999E+003 -9.999E+003 -9.999E+003 -9.999E+003 -9.999E+003 -9.999E+003 -9.999E+003 -9.999E+003 -9.999E+003 -9.999E+003 -9.999E+003 -9.999E+003 -9.999E+003 -9.999E+003 -9.999E+003 -9.999E+003 -9.999E+003 -9.999E+003 -9.999E+003 -9.999E+003 -9.999E+003 -9.999E+003 -9.999E+003 -9.999E+003 -9.999E+003 -9.999E+003 -9.999E+003 -9.999E+003 -9.999E+003 -9.999E+003 -9.999E+003 -9.999E+003 -9.999E+003 -9.999E+003 -9.999E+003 -9.999E+003 -9.999E+003 -9.999E+003 -9.999E+003 -9.999E+003 -9.999E+003 -9.999E+003 -9.999E+003 -9.999E+003 -9.999E+003 -9.999E+003 -9.999E+003 -9.999E+003 -9.999E+003 -9.999E+003 -9.999E+003 -9.999E+003 -9.999E+003
 -9.999E+003 -9.999E+003 -9.999E+003 -9.999E+003 -9.999E+003 -9.999E+003 -9.999E+003 -9.999E+003 -9.999E+003 -9.999E+003 -9.999E+003 -9.999E+003 -9.999E+003 -9.999E+003 -9.999E+003 -9.999E+003 -9.999E+003 -9.999E+003 -9.999E+003 -9.999E+003 -9.999E+003 -9.999E+003 -9.999E+003 -9.999E+003 -9.999E+003 -9.999E+003 -9.999E+003 -9.999E+003 -9.999E+003 -9.999E+003 -9.999E+003 -9.999E+003 -9.999E+003 -9.999E+003 -9.999E+003 -9.999E+003 -9.999E+003 -9.999E+003 -9.999E+003 -9.999E+003 -9.999E+003 -9.999E+003 -9.999E+003 -9.999E+003 -9.999E+003 -9.999E+003 -9.999E+003 -9.999E+003 -9.999E+003 -9.999E+003 -9.999E+003 -9.999E+003 -9.999E+003 -9.999E+003 -9.999E+003 -9.999E+003 -9.999E+003 -9.999E+003 -9.999E+003 -9.999E+003 -9.999E+003 -9.999E+003 -9.999E+003 -9.999E+003 -9.999E+003 -9.999E+003 -9.999E+003 -9.999E+003 -9.999E+003 -9.999E+003 -9.999E+003 -9.999E+003 -9.999E+003 -9.999E+003 -9.999E+003 -9.999E+003 -9.999E+003 -9.999E+003 -9.999E+003 -9.999E+003 -9.999E+003 -9.999E+003 -9.999E+003 -9.999E+003 -9.999E+003 -9.999E+003 -9.999E+003 -9.999E+003 -9.999E+003 -9.999E+003 -9.999E+003 -9.999E+003 -9.999E+003 -9.999E+003 -9.999E+003 -9.999E+003 -9.999E+003 -9.999E+003 -9.999E+003 -9.999E+003 -9.999E+003 -9.999E+003 -9.999E+003 -9.999E+003 -9.999E+003 -9.999E+003 -9.999E+003 -9.999E+003 -9.999E+003 -9.999E+003 -9.999E+003 -9.999E+003 -9.999E+003 -9.999E+003 -9.999E+003 -9.999E+003 -9.999E+003 -9.999E+003 -9.999E+003 -9.999E+003 -9.999E+003 -9.999E+003 -9.999E+003 -9.999E+003 -9.999E+003 -9.999E+003 -9.999E+003 -9.999E+003 -9.999E+003 -9.999E+003 -9.999E+003 -9.999E+003 -9.999E+003 -9.999E+003 -9.999E+003 -9.999E+003 -9.999E+003 -9.999E+003 -9.999E+003 -9.999E+003 -9.999E+003 -9.999E+003 -9.999E+003 -9.999E+003 -9.999E+003 -9.999E+003 -9.999E+003 -9.999E+003 -9.999E+003 -9.999E+003
 -9.999E+003 -9.999E+003 -9.999E+003 -9.999E+003 -9.999E+003 -9.999E+003 -9.999E+003 -9.999E+003 -9.999E+003 -9.999E+003 -9.999E+003 -9.999E+003 -9.999E+003 -9.999E+003 -9.999E+003 -9.999E+003 -9.999E+003 -9.999E+003 -9.999E+003 -9.999E+003 -9.999E+003 -9.999E+003 -9.999E+003 -9.999E+003 -9.999E+003 -9.999E+003 -9.999E+003 -9.999E+003 -9.999E+003 -9.999E+003 -9.999E+003 -9.999E+003 -9.999E+003 -9.999E+003 -9.999E+003 -9.999E+003 -9.999E+003 -9.999E+003 -9.999E+003 -9.999E+003 -9.999E+003 -9.999E+003 -9.999E+003 -9.999E+003 -9.999E+003 -9.999E+003 -9.999E+003 -9.999E+003 -9.999E+003 -9.999E+003 -9.999E+003 -9.999E+003 -9.999E+003 -9.999E+003 -9.999E+003 -9.999E+003 -9.999E+003 -9.999E+003 -9.999E+003 -9.999E+003 -9.999E+003 -9.999E+003 -9.999E+003 -9.999E+003 -9.999E+003 -9.999E+003 -9.999E+003 -9.999E+003 -9.999E+003 -9.999E+003 -9.999E+003 -9.999E+003 -9.999E+003 -9.999E+003 -9.999E+003 -9.999E+003 -9.999E+003 -9.999E+003 -9.999E+003 -9.999E+003 -9.999E+003 -9.999E+003 -9.999E+003 -9.999E+003 -9.999E+003 -9.999E+003 -9.999E+003 -9.999E+003 -9.999E+003 -9.999E+003 -9.999E+003 -9.999E+003 -9.999E+003 -9.999E+003 -9.999E+003 -9.999E+003 -9.999E+003 -9.999E+003 -9.999E+003 -9.999E+003 -9.999E+003 -9.999E+003 -9.999E+003 -9.999E+003 -9.999E+003 -9.999E+003 -9.999E+003 -9.999E+003 -9.999E+003 -9.999E+003 -9.999E+003 -9.999E+003 -9.999E+003 -9.999E+003 -9.999E+003 -9.999E+003 -9.999E+003 -9.999E+003 -9.999E+003 -9.999E+003 -9.999E+003 -9.999E+003 -9.999E+003 -9.999E+003 -9.999E+003 -9.999E+003 -9.999E+003 -9.999E+003 -9.999E+003 -9.999E+003 -9.999E+003 -9.999E+003 -9.999E+003 -9.999E+003 -9.999E+003 -9.999E+003 -9.999E+003 -9.999E+003 -9.999E+003 -9.999E+003 -9.999E+003 -9.999E+003 -9.999E+003 -9.999E+003 -9.999E+003 -9.999E+003 -9.999E+003 -9.999E+003 -9.999E+003 -9.999E+003
 -9.999E+003 -9.999E+003 -9.999E+003 -9.999E+003 -9.999E+003 -9.999E+003 -9.999E+003 -9.999E+003 -9.999E+003 -9.999E+003 -9.999E+003 -9.999E+003 -9.999E+003 -9.999E+003 -9.999E+003 -9.999E+003 -9.999E+003 -9.999E+003 -9.999E+003 -9.999E+003 -9.999E+003 -9.999E+003 -9.999E+003 -9.999E+003 -9.999E+003 -9.999E+003 -9.999E+003 -9.999E+003 -9.999E+003 -9.999E+003 -9.999E+003 -9.999E+003 -9.999E+003 -9.999E+003 -9.999E+003 -9.999E+003 -9.999E+003 -9.999E+003 -9.999E+003 -9.999E+003 -9.999E+003 -9.999E+003 -9.999E+003 -9.999E+003 -9.999E+003 -9.999E+003 -9.999E+003 -9.999E+003 -9.999E+003 -9.999E+003 -9.999E+003 -9.999E+003 -9.999E+003 -9.999E+003 -9.999E+003 -9.999E+003 -9.999E+003 -9.999E+003 -9.999E+003 -9.999E+003 -9.999E+003 -9.999E+003 -9.999E+003 -9.999E+003 -9.999E+003 -9.999E+003 -9.999E+003 -9.999E+003 -9.999E+003 -9.999E+003 -9.999E+003 -9.999E+003 -9.999E+003 -9.999E+003 -9.999E+003 -9.999E+003 -9.999E+003 -9.999E+003 -9.999E+003 -9.999E+003 -9.999E+003 -9.999E+003 -9.999E+003 -9.999E+003 -9.999E+003 -9.999E+003 -9.999E+003 -9.999E+003 -9.999E+003 -9.999E+003 -9.999E+003 -9.999E+003 -9.999E+003 -9.999E+003 -9.999E+003 -9.999E+003 -9.999E+003 -9.999E+003 -9.999E+003 -9.999E+003 -9.999E+003 -9.999E+003 -9.999E+003 -9.999E+003 -9.999E+003 -9.999E+003 -9.999E+003 -9.999E+003 -9.999E+003 -9.999E+003 -9.999E+003 -9.999E+003 -9.999E+003 -9.999E+003 -9.999E+003 -9.999E+003 -9.999E+003 -9.999E+003 -9.999E+003 -9.999E+003 -9.999E+003 -9.999E+003 -9.999E+003 -9.999E+003 -9.999E+003 -9.999E+003 -9.999E+003 -9.999E+003 -9.999E+003 -9.999E+003 -9.999E+003 -9.999E+003 -9.999E+003 -9.999E+003 -9.999E+003 -9.999E+003 -9.999E+003 -9.999E+003 -9.999E+003 -9.999E+003 -9.999E+003 -9.999E+003 -9.999E+003 -9.999E+003 -9.999E+003 -9.999E+003 -9.999E+003 -9.999E+003 -9.999E+003 -9.999E+003
 -9.999E+003 -9.999E+003 -9.999E+003 -9.999E+003 -9.999E+003 -9.999E+003 -9.999E+003 -9.999E+003 -9.999E+003 -9.999E+003 -9.999E+003 -9.999E+003 -9.999E+003 -9.999E+003 -9.999E+003 -9.999E+003 -9.999E+003 -9.999E+003 -9.999E+003 -9.999E+003 -9.999E+003 -9.999E+003 -9.999E+003 -9.999E+003 -9.999E+003 -9.999E+003 -9.999E+003 -9.999E+003 -9.999E+003 -9.999E+003 -9.999E+003 -9.999E+003 -9.999E+003 -9.999E+003 -9.999E+003 -9.999E+003 -9.999E+003 -9.999E+003 -9.999E+003 -9.999E+003 -9.999E+003 -9.999E+003 -9.999E+003 -9.999E+003 -9.999E+003 -9.999E+003 -9.999E+003 -9.999E+003 -9.999E+003 -9.999E+003 -9.999E+003 -9.999E+003 -9.999E+003 -9.999E+003 -9.999E+003 -9.999E+003 -9.999E+003 -9.999E+003 -9.999E+003 -9.999E+003 -9.999E+003 -9.999E+003 -9.999E+003 -9.999E+003 -9.999E+003 -9.999E+003 -9.999E+003 -9.999E+003 -9.999E+003 -9.999E+003 -9.999E+003 -9.999E+003 -9.999E+003 -9.999E+003 -9.999E+003 -9.999E+003 -9.999E+003 -9.999E+003 -9.999E+003 -9.999E+003 -9.999E+003 -9.999E+003 -9.999E+003 -9.999E+003 -9.999E+003 -9.999E+003 -9.999E+003 -9.999E+003 -9.999E+003 -9.999E+003 -9.999E+003 -9.999E+003 -9.999E+003 -9.999E+003 -9.999E+003 -9.999E+003 -9.999E+003 -9.999E+003 -9.999E+003 -9.999E+003 -9.999E+003 -9.999E+003 -9.999E+003 -9.999E+003 -9.999E+003 -9.999E+003 -9.999E+003 -9.999E+003 -9.999E+003 -9.999E+003 -9.999E+003 -9.999E+003 -9.999E+003 -9.999E+003 -9.999E+003 -9.999E+003 -9.999E+003 -9.999E+003 -9.999E+003 -9.999E+003 -9.999E+003 -9.999E+003 -9.999E+003 -9.999E+003 -9.999E+003 -9.999E+003 -9.999E+003 -9.999E+003 -9.999E+003 -9.999E+003 -9.999E+003 -9.999E+003 -9.999E+003 -9.999E+003 -9.999E+003 -9.999E+003 -9.999E+003 -9.999E+003 -9.999E+003 -9.999E+003 -9.999E+003 -9.999E+003 -9.999E+003 -9.999E+003 -9.999E+003 -9.999E+003 -9.999E+003 -9.999E+003 -9.999E+003 -9.999E+003
 -9.999E+003 -9.999E+003 -9.999E+003 -9.999E+003 -9.999E+003 -9.999E+003 -9.999E+003 -9.999E+003 -9.999E+003 -9.999E+003 -9.999E+003 -9.999E+003 -9.999E+003 -9.999E+003 -9.999E+003 -9.999E+003 -9.999E+003 -9.999E+003 -9.999E+003 -9.999E+003 -9.999E+003 -9.999E+003 -9.999E+003 -9.999E+003 -9.999E+003 -9.999E+003 -9.999E+003 -9.999E+003 -9.999E+003 -9.999E+003 -9.999E+003 -9.999E+003 -9.999E+003 -9.999E+003 -9.999E+003 -9.999E+003 -9.999E+003 -9.999E+003 -9.999E+003 -9.999E+003 -9.999E+003 -9.999E+003 -9.999E+003 -9.999E+003 -9.999E+003 -9.999E+003 -9.999E+003 -9.999E+003 -9.999E+003 -9.999E+003 -9.999E+003 -9.999E+003 -9.999E+003 -9.999E+003 -9.999E+003 -9.999E+003 -9.999E+003 -9.999E+003 -9.999E+003 -9.999E+003 -9.999E+003 -9.999E+003 -9.999E+003 -9.999E+003 -9.999E+003 -9.999E+003 -9.999E+003 -9.999E+003 -9.999E+003 -9.999E+003 -9.999E+003 -9.999E+003 -9.999E+003 -9.999E+003 -9.999E+003 -9.999E+003 -9.999E+003 -9.999E+003 -9.999E+003 -9.999E+003 -9.999E+003 -9.999E+003 -9.999E+003 -9.999E+003 -9.999E+003 -9.999E+003 -9.999E+003 -9.999E+003 -9.999E+003 -9.999E+003 -9.999E+003 -9.999E+003 -9.999E+003 -9.999E+003 -9.999E+003 -9.999E+003 -9.999E+003 -9.999E+003 -9.999E+003 -9.999E+003 -9.999E+003 -9.999E+003 -9.999E+003 -9.999E+003 -9.999E+003 -9.999E+003 -9.999E+003 -9.999E+003 -9.999E+003 -9.999E+003 -9.999E+003 -9.999E+003 -9.999E+003 -9.999E+003 -9.999E+003 -9.999E+003 -9.999E+003 -9.999E+003 -9.999E+003 -9.999E+003 -9.999E+003 -9.999E+003 -9.999E+003 -9.999E+003 -9.999E+003 -9.999E+003 -9.999E+003 -9.999E+003 -9.999E+003 -9.999E+003 -9.999E+003 -9.999E+003 -9.999E+003 -9.999E+003 -9.999E+003 -9.999E+003 -9.999E+003 -9.999E+003 -9.999E+003 -9.999E+003 -9.999E+003 -9.999E+003 -9.999E+003 -9.999E+003 -9.999E+003 -9.999E+003 -9.999E+003 -9.999E+003 -9.999E+003 -9.999E+003
 -9.999E+003 -9.999E+003 -9.999E+003 -9.999E+003 -9.999E+003 -9.999E+003 -9.999E+003 -9.999E+003 -9.999E+003 -9.999E+003 -9.999E+003 -9.999E+003 -9.999E+003 -9.999E+003 -9.999E+003 -9.999E+003 -9.999E+003 -9.999E+003 -9.999E+003 -9.999E+003 -9.999E+003 -9.999E+003 -9.999E+003 -9.999E+003 -9.999E+003 -9.999E+003 -9.999E+003 -9.999E+003 -9.999E+003 -9.999E+003 -9.999E+003 -9.999E+003 -9.999E+003 -9.999E+003 -9.999E+003 -9.999E+003 -9.999E+003 -9.999E+003 -9.999E+003 -9.999E+003 -9.999E+003 -9.999E+003 -9.999E+003 -9.999E+003 -9.999E+003 -9.999E+003 -9.999E+003 -9.999E+003 -9.999E+003 -9.999E+003 -9.999E+003 -9.999E+003 -9.999E+003 -9.999E+003 -9.999E+003 -9.999E+003 -9.999E+003 -9.999E+003 -9.999E+003 -9.999E+003 -9.999E+003 -9.999E+003 -9.999E+003 -9.999E+003 -9.999E+003 -9.999E+003 -9.999E+003 -9.999E+003 -9.999E+003 -9.999E+003 -9.999E+003 -9.999E+003 -9.999E+003 -9.999E+003 -9.999E+003 -9.999E+003 -9.999E+003 -9.999E+003 -9.999E+003 -9.999E+003 -9.999E+003 -9.999E+003 -9.999E+003 -9.999E+003 -9.999E+003 -9.999E+003 -9.999E+003 -9.999E+003 -9.999E+003 -9.999E+003 -9.999E+003 -9.999E+003 -9.999E+003 -9.999E+003 -9.999E+003 -9.999E+003 -9.999E+003 -9.999E+003 -9.999E+003 -9.999E+003 -9.999E+003 -9.999E+003 -9.999E+003 -9.999E+003 -9.999E+003 -9.999E+003 -9.999E+003 -9.999E+003 -9.999E+003 -9.999E+003 -9.999E+003 -9.999E+003 -9.999E+003 -9.999E+003 -9.999E+003 -9.999E+003 -9.999E+003 -9.999E+003 -9.999E+003 -9.999E+003 -9.999E+003 -9.999E+003 -9.999E+003 -9.999E+003 -9.999E+003 -9.999E+003 -9.999E+003 -9.999E+003 -9.999E+003 -9.999E+003 -9.999E+003 -9.999E+003 -9.999E+003 -9.999E+003 -9.999E+003 -9.999E+003 -9.999E+003 -9.999E+003 -9.999E+003 -9.999E+003 -9.999E+003 -9.999E+003 -9.999E+003 -9.999E+003 -9.999E+003 -9.999E+003 -9.999E+003 -9.999E+003 -9.999E+003 -9.999E+003
 -9.999E+003 -9.999E+003 -9.999E+003 -9.999E+003 -9.999E+003 -9.999E+003 -9.999E+003 -9.999E+003 -9.999E+003 -9.999E+003 -9.999E+003 -9.999E+003 -9.999E+003 -9.999E+003 -9.999E+003 -9.999E+003 -9.999E+003 -9.999E+003 -9.999E+003 -9.999E+003 -9.999E+003 -9.999E+003 -9.999E+003 -9.999E+003 -9.999E+003 -9.999E+003 -9.999E+003 -9.999E+003 -9.999E+003 -9.999E+003 -9.999E+003 -9.999E+003 -9.999E+003 -9.999E+003 -9.999E+003 -9.999E+003 -9.999E+003 -9.999E+003 -9.999E+003 -9.999E+003 -9.999E+003 -9.999E+003 -9.999E+003 -9.999E+003 -9.999E+003 -9.999E+003 -9.999E+003 -9.999E+003 -9.999E+003 -9.999E+003 -9.999E+003 -9.999E+003 -9.999E+003 -9.999E+003 -9.999E+003 -9.999E+003 -9.999E+003 -9.999E+003 -9.999E+003 -9.999E+003 -9.999E+003 -9.999E+003 -9.999E+003 -9.999E+003 -9.999E+003 -9.999E+003 -9.999E+003 -9.999E+003 -9.999E+003 -9.999E+003 -9.999E+003 -9.999E+003 -9.999E+003 -9.999E+003 -9.999E+003 -9.999E+003 -9.999E+003 -9.999E+003 -9.999E+003 -9.999E+003 -9.999E+003 -9.999E+003 -9.999E+003 -9.999E+003 -9.999E+003 -9.999E+003 -9.999E+003 -9.999E+003 -9.999E+003 -9.999E+003 -9.999E+003 -9.999E+003 -9.999E+003 -9.999E+003 -9.999E+003 -9.999E+003 -9.999E+003 -9.999E+003 -9.999E+003 -9.999E+003 -9.999E+003 -9.999E+003 -9.999E+003 -9.999E+003 -9.999E+003 -9.999E+003 -9.999E+003 -9.999E+003 -9.999E+003 -9.999E+003 -9.999E+003 -9.999E+003 -9.999E+003 -9.999E+003 -9.999E+003 -9.999E+003 -9.999E+003 -9.999E+003 -9.999E+003 -9.999E+003 -9.999E+003 -9.999E+003 -9.999E+003 -9.999E+003 -9.999E+003 -9.999E+003 -9.999E+003 -9.999E+003 -9.999E+003 -9.999E+003 -9.999E+003 -9.999E+003 -9.999E+003 -9.999E+003 -9.999E+003 -9.999E+003 -9.999E+003 -9.999E+003 -9.999E+003 -9.999E+003 -9.999E+003 -9.999E+003 -9.999E+003 -9.999E+003 -9.999E+003 -9.999E+003 -9.999E+003 -9.999E+003 -9.999E+003 -9.999E+003
 -9.999E+003 -9.999E+003 -9.999E+003 -9.999E+003 -9.999E+003 -9.999E+003 -9.999E+003 -9.999E+003 -9.999E+003 -9.999E+003 -9.999E+003 -9.999E+003 -9.999E+003 -9.999E+003 -9.999E+003 -9.999E+003 -9.999E+003 -9.999E+003 -9.999E+003 -9.999E+003 -9.999E+003 -9.999E+003 -9.999E+003 -9.999E+003 -9.999E+003 -9.999E+003 -9.999E+003 -9.999E+003 -9.999E+003 -9.999E+003 -9.999E+003 -9.999E+003 -9.999E+003 -9.999E+003 -9.999E+003 -9.999E+003 -9.999E+003 -9.999E+003 -9.999E+003 -9.999E+003 -9.999E+003 -9.999E+003 -9.999E+003 -9.999E+003 -9.999E+003 -9.999E+003 -9.999E+003 -9.999E+003 -9.999E+003 -9.999E+003 -9.999E+003 -9.999E+003 -9.999E+003 -9.999E+003 -9.999E+003 -9.999E+003 -9.999E+003 -9.999E+003 -9.999E+003 -9.999E+003 -9.999E+003 -9.999E+003 -9.999E+003 -9.999E+003 -9.999E+003 -9.999E+003 -9.999E+003 -9.999E+003 -9.999E+003 -9.999E+003 -9.999E+003 -9.999E+003 -9.999E+003 -9.999E+003 -9.999E+003 -9.999E+003 -9.999E+003 -9.999E+003 -9.999E+003 -9.999E+003 -9.999E+003 -9.999E+003 -9.999E+003 -9.999E+003 -9.999E+003 -9.999E+003 -9.999E+003 -9.999E+003 -9.999E+003 -9.999E+003 -9.999E+003 -9.999E+003 -9.999E+003 -9.999E+003 -9.999E+003 -9.999E+003 -9.999E+003 -9.999E+003 -9.999E+003 -9.999E+003 -9.999E+003 -9.999E+003 -9.999E+003 -9.999E+003 -9.999E+003 -9.999E+003 -9.999E+003 -9.999E+003 -9.999E+003 -9.999E+003 -9.999E+003 -9.999E+003 -9.999E+003 -9.999E+003 -9.999E+003 -9.999E+003 -9.999E+003 -9.999E+003 -9.999E+003 -9.999E+003 -9.999E+003 -9.999E+003 -9.999E+003 -9.999E+003 -9.999E+003 -9.999E+003 -9.999E+003 -9.999E+003 -9.999E+003 -9.999E+003 -9.999E+003 -9.999E+003 -9.999E+003 -9.999E+003 -9.999E+003 -9.999E+003 -9.999E+003 -9.999E+003 -9.999E+003 -9.999E+003 -9.999E+003 -9.999E+003 -9.999E+003 -9.999E+003 -9.999E+003 -9.999E+003 -9.999E+003 -9.999E+003 -9.999E+003 -9.999E+003
 -9.999E+003 -9.999E+003 -9.999E+003 -9.999E+003 -9.999E+003 -9.999E+003 -9.999E+003 -9.999E+003 -9.999E+003 -9.999E+003 -9.999E+003 -9.999E+003 -9.999E+003 -9.999E+003 -9.999E+003 -9.999E+003 -9.999E+003 -9.999E+003 -9.999E+003 -9.999E+003 -9.999E+003 -9.999E+003 -9.999E+003 -9.999E+003 -9.999E+003 -9.999E+003 -9.999E+003 -9.999E+003 -9.999E+003 -9.999E+003 -9.999E+003 -9.999E+003 -9.999E+003 -9.999E+003 -9.999E+003 -9.999E+003 -9.999E+003 -9.999E+003 -9.999E+003 -9.999E+003 -9.999E+003 -9.999E+003 -9.999E+003 -9.999E+003 -9.999E+003 -9.999E+003 -9.999E+003 -9.999E+003 -9.999E+003 -9.999E+003 -9.999E+003 -9.999E+003 -9.999E+003 -9.999E+003 -9.999E+003 -9.999E+003 -9.999E+003 -9.999E+003 -9.999E+003 -9.999E+003 -9.999E+003 -9.999E+003 -9.999E+003 -9.999E+003 -9.999E+003 -9.999E+003 -9.999E+003 -9.999E+003 -9.999E+003 -9.999E+003 -9.999E+003 -9.999E+003 -9.999E+003 -9.999E+003 -9.999E+003 -9.999E+003 -9.999E+003 -9.999E+003 -9.999E+003 -9.999E+003 -9.999E+003 -9.999E+003 -9.999E+003 -9.999E+003 -9.999E+003 -9.999E+003 -9.999E+003 -9.999E+003 -9.999E+003 -9.999E+003 -9.999E+003 -9.999E+003 -9.999E+003 -9.999E+003 -9.999E+003 -9.999E+003 -9.999E+003 -9.999E+003 -9.999E+003 -9.999E+003 -9.999E+003 -9.999E+003 -9.999E+003 -9.999E+003 -9.999E+003 -9.999E+003 -9.999E+003 -9.999E+003 -9.999E+003 -9.999E+003 -9.999E+003 -9.999E+003 -9.999E+003 -9.999E+003 -9.999E+003 -9.999E+003 -9.999E+003 -9.999E+003 -9.999E+003 -9.999E+003 -9.999E+003 -9.999E+003 -9.999E+003 -9.999E+003 -9.999E+003 -9.999E+003 -9.999E+003 -9.999E+003 -9.999E+003 -9.999E+003 -9.999E+003 -9.999E+003 -9.999E+003 -9.999E+003 -9.999E+003 -9.999E+003 -9.999E+003 -9.999E+003 -9.999E+003 -9.999E+003 -9.999E+003 -9.999E+003 -9.999E+003 -9.999E+003 -9.999E+003 -9.999E+003 -9.999E+003 -9.999E+003 -9.999E+003 -9.999E+003
 -9.999E+003 -9.999E+003 -9.999E+003 -9.999E+003 -9.999E+003 -9.999E+003 -9.999E+003 -9.999E+003 -9.999E+003 -9.999E+003 -9.999E+003 -9.999E+003 -9.999E+003 -9.999E+003 -9.999E+003 -9.999E+003 -9.999E+003 -9.999E+003 -9.999E+003 -9.999E+003 -9.999E+003 -9.999E+003 -9.999E+003 -9.999E+003 -9.999E+003 -9.999E+003 -9.999E+003 -9.999E+003 -9.999E+003 -9.999E+003 -9.999E+003 -9.999E+003 -9.999E+003 -9.999E+003 -9.999E+003 -9.999E+003 -9.999E+003 -9.999E+003 -9.999E+003 -9.999E+003 -9.999E+003 -9.999E+003 -9.999E+003 -9.999E+003 -9.999E+003 -9.999E+003 -9.999E+003 -9.999E+003 -9.999E+003 -9.999E+003 -9.999E+003 -9.999E+003 -9.999E+003 -9.999E+003 -9.999E+003 -9.999E+003 -9.999E+003 -9.999E+003 -9.999E+003 -9.999E+003 -9.999E+003 -9.999E+003 -9.999E+003 -9.999E+003 -9.999E+003 -9.999E+003 -9.999E+003 -9.999E+003 -9.999E+003 -9.999E+003 -9.999E+003 -9.999E+003 -9.999E+003 -9.999E+003 -9.999E+003 -9.999E+003 -9.999E+003 -9.999E+003 -9.999E+003 -9.999E+003 -9.999E+003 -9.999E+003 -9.999E+003 -9.999E+003 -9.999E+003 -9.999E+003 -9.999E+003 -9.999E+003 -9.999E+003 -9.999E+003 -9.999E+003 -9.999E+003 -9.999E+003 -9.999E+003 -9.999E+003 -9.999E+003 -9.999E+003 -9.999E+003 -9.999E+003 -9.999E+003 -9.999E+003 -9.999E+003 -9.999E+003 -9.999E+003 -9.999E+003 -9.999E+003 -9.999E+003 -9.999E+003 -9.999E+003 -9.999E+003 -9.999E+003 -9.999E+003 -9.999E+003 -9.999E+003 -9.999E+003 -9.999E+003 -9.999E+003 -9.999E+003 -9.999E+003 -9.999E+003 -9.999E+003 -9.999E+003 -9.999E+003 -9.999E+003 -9.999E+003 -9.999E+003 -9.999E+003 -9.999E+003 -9.999E+003 -9.999E+003 -9.999E+003 -9.999E+003 -9.999E+003 -9.999E+003 -9.999E+003 -9.999E+003 -9.999E+003 -9.999E+003 -9.999E+003 -9.999E+003 -9.999E+003 -9.999E+003 -9.999E+003 -9.999E+003 -9.999E+003 -9.999E+003 -9.999E+003 -9.999E+003 -9.999E+003 -9.999E+003
 -9.999E+003 -9.999E+003 -9.999E+003 -9.999E+003 -9.999E+003 -9.999E+003 -9.999E+003 -9.999E+003 -9.999E+003 -9.999E+003 -9.999E+003 -9.999E+003 -9.999E+003 -9.999E+003 -9.999E+003 -9.999E+003 -9.999E+003 -9.999E+003 -9.999E+003 -9.999E+003 -9.999E+003 -9.999E+003 -9.999E+003 -9.999E+003 -9.999E+003 -9.999E+003 -9.999E+003 -9.999E+003 -9.999E+003 -9.999E+003 -9.999E+003 -9.999E+003 -9.999E+003 -9.999E+003 -9.999E+003 -9.999E+003 -9.999E+003 -9.999E+003 -9.999E+003 -9.999E+003 -9.999E+003 -9.999E+003 -9.999E+003 -9.999E+003 -9.999E+003 -9.999E+003 -9.999E+003 -9.999E+003 -9.999E+003 -9.999E+003 -9.999E+003 -9.999E+003 -9.999E+003 -9.999E+003 -9.999E+003 -9.999E+003 -9.999E+003 -9.999E+003 -9.999E+003 -9.999E+003 -9.999E+003 -9.999E+003 -9.999E+003 -9.999E+003 -9.999E+003 -9.999E+003 -9.999E+003 -9.999E+003 -9.999E+003 -9.999E+003 -9.999E+003 -9.999E+003 -9.999E+003 -9.999E+003 -9.999E+003 -9.999E+003 -9.999E+003 -9.999E+003 -9.999E+003 -9.999E+003 -9.999E+003 -9.999E+003 -9.999E+003 -9.999E+003 -9.999E+003 -9.999E+003 -9.999E+003 -9.999E+003 -9.999E+003 -9.999E+003 -9.999E+003 -9.999E+003 -9.999E+003 -9.999E+003 -9.999E+003 -9.999E+003 -9.999E+003 -9.999E+003 -9.999E+003 -9.999E+003 -9.999E+003 -9.999E+003 -9.999E+003 -9.999E+003 -9.999E+003 -9.999E+003 -9.999E+003 -9.999E+003 -9.999E+003 -9.999E+003 -9.999E+003 -9.999E+003 -9.999E+003 -9.999E+003 -9.999E+003 -9.999E+003 -9.999E+003 -9.999E+003 -9.999E+003 -9.999E+003 -9.999E+003 -9.999E+003 -9.999E+003 -9.999E+003 -9.999E+003 -9.999E+003 -9.999E+003 -9.999E+003 -9.999E+003 -9.999E+003 -9.999E+003 -9.999E+003 -9.999E+003 -9.999E+003 -9.999E+003 -9.999E+003 -9.999E+003 -9.999E+003 -9.999E+003 -9.999E+003 -9.999E+003 -9.999E+003 -9.999E+003 -9.999E+003 -9.999E+003 -9.999E+003 -9.999E+003 -9.999E+003 -9.999E+003 -9.999E+003
 -9.999E+003 -9.999E+003 -9.999E+003 -9.999E+003 -9.999E+003 -9.999E+003 -9.999E+003 -9.999E+003 -9.999E+003 -9.999E+003 -9.999E+003 -9.999E+003 -9.999E+003 -9.999E+003 -9.999E+003 -9.999E+003 -9.999E+003 -9.999E+003 -9.999E+003 -9.999E+003 -9.999E+003 -9.999E+003 -9.999E+003 -9.999E+003 -9.999E+003 -9.999E+003 -9.999E+003 -9.999E+003 -9.999E+003 -9.999E+003 -9.999E+003 -9.999E+003 -9.999E+003 -9.999E+003 -9.999E+003 -9.999E+003 -9.999E+003 -9.999E+003 -9.999E+003 -9.999E+003 -9.999E+003 -9.999E+003 -9.999E+003 -9.999E+003 -9.999E+003 -9.999E+003 -9.999E+003 -9.999E+003 -9.999E+003 -9.999E+003 -9.999E+003 -9.999E+003 -9.999E+003 -9.999E+003 -9.999E+003 -9.999E+003 -9.999E+003 -9.999E+003 -9.999E+003 -9.999E+003 -9.999E+003 -9.999E+003 -9.999E+003 -9.999E+003 -9.999E+003 -9.999E+003 -9.999E+003 -9.999E+003 -9.999E+003 -9.999E+003 -9.999E+003 -9.999E+003 -9.999E+003 -9.999E+003 -9.999E+003 -9.999E+003 -9.999E+003 -9.999E+003 -9.999E+003 -9.999E+003 -9.999E+003 -9.999E+003 -9.999E+003 -9.999E+003 -9.999E+003 -9.999E+003 -9.999E+003 -9.999E+003 -9.999E+003 -9.999E+003 -9.999E+003 -9.999E+003 -9.999E+003 -9.999E+003 -9.999E+003 -9.999E+003 -9.999E+003 -9.999E+003 -9.999E+003 -9.999E+003 -9.999E+003 -9.999E+003 -9.999E+003 -9.999E+003 -9.999E+003 -9.999E+003 -9.999E+003 -9.999E+003 -9.999E+003 -9.999E+003 -9.999E+003 -9.999E+003 -9.999E+003 -9.999E+003 -9.999E+003 -9.999E+003 -9.999E+003 -9.999E+003 -9.999E+003 -9.999E+003 -9.999E+003 -9.999E+003 -9.999E+003 -9.999E+003 -9.999E+003 -9.999E+003 -9.999E+003 -9.999E+003 -9.999E+003 -9.999E+003 -9.999E+003 -9.999E+003 -9.999E+003 -9.999E+003 -9.999E+003 -9.999E+003 -9.999E+003 -9.999E+003 -9.999E+003 -9.999E+003 -9.999E+003 -9.999E+003 -9.999E+003 -9.999E+003 -9.999E+003 -9.999E+003 -9.999E+003 -9.999E+003 -9.999E+003 -9.999E+003
 -9.999E+003 -9.999E+003 -9.999E+003 -9.999E+003 -9.999E+003 -9.999E+003 -9.999E+003 -9.999E+003 -9.999E+003 -9.999E+003 -9.999E+003 -9.999E+003 -9.999E+003 -9.999E+003 -9.999E+003 -9.999E+003 -9.999E+003 -9.999E+003 -9.999E+003 -9.999E+003 -9.999E+003 -9.999E+003 -9.999E+003 -9.999E+003 -9.999E+003 -9.999E+003 -9.999E+003 -9.999E+003 -9.999E+003 -9.999E+003 -9.999E+003 -9.999E+003 -9.999E+003 -9.999E+003 -9.999E+003 -9.999E+003 -9.999E+003 -9.999E+003 -9.999E+003 -9.999E+003 -9.999E+003 -9.999E+003 -9.999E+003 -9.999E+003 -9.999E+003 -9.999E+003 -9.999E+003 -9.999E+003 -9.999E+003 -9.999E+003 -9.999E+003 -9.999E+003 -9.999E+003 -9.999E+003 -9.999E+003 -9.999E+003 -9.999E+003 -9.999E+003 -9.999E+003 -9.999E+003 -9.999E+003 -9.999E+003 -9.999E+003 -9.999E+003 -9.999E+003 -9.999E+003 -9.999E+003 -9.999E+003 -9.999E+003 -9.999E+003 -9.999E+003 -9.999E+003 -9.999E+003 -9.999E+003 -9.999E+003 -9.999E+003 -9.999E+003 -9.999E+003 -9.999E+003 -9.999E+003 -9.999E+003 -9.999E+003 -9.999E+003 -9.999E+003 -9.999E+003 -9.999E+003 -9.999E+003 -9.999E+003 -9.999E+003 -9.999E+003 -9.999E+003 -9.999E+003 -9.999E+003 -9.999E+003 -9.999E+003 -9.999E+003 -9.999E+003 -9.999E+003 -9.999E+003 -9.999E+003 -9.999E+003 -9.999E+003 -9.999E+003 -9.999E+003 -9.999E+003 -9.999E+003 -9.999E+003 -9.999E+003 -9.999E+003 -9.999E+003 -9.999E+003 -9.999E+003 -9.999E+003 -9.999E+003 -9.999E+003 -9.999E+003 -9.999E+003 -9.999E+003 -9.999E+003 -9.999E+003 -9.999E+003 -9.999E+003 -9.999E+003 -9.999E+003 -9.999E+003 -9.999E+003 -9.999E+003 -9.999E+003 -9.999E+003 -9.999E+003 -9.999E+003 -9.999E+003 -9.999E+003 -9.999E+003 -9.999E+003 -9.999E+003 -9.999E+003 -9.999E+003 -9.999E+003 -9.999E+003 -9.999E+003 -9.999E+003 -9.999E+003 -9.999E+003 -9.999E+003 -9.999E+003 -9.999E+003 -9.999E+003 -9.999E+003 -9.999E+003
 -9.999E+003 -9.999E+003 -9.999E+003 -9.999E+003 -9.999E+003 -9.999E+003 -9.999E+003 -9.999E+003 -9.999E+003 -9.999E+003 -9.999E+003 -9.999E+003 -9.999E+003 -9.999E+003 -9.999E+003 -9.999E+003 -9.999E+003 -9.999E+003 -9.999E+003 -9.999E+003 -9.999E+003 -9.999E+003 -9.999E+003 -9.999E+003 -9.999E+003 -9.999E+003 -9.999E+003 -9.999E+003 -9.999E+003 -9.999E+003 -9.999E+003 -9.999E+003 -9.999E+003 -9.999E+003 -9.999E+003 -9.999E+003 -9.999E+003 -9.999E+003 -9.999E+003 -9.999E+003 -9.999E+003 -9.999E+003 -9.999E+003 -9.999E+003 -9.999E+003 -9.999E+003 -9.999E+003 -9.999E+003 -9.999E+003 -9.999E+003 -9.999E+003 -9.999E+003 -9.999E+003 -9.999E+003 -9.999E+003 -9.999E+003 -9.999E+003 -9.999E+003 -9.999E+003 -9.999E+003 -9.999E+003 -9.999E+003 -9.999E+003 -9.999E+003 -9.999E+003 -9.999E+003 -9.999E+003 -9.999E+003 -9.999E+003 -9.999E+003 -9.999E+003 -9.999E+003 -9.999E+003 -9.999E+003 -9.999E+003 -9.999E+003 -9.999E+003 -9.999E+003 -9.999E+003 -9.999E+003 -9.999E+003 -9.999E+003 -9.999E+003 -9.999E+003 -9.999E+003 -9.999E+003 -9.999E+003 -9.999E+003 -9.999E+003 -9.999E+003 -9.999E+003 -9.999E+003 -9.999E+003 -9.999E+003 -9.999E+003 -9.999E+003 -9.999E+003 -9.999E+003 -9.999E+003 -9.999E+003 -9.999E+003 -9.999E+003 -9.999E+003 -9.999E+003 -9.999E+003 -9.999E+003 -9.999E+003 -9.999E+003 -9.999E+003 -9.999E+003 -9.999E+003 -9.999E+003 -9.999E+003 -9.999E+003 -9.999E+003 -9.999E+003 -9.999E+003 -9.999E+003 -9.999E+003 -9.999E+003 -9.999E+003 -9.999E+003 -9.999E+003 -9.999E+003 -9.999E+003 -9.999E+003 -9.999E+003 -9.999E+003 -9.999E+003 -9.999E+003 -9.999E+003 -9.999E+003 -9.999E+003 -9.999E+003 -9.999E+003 -9.999E+003 -9.999E+003 -9.999E+003 -9.999E+003 -9.999E+003 -9.999E+003 -9.999E+003 -9.999E+003 -9.999E+003 -9.999E+003 -9.999E+003 -9.999E+003 -9.999E+003 -9.999E+003 -9.999E+003
 -9.999E+003 -9.999E+003 -9.999E+003 -9.999E+003 -9.999E+003 -9.999E+003 -9.999E+003 -9.999E+003 -9.999E+003 -9.999E+003 -9.999E+003 -9.999E+003 -9.999E+003 -9.999E+003 -9.999E+003 -9.999E+003 -9.999E+003 -9.999E+003 -9.999E+003 -9.999E+003 -9.999E+003 -9.999E+003 -9.999E+003 -9.999E+003 -9.999E+003 -9.999E+003 -9.999E+003 -9.999E+003 -9.999E+003 -9.999E+003 -9.999E+003 -9.999E+003 -9.999E+003 -9.999E+003 -9.999E+003 -9.999E+003 -9.999E+003 -9.999E+003 -9.999E+003 -9.999E+003 -9.999E+003 -9.999E+003 -9.999E+003 -9.999E+003 -9.999E+003 -9.999E+003 -9.999E+003 -9.999E+003 -9.999E+003 -9.999E+003 -9.999E+003 -9.999E+003 -9.999E+003 -9.999E+003 -9.999E+003 -9.999E+003 -9.999E+003 -9.999E+003 -9.999E+003 -9.999E+003 -9.999E+003 -9.999E+003 -9.999E+003 -9.999E+003 -9.999E+003 -9.999E+003 -9.999E+003 -9.999E+003 -9.999E+003 -9.999E+003 -9.999E+003 -9.999E+003 -9.999E+003 -9.999E+003 -9.999E+003 -9.999E+003 -9.999E+003 -9.999E+003 -9.999E+003 -9.999E+003 -9.999E+003 -9.999E+003 -9.999E+003 -9.999E+003 -9.999E+003 -9.999E+003 -9.999E+003 -9.999E+003 -9.999E+003 -9.999E+003 -9.999E+003 -9.999E+003 -9.999E+003 -9.999E+003 -9.999E+003 -9.999E+003 -9.999E+003 -9.999E+003 -9.999E+003 -9.999E+003 -9.999E+003 -9.999E+003 -9.999E+003 -9.999E+003 -9.999E+003 -9.999E+003 -9.999E+003 -9.999E+003 -9.999E+003 -9.999E+003 -9.999E+003 -9.999E+003 -9.999E+003 -9.999E+003 -9.999E+003 -9.999E+003 -9.999E+003 -9.999E+003 -9.999E+003 -9.999E+003 -9.999E+003 -9.999E+003 -9.999E+003 -9.999E+003 -9.999E+003 -9.999E+003 -9.999E+003 -9.999E+003 -9.999E+003 -9.999E+003 -9.999E+003 -9.999E+003 -9.999E+003 -9.999E+003 -9.999E+003 -9.999E+003 -9.999E+003 -9.999E+003 -9.999E+003 -9.999E+003 -9.999E+003 -9.999E+003 -9.999E+003 -9.999E+003 -9.999E+003 -9.999E+003 -9.999E+003 -9.999E+003 -9.999E+003 -9.999E+003
 -9.999E+003 -9.999E+003 -9.999E+003 -9.999E+003 -9.999E+003 -9.999E+003 -9.999E+003 -9.999E+003 -9.999E+003 -9.999E+003 -9.999E+003 -9.999E+003 -9.999E+003 -9.999E+003 -9.999E+003 -9.999E+003 -9.999E+003 -9.999E+003 -9.999E+003 -9.999E+003 -9.999E+003 -9.999E+003 -9.999E+003 -9.999E+003 -9.999E+003 -9.999E+003 -9.999E+003 -9.999E+003 -9.999E+003 -9.999E+003 -9.999E+003 -9.999E+003 -9.999E+003 -9.999E+003 -9.999E+003 -9.999E+003 -9.999E+003 -9.999E+003 -9.999E+003 -9.999E+003 -9.999E+003 -9.999E+003 -9.999E+003 -9.999E+003 -9.999E+003 -9.999E+003 -9.999E+003 -9.999E+003 -9.999E+003 -9.999E+003 -9.999E+003 -9.999E+003 -9.999E+003 -9.999E+003 -9.999E+003 -9.999E+003 -9.999E+003 -9.999E+003 -9.999E+003 -9.999E+003 -9.999E+003 -9.999E+003 -9.999E+003 -9.999E+003 -9.999E+003 -9.999E+003 -9.999E+003 -9.999E+003 -9.999E+003 -9.999E+003 -9.999E+003 -9.999E+003 -9.999E+003 -9.999E+003 -9.999E+003 -9.999E+003 -9.999E+003 -9.999E+003 -9.999E+003 -9.999E+003 -9.999E+003 -9.999E+003 -9.999E+003 -9.999E+003 -9.999E+003 -9.999E+003 -9.999E+003 -9.999E+003 -9.999E+003 -9.999E+003 -9.999E+003 -9.999E+003 -9.999E+003 -9.999E+003 -9.999E+003 -9.999E+003 -9.999E+003 -9.999E+003 -9.999E+003 -9.999E+003 -9.999E+003 -9.999E+003 -9.999E+003 -9.999E+003 -9.999E+003 -9.999E+003 -9.999E+003 -9.999E+003 -9.999E+003 -9.999E+003 -9.999E+003 -9.999E+003 -9.999E+003 -9.999E+003 -9.999E+003 -9.999E+003 -9.999E+003 -9.999E+003 -9.999E+003 -9.999E+003 -9.999E+003 -9.999E+003 -9.999E+003 -9.999E+003 -9.999E+003 -9.999E+003 -9.999E+003 -9.999E+003 -9.999E+003 -9.999E+003 -9.999E+003 -9.999E+003 -9.999E+003 -9.999E+003 -9.999E+003 -9.999E+003 -9.999E+003 -9.999E+003 -9.999E+003 -9.999E+003 -9.999E+003 -9.999E+003 -9.999E+003 -9.999E+003 -9.999E+003 -9.999E+003 -9.999E+003 -9.999E+003 -9.999E+003 -9.999E+003
 -9.999E+003 -9.999E+003 -9.999E+003 -9.999E+003 -9.999E+003 -9.999E+003 -9.999E+003 -9.999E+003 -9.999E+003 -9.999E+003 -9.999E+003 -9.999E+003 -9.999E+003 -9.999E+003 -9.999E+003 -9.999E+003 -9.999E+003 -9.999E+003 -9.999E+003 -9.999E+003 -9.999E+003 -9.999E+003 -9.999E+003 -9.999E+003 -9.999E+003 -9.999E+003 -9.999E+003 -9.999E+003 -9.999E+003 -9.999E+003 -9.999E+003 -9.999E+003 -9.999E+003 -9.999E+003 -9.999E+003 -9.999E+003 -9.999E+003 -9.999E+003 -9.999E+003 -9.999E+003 -9.999E+003 -9.999E+003 -9.999E+003 -9.999E+003 -9.999E+003 -9.999E+003 -9.999E+003 -9.999E+003 -9.999E+003 -9.999E+003 -9.999E+003 -9.999E+003 -9.999E+003 -9.999E+003 -9.999E+003 -9.999E+003 -9.999E+003 -9.999E+003 -9.999E+003 -9.999E+003 -9.999E+003 -9.999E+003 -9.999E+003 -9.999E+003 -9.999E+003 -9.999E+003 -9.999E+003 -9.999E+003 -9.999E+003 -9.999E+003 -9.999E+003 -9.999E+003 -9.999E+003 -9.999E+003 -9.999E+003 -9.999E+003 -9.999E+003 -9.999E+003 -9.999E+003 -9.999E+003 -9.999E+003 -9.999E+003 -9.999E+003 -9.999E+003 -9.999E+003 -9.999E+003 -9.999E+003 -9.999E+003 -9.999E+003 -9.999E+003 -9.999E+003 -9.999E+003 -9.999E+003 -9.999E+003 -9.999E+003 -9.999E+003 -9.999E+003 -9.999E+003 -9.999E+003 -9.999E+003 -9.999E+003 -9.999E+003 -9.999E+003 -9.999E+003 -9.999E+003 -9.999E+003 -9.999E+003 -9.999E+003 -9.999E+003 -9.999E+003 -9.999E+003 -9.999E+003 -9.999E+003 -9.999E+003 -9.999E+003 -9.999E+003 -9.999E+003 -9.999E+003 -9.999E+003 -9.999E+003 -9.999E+003 -9.999E+003 -9.999E+003 -9.999E+003 -9.999E+003 -9.999E+003 -9.999E+003 -9.999E+003 -9.999E+003 -9.999E+003 -9.999E+003 -9.999E+003 -9.999E+003 -9.999E+003 -9.999E+003 -9.999E+003 -9.999E+003 -9.999E+003 -9.999E+003 -9.999E+003 -9.999E+003 -9.999E+003 -9.999E+003 -9.999E+003 -9.999E+003 -9.999E+003 -9.999E+003 -9.999E+003 -9.999E+003 -9.999E+003
 -9.999E+003 -9.999E+003 -9.999E+003 -9.999E+003 -9.999E+003 -9.999E+003 -9.999E+003 -9.999E+003 -9.999E+003 -9.999E+003 -9.999E+003 -9.999E+003 -9.999E+003 -9.999E+003 -9.999E+003 -9.999E+003 -9.999E+003 -9.999E+003 -9.999E+003 -9.999E+003 -9.999E+003 -9.999E+003 -9.999E+003 -9.999E+003 -9.999E+003 -9.999E+003 -9.999E+003 -9.999E+003 -9.999E+003 -9.999E+003 -9.999E+003 -9.999E+003 -9.999E+003 -9.999E+003 -9.999E+003 -9.999E+003 -9.999E+003 -9.999E+003 -9.999E+003 -9.999E+003 -9.999E+003 -9.999E+003 -9.999E+003 -9.999E+003 -9.999E+003 -9.999E+003 -9.999E+003 -9.999E+003 -9.999E+003 -9.999E+003 -9.999E+003 -9.999E+003 -9.999E+003 -9.999E+003 -9.999E+003 -9.999E+003 -9.999E+003 -9.999E+003 -9.999E+003 -9.999E+003 -9.999E+003 -9.999E+003 -9.999E+003 -9.999E+003 -9.999E+003 -9.999E+003 -9.999E+003 -9.999E+003 -9.999E+003 -9.999E+003 -9.999E+003 -9.999E+003 -9.999E+003 -9.999E+003 -9.999E+003 -9.999E+003 -9.999E+003 -9.999E+003 -9.999E+003 -9.999E+003 -9.999E+003 -9.999E+003 -9.999E+003 -9.999E+003 -9.999E+003 -9.999E+003 -9.999E+003 -9.999E+003 -9.999E+003 -9.999E+003 -9.999E+003 -9.999E+003 -9.999E+003 -9.999E+003 -9.999E+003 -9.999E+003 -9.999E+003 -9.999E+003 -9.999E+003 -9.999E+003 -9.999E+003 -9.999E+003 -9.999E+003 -9.999E+003 -9.999E+003 -9.999E+003 -9.999E+003 -9.999E+003 -9.999E+003 -9.999E+003 -9.999E+003 -9.999E+003 -9.999E+003 -9.999E+003 -9.999E+003 -9.999E+003 -9.999E+003 -9.999E+003 -9.999E+003 -9.999E+003 -9.999E+003 -9.999E+003 -9.999E+003 -9.999E+003 -9.999E+003 -9.999E+003 -9.999E+003 -9.999E+003 -9.999E+003 -9.999E+003 -9.999E+003 -9.999E+003 -9.999E+003 -9.999E+003 -9.999E+003 -9.999E+003 -9.999E+003 -9.999E+003 -9.999E+003 -9.999E+003 -9.999E+003 -9.999E+003 -9.999E+003 -9.999E+003 -9.999E+003 -9.999E+003 -9.999E+003 -9.999E+003 -9.999E+003 -9.999E+003
 -9.999E+003 -9.999E+003 -9.999E+003 -9.999E+003 -9.999E+003 -9.999E+003 -9.999E+003 -9.999E+003 -9.999E+003 -9.999E+003 -9.999E+003 -9.999E+003 -9.999E+003 -9.999E+003 -9.999E+003 -9.999E+003 -9.999E+003 -9.999E+003 -9.999E+003 -9.999E+003 -9.999E+003 -9.999E+003 -9.999E+003 -9.999E+003 -9.999E+003 -9.999E+003 -9.999E+003 -9.999E+003 -9.999E+003 -9.999E+003 -9.999E+003 -9.999E+003 -9.999E+003 -9.999E+003 -9.999E+003 -9.999E+003 -9.999E+003 -9.999E+003 -9.999E+003 -9.999E+003 -9.999E+003 -9.999E+003 -9.999E+003 -9.999E+003 -9.999E+003 -9.999E+003 -9.999E+003 -9.999E+003 -9.999E+003 -9.999E+003 -9.999E+003 -9.999E+003 -9.999E+003 -9.999E+003 -9.999E+003 -9.999E+003 -9.999E+003 -9.999E+003 -9.999E+003 -9.999E+003 -9.999E+003 -9.999E+003 -9.999E+003 -9.999E+003 -9.999E+003 -9.999E+003 -9.999E+003 -9.999E+003 -9.999E+003 -9.999E+003 -9.999E+003 -9.999E+003 -9.999E+003 -9.999E+003 -9.999E+003 -9.999E+003 -9.999E+003 -9.999E+003 -9.999E+003 -9.999E+003 -9.999E+003 -9.999E+003 -9.999E+003 -9.999E+003 -9.999E+003 -9.999E+003 -9.999E+003 -9.999E+003 -9.999E+003 -9.999E+003 -9.999E+003 -9.999E+003 -9.999E+003 -9.999E+003 -9.999E+003 -9.999E+003 -9.999E+003 -9.999E+003 -9.999E+003 -9.999E+003 -9.999E+003 -9.999E+003 -9.999E+003 -9.999E+003 -9.999E+003 -9.999E+003 -9.999E+003 -9.999E+003 -9.999E+003 -9.999E+003 -9.999E+003 -9.999E+003 -9.999E+003 -9.999E+003 -9.999E+003 -9.999E+003 -9.999E+003 -9.999E+003 -9.999E+003 -9.999E+003 -9.999E+003 -9.999E+003 -9.999E+003 -9.999E+003 -9.999E+003 -9.999E+003 -9.999E+003 -9.999E+003 -9.999E+003 -9.999E+003 -9.999E+003 -9.999E+003 -9.999E+003 -9.999E+003 -9.999E+003 -9.999E+003 -9.999E+003 -9.999E+003 -9.999E+003 -9.999E+003 -9.999E+003 -9.999E+003 -9.999E+003 -9.999E+003 -9.999E+003 -9.999E+003 -9.999E+003 -9.999E+003 -9.999E+003 -9.999E+003
 -9.999E+003 -9.999E+003 -9.999E+003 -9.999E+003 -9.999E+003 -9.999E+003 -9.999E+003 -9.999E+003 -9.999E+003 -9.999E+003 -9.999E+003 -9.999E+003 -9.999E+003 -9.999E+003 -9.999E+003 -9.999E+003 -9.999E+003 -9.999E+003 -9.999E+003 -9.999E+003 -9.999E+003 -9.999E+003 -9.999E+003 -9.999E+003 -9.999E+003 -9.999E+003 -9.999E+003 -9.999E+003 -9.999E+003 -9.999E+003 -9.999E+003 -9.999E+003 -9.999E+003 -9.999E+003 -9.999E+003 -9.999E+003 -9.999E+003 -9.999E+003 -9.999E+003 -9.999E+003 -9.999E+003 -9.999E+003 -9.999E+003 -9.999E+003 -9.999E+003 -9.999E+003 -9.999E+003 -9.999E+003 -9.999E+003 -9.999E+003 -9.999E+003 -9.999E+003 -9.999E+003 -9.999E+003 -9.999E+003 -9.999E+003 -9.999E+003 -9.999E+003 -9.999E+003 -9.999E+003 -9.999E+003 -9.999E+003 -9.999E+003 -9.999E+003 -9.999E+003 -9.999E+003 -9.999E+003 -9.999E+003 -9.999E+003 -9.999E+003 -9.999E+003 -9.999E+003 -9.999E+003 -9.999E+003 -9.999E+003 -9.999E+003 -9.999E+003 -9.999E+003 -9.999E+003 -9.999E+003 -9.999E+003 -9.999E+003 -9.999E+003 -9.999E+003 -9.999E+003 -9.999E+003 -9.999E+003 -9.999E+003 -9.999E+003 -9.999E+003 -9.999E+003 -9.999E+003 -9.999E+003 -9.999E+003 -9.999E+003 -9.999E+003 -9.999E+003 -9.999E+003 -9.999E+003 -9.999E+003 -9.999E+003 -9.999E+003 -9.999E+003 -9.999E+003 -9.999E+003 -9.999E+003 -9.999E+003 -9.999E+003 -9.999E+003 -9.999E+003 -9.999E+003 -9.999E+003 -9.999E+003 -9.999E+003 -9.999E+003 -9.999E+003 -9.999E+003 -9.999E+003 -9.999E+003 -9.999E+003 -9.999E+003 -9.999E+003 -9.999E+003 -9.999E+003 -9.999E+003 -9.999E+003 -9.999E+003 -9.999E+003 -9.999E+003 -9.999E+003 -9.999E+003 -9.999E+003 -9.999E+003 -9.999E+003 -9.999E+003 -9.999E+003 -9.999E+003 -9.999E+003 -9.999E+003 -9.999E+003 -9.999E+003 -9.999E+003 -9.999E+003 -9.999E+003 -9.999E+003 -9.999E+003 -9.999E+003 -9.999E+003 -9.999E+003 -9.999E+003
 -9.999E+003 -9.999E+003 -9.999E+003 -9.999E+003 -9.999E+003 -9.999E+003 -9.999E+003 -9.999E+003 -9.999E+003 -9.999E+003 -9.999E+003 -9.999E+003 -9.999E+003 -9.999E+003 -9.999E+003 -9.999E+003 -9.999E+003 -9.999E+003 -9.999E+003 -9.999E+003 -9.999E+003 -9.999E+003 -9.999E+003 -9.999E+003 -9.999E+003 -9.999E+003 -9.999E+003 -9.999E+003 -9.999E+003 -9.999E+003 -9.999E+003 -9.999E+003 -9.999E+003 -9.999E+003 -9.999E+003 -9.999E+003 -9.999E+003 -9.999E+003 -9.999E+003 -9.999E+003 -9.999E+003 -9.999E+003 -9.999E+003 -9.999E+003 -9.999E+003 -9.999E+003 -9.999E+003 -9.999E+003 -9.999E+003 -9.999E+003 -9.999E+003 -9.999E+003 -9.999E+003 -9.999E+003 -9.999E+003 -9.999E+003 -9.999E+003 -9.999E+003 -9.999E+003 -9.999E+003 -9.999E+003 -9.999E+003 -9.999E+003 -9.999E+003 -9.999E+003 -9.999E+003 -9.999E+003 -9.999E+003 -9.999E+003 -9.999E+003 -9.999E+003 -9.999E+003 -9.999E+003 -9.999E+003 -9.999E+003 -9.999E+003 -9.999E+003 -9.999E+003 -9.999E+003 -9.999E+003 -9.999E+003 -9.999E+003 -9.999E+003 -9.999E+003 -9.999E+003 -9.999E+003 -9.999E+003 -9.999E+003 -9.999E+003 -9.999E+003 -9.999E+003 -9.999E+003 -9.999E+003 -9.999E+003 -9.999E+003 -9.999E+003 -9.999E+003 -9.999E+003 -9.999E+003 -9.999E+003 -9.999E+003 -9.999E+003 -9.999E+003 -9.999E+003 -9.999E+003 -9.999E+003 -9.999E+003 -9.999E+003 -9.999E+003 -9.999E+003 -9.999E+003 -9.999E+003 -9.999E+003 -9.999E+003 -9.999E+003 -9.999E+003 -9.999E+003 -9.999E+003 -9.999E+003 -9.999E+003 -9.999E+003 -9.999E+003 -9.999E+003 -9.999E+003 -9.999E+003 -9.999E+003 -9.999E+003 -9.999E+003 -9.999E+003 -9.999E+003 -9.999E+003 -9.999E+003 -9.999E+003 -9.999E+003 -9.999E+003 -9.999E+003 -9.999E+003 -9.999E+003 -9.999E+003 -9.999E+003 -9.999E+003 -9.999E+003 -9.999E+003 -9.999E+003 -9.999E+003 -9.999E+003 -9.999E+003 -9.999E+003 -9.999E+003 -9.999E+003
 -9.999E+003 -9.999E+003 -9.999E+003 -9.999E+003 -9.999E+003 -9.999E+003 -9.999E+003 -9.999E+003 -9.999E+003 -9.999E+003 -9.999E+003 -9.999E+003 -9.999E+003 -9.999E+003 -9.999E+003 -9.999E+003 -9.999E+003 -9.999E+003 -9.999E+003 -9.999E+003 -9.999E+003 -9.999E+003 -9.999E+003 -9.999E+003 -9.999E+003 -9.999E+003 -9.999E+003 -9.999E+003 -9.999E+003 -9.999E+003 -9.999E+003 -9.999E+003 -9.999E+003 -9.999E+003 -9.999E+003 -9.999E+003 -9.999E+003 -9.999E+003 -9.999E+003 -9.999E+003 -9.999E+003 -9.999E+003 -9.999E+003 -9.999E+003 -9.999E+003 -9.999E+003 -9.999E+003 -9.999E+003 -9.999E+003 -9.999E+003 -9.999E+003 -9.999E+003 -9.999E+003 -9.999E+003 -9.999E+003 -9.999E+003 -9.999E+003 -9.999E+003 -9.999E+003 -9.999E+003 -9.999E+003 -9.999E+003 -9.999E+003 -9.999E+003 -9.999E+003 -9.999E+003 -9.999E+003 -9.999E+003 -9.999E+003 -9.999E+003 -9.999E+003 -9.999E+003 -9.999E+003 -9.999E+003 -9.999E+003 -9.999E+003 -9.999E+003 -9.999E+003 -9.999E+003 -9.999E+003 -9.999E+003 -9.999E+003 -9.999E+003 -9.999E+003 -9.999E+003 -9.999E+003 -9.999E+003 -9.999E+003 -9.999E+003 -9.999E+003 -9.999E+003 -9.999E+003 -9.999E+003 -9.999E+003 -9.999E+003 -9.999E+003 -9.999E+003 -9.999E+003 -9.999E+003 -9.999E+003 -9.999E+003 -9.999E+003 -9.999E+003 -9.999E+003 -9.999E+003 -9.999E+003 -9.999E+003 -9.999E+003 -9.999E+003 -9.999E+003 -9.999E+003 -9.999E+003 -9.999E+003 -9.999E+003 -9.999E+003 -9.999E+003 -9.999E+003 -9.999E+003 -9.999E+003 -9.999E+003 -9.999E+003 -9.999E+003 -9.999E+003 -9.999E+003 -9.999E+003 -9.999E+003 -9.999E+003 -9.999E+003 -9.999E+003 -9.999E+003 -9.999E+003 -9.999E+003 -9.999E+003 -9.999E+003 -9.999E+003 -9.999E+003 -9.999E+003 -9.999E+003 -9.999E+003 -9.999E+003 -9.999E+003 -9.999E+003 -9.999E+003 -9.999E+003 -9.999E+003 -9.999E+003 -9.999E+003 -9.999E+003 -9.999E+003 -9.999E+003
 -9.999E+003 -9.999E+003 -9.999E+003 -9.999E+003 -9.999E+003 -9.999E+003 -9.999E+003 -9.999E+003 -9.999E+003 -9.999E+003 -9.999E+003 -9.999E+003 -9.999E+003 -9.999E+003 -9.999E+003 -9.999E+003 -9.999E+003 -9.999E+003 -9.999E+003 -9.999E+003 -9.999E+003 -9.999E+003 -9.999E+003 -9.999E+003 -9.999E+003 -9.999E+003 -9.999E+003 -9.999E+003 -9.999E+003 -9.999E+003 -9.999E+003 -9.999E+003 -9.999E+003 -9.999E+003 -9.999E+003 -9.999E+003 -9.999E+003 -9.999E+003 -9.999E+003 -9.999E+003 -9.999E+003 -9.999E+003 -9.999E+003 -9.999E+003 -9.999E+003 -9.999E+003 -9.999E+003 -9.999E+003 -9.999E+003 -9.999E+003 -9.999E+003 -9.999E+003 -9.999E+003 -9.999E+003 -9.999E+003 -9.999E+003 -9.999E+003 -9.999E+003 -9.999E+003 -9.999E+003 -9.999E+003 -9.999E+003 -9.999E+003 -9.999E+003 -9.999E+003 -9.999E+003 -9.999E+003 -9.999E+003 -9.999E+003 -9.999E+003 -9.999E+003 -9.999E+003 -9.999E+003 -9.999E+003 -9.999E+003 -9.999E+003 -9.999E+003 -9.999E+003 -9.999E+003 -9.999E+003 -9.999E+003 -9.999E+003 -9.999E+003 -9.999E+003 -9.999E+003 -9.999E+003 -9.999E+003 -9.999E+003 -9.999E+003 -9.999E+003 -9.999E+003 -9.999E+003 -9.999E+003 -9.999E+003 -9.999E+003 -9.999E+003 -9.999E+003 -9.999E+003 -9.999E+003 -9.999E+003 -9.999E+003 -9.999E+003 -9.999E+003 -9.999E+003 -9.999E+003 -9.999E+003 -9.999E+003 -9.999E+003 -9.999E+003 -9.999E+003 -9.999E+003 -9.999E+003 -9.999E+003 -9.999E+003 -9.999E+003 -9.999E+003 -9.999E+003 -9.999E+003 -9.999E+003 -9.999E+003 -9.999E+003 -9.999E+003 -9.999E+003 -9.999E+003 -9.999E+003 -9.999E+003 -9.999E+003 -9.999E+003 -9.999E+003 -9.999E+003 -9.999E+003 -9.999E+003 -9.999E+003 -9.999E+003 -9.999E+003 -9.999E+003 -9.999E+003 -9.999E+003 -9.999E+003 -9.999E+003 -9.999E+003 -9.999E+003 -9.999E+003 -9.999E+003 -9.999E+003 -9.999E+003 -9.999E+003 -9.999E+003 -9.999E+003 -9.999E+003
 -9.999E+003 -9.999E+003 -9.999E+003 -9.999E+003 -9.999E+003 -9.999E+003 -9.999E+003 -9.999E+003 -9.999E+003 -9.999E+003 -9.999E+003 -9.999E+003 -9.999E+003 -9.999E+003 -9.999E+003 -9.999E+003 -9.999E+003 -9.999E+003 -9.999E+003 -9.999E+003 -9.999E+003 -9.999E+003 -9.999E+003 -9.999E+003 -9.999E+003 -9.999E+003 -9.999E+003 -9.999E+003 -9.999E+003 -9.999E+003 -9.999E+003 -9.999E+003 -9.999E+003 -9.999E+003 -9.999E+003 -9.999E+003 -9.999E+003 -9.999E+003 -9.999E+003 -9.999E+003 -9.999E+003 -9.999E+003 -9.999E+003 -9.999E+003 -9.999E+003 -9.999E+003 -9.999E+003 -9.999E+003 -9.999E+003 -9.999E+003 -9.999E+003 -9.999E+003 -9.999E+003 -9.999E+003 -9.999E+003 -9.999E+003 -9.999E+003 -9.999E+003 -9.999E+003 -9.999E+003 -9.999E+003 -9.999E+003 -9.999E+003 -9.999E+003 -9.999E+003 -9.999E+003 -9.999E+003 -9.999E+003 -9.999E+003 -9.999E+003 -9.999E+003 -9.999E+003 -9.999E+003 -9.999E+003 -9.999E+003 -9.999E+003 -9.999E+003 -9.999E+003 -9.999E+003 -9.999E+003 -9.999E+003 -9.999E+003 -9.999E+003 -9.999E+003 -9.999E+003 -9.999E+003 -9.999E+003 -9.999E+003 -9.999E+003 -9.999E+003 -9.999E+003 -9.999E+003 -9.999E+003 -9.999E+003 -9.999E+003 -9.999E+003 -9.999E+003 -9.999E+003 -9.999E+003 -9.999E+003 -9.999E+003 -9.999E+003 -9.999E+003 -9.999E+003 -9.999E+003 -9.999E+003 -9.999E+003 -9.999E+003 -9.999E+003 -9.999E+003 -9.999E+003 -9.999E+003 -9.999E+003 -9.999E+003 -9.999E+003 -9.999E+003 -9.999E+003 -9.999E+003 -9.999E+003 -9.999E+003 -9.999E+003 -9.999E+003 -9.999E+003 -9.999E+003 -9.999E+003 -9.999E+003 -9.999E+003 -9.999E+003 -9.999E+003 -9.999E+003 -9.999E+003 -9.999E+003 -9.999E+003 -9.999E+003 -9.999E+003 -9.999E+003 -9.999E+003 -9.999E+003 -9.999E+003 -9.999E+003 -9.999E+003 -9.999E+003 -9.999E+003 -9.999E+003 -9.999E+003 -9.999E+003 -9.999E+003 -9.999E+003 -9.999E+003 -9.999E+003
 -9.999E+003 -9.999E+003 -9.999E+003 -9.999E+003 -9.999E+003 -9.999E+003 -9.999E+003 -9.999E+003 -9.999E+003 -9.999E+003 -9.999E+003 -9.999E+003 -9.999E+003 -9.999E+003 -9.999E+003 -9.999E+003 -9.999E+003 -9.999E+003 -9.999E+003 -9.999E+003 -9.999E+003 -9.999E+003 -9.999E+003 -9.999E+003 -9.999E+003 -9.999E+003 -9.999E+003 -9.999E+003 -9.999E+003 -9.999E+003 -9.999E+003 -9.999E+003 -9.999E+003 -9.999E+003 -9.999E+003 -9.999E+003 -9.999E+003 -9.999E+003 -9.999E+003 -9.999E+003 -9.999E+003 -9.999E+003 -9.999E+003 -9.999E+003 -9.999E+003 -9.999E+003 -9.999E+003 -9.999E+003 -9.999E+003 -9.999E+003 -9.999E+003 -9.999E+003 -9.999E+003 -9.999E+003 -9.999E+003 -9.999E+003 -9.999E+003 -9.999E+003 -9.999E+003 -9.999E+003 -9.999E+003 -9.999E+003 -9.999E+003 -9.999E+003 -9.999E+003 -9.999E+003 -9.999E+003 -9.999E+003 -9.999E+003 -9.999E+003 -9.999E+003 -9.999E+003 -9.999E+003 -9.999E+003 -9.999E+003 -9.999E+003 -9.999E+003 -9.999E+003 -9.999E+003 -9.999E+003 -9.999E+003 -9.999E+003 -9.999E+003 -9.999E+003 -9.999E+003 -9.999E+003 -9.999E+003 -9.999E+003 -9.999E+003 -9.999E+003 -9.999E+003 -9.999E+003 -9.999E+003 -9.999E+003 -9.999E+003 -9.999E+003 -9.999E+003 -9.999E+003 -9.999E+003 -9.999E+003 -9.999E+003 -9.999E+003 -9.999E+003 -9.999E+003 -9.999E+003 -9.999E+003 -9.999E+003 -9.999E+003 -9.999E+003 -9.999E+003 -9.999E+003 -9.999E+003 -9.999E+003 -9.999E+003 -9.999E+003 -9.999E+003 -9.999E+003 -9.999E+003 -9.999E+003 -9.999E+003 -9.999E+003 -9.999E+003 -9.999E+003 -9.999E+003 -9.999E+003 -9.999E+003 -9.999E+003 -9.999E+003 -9.999E+003 -9.999E+003 -9.999E+003 -9.999E+003 -9.999E+003 -9.999E+003 -9.999E+003 -9.999E+003 -9.999E+003 -9.999E+003 -9.999E+003 -9.999E+003 -9.999E+003 -9.999E+003 -9.999E+003 -9.999E+003 -9.999E+003 -9.999E+003 -9.999E+003 -9.999E+003 -9.999E+003 -9.999E+003
 -9.999E+003 -9.999E+003 -9.999E+003 -9.999E+003 -9.999E+003 -9.999E+003 -9.999E+003 -9.999E+003 -9.999E+003 -9.999E+003 -9.999E+003 -9.999E+003 -9.999E+003 -9.999E+003 -9.999E+003 -9.999E+003 -9.999E+003 -9.999E+003 -9.999E+003 -9.999E+003 -9.999E+003 -9.999E+003 -9.999E+003 -9.999E+003 -9.999E+003 -9.999E+003 -9.999E+003 -9.999E+003 -9.999E+003 -9.999E+003 -9.999E+003 -9.999E+003 -9.999E+003 -9.999E+003 -9.999E+003 -9.999E+003 -9.999E+003 -9.999E+003 -9.999E+003 -9.999E+003 -9.999E+003 -9.999E+003 -9.999E+003 -9.999E+003 -9.999E+003 -9.999E+003 -9.999E+003 -9.999E+003 -9.999E+003 -9.999E+003 -9.999E+003 -9.999E+003 -9.999E+003 -9.999E+003 -9.999E+003 -9.999E+003 -9.999E+003 -9.999E+003 -9.999E+003 -9.999E+003 -9.999E+003 -9.999E+003 -9.999E+003 -9.999E+003 -9.999E+003 -9.999E+003 -9.999E+003 -9.999E+003 -9.999E+003 -9.999E+003 -9.999E+003 -9.999E+003 -9.999E+003 -9.999E+003 -9.999E+003 -9.999E+003 -9.999E+003 -9.999E+003 -9.999E+003 -9.999E+003 -9.999E+003 -9.999E+003 -9.999E+003 -9.999E+003 -9.999E+003 -9.999E+003 -9.999E+003 -9.999E+003 -9.999E+003 -9.999E+003 -9.999E+003 -9.999E+003 -9.999E+003 -9.999E+003 -9.999E+003 -9.999E+003 -9.999E+003 -9.999E+003 -9.999E+003 -9.999E+003 -9.999E+003 -9.999E+003 -9.999E+003 -9.999E+003 -9.999E+003 -9.999E+003 -9.999E+003 -9.999E+003 -9.999E+003 -9.999E+003 -9.999E+003 -9.999E+003 -9.999E+003 -9.999E+003 -9.999E+003 -9.999E+003 -9.999E+003 -9.999E+003 -9.999E+003 -9.999E+003 -9.999E+003 -9.999E+003 -9.999E+003 -9.999E+003 -9.999E+003 -9.999E+003 -9.999E+003 -9.999E+003 -9.999E+003 -9.999E+003 -9.999E+003 -9.999E+003 -9.999E+003 -9.999E+003 -9.999E+003 -9.999E+003 -9.999E+003 -9.999E+003 -9.999E+003 -9.999E+003 -9.999E+003 -9.999E+003 -9.999E+003 -9.999E+003 -9.999E+003 -9.999E+003 -9.999E+003 -9.999E+003 -9.999E+003 -9.999E+003
 -9.999E+003 -9.999E+003 -9.999E+003 -9.999E+003 -9.999E+003 -9.999E+003 -9.999E+003 -9.999E+003 -9.999E+003 -9.999E+003 -9.999E+003 -9.999E+003 -9.999E+003 -9.999E+003 -9.999E+003 -9.999E+003 -9.999E+003 -9.999E+003 -9.999E+003 -9.999E+003 -9.999E+003 -9.999E+003 -9.999E+003 -9.999E+003 -9.999E+003 -9.999E+003 -9.999E+003 -9.999E+003 -9.999E+003 -9.999E+003 -9.999E+003 -9.999E+003 -9.999E+003 -9.999E+003 -9.999E+003 -9.999E+003 -9.999E+003 -9.999E+003 -9.999E+003 -9.999E+003 -9.999E+003 -9.999E+003 -9.999E+003 -9.999E+003 -9.999E+003 -9.999E+003 -9.999E+003 -9.999E+003 -9.999E+003 -9.999E+003 -9.999E+003 -9.999E+003 -9.999E+003 -9.999E+003 -9.999E+003 -9.999E+003 -9.999E+003 -9.999E+003 -9.999E+003 -9.999E+003 -9.999E+003 -9.999E+003 -9.999E+003 -9.999E+003 -9.999E+003 -9.999E+003 -9.999E+003 -9.999E+003 -9.999E+003 -9.999E+003 -9.999E+003 -9.999E+003 -9.999E+003 -9.999E+003 -9.999E+003 -9.999E+003 -9.999E+003 -9.999E+003 -9.999E+003 -9.999E+003 -9.999E+003 -9.999E+003 -9.999E+003 -9.999E+003 -9.999E+003 -9.999E+003 -9.999E+003 -9.999E+003 -9.999E+003 -9.999E+003 -9.999E+003 -9.999E+003 -9.999E+003 -9.999E+003 -9.999E+003 -9.999E+003 -9.999E+003 -9.999E+003 -9.999E+003 -9.999E+003 -9.999E+003 -9.999E+003 -9.999E+003 -9.999E+003 -9.999E+003 -9.999E+003 -9.999E+003 -9.999E+003 -9.999E+003 -9.999E+003 -9.999E+003 -9.999E+003 -9.999E+003 -9.999E+003 -9.999E+003 -9.999E+003 -9.999E+003 -9.999E+003 -9.999E+003 -9.999E+003 -9.999E+003 -9.999E+003 -9.999E+003 -9.999E+003 -9.999E+003 -9.999E+003 -9.999E+003 -9.999E+003 -9.999E+003 -9.999E+003 -9.999E+003 -9.999E+003 -9.999E+003 -9.999E+003 -9.999E+003 -9.999E+003 -9.999E+003 -9.999E+003 -9.999E+003 -9.999E+003 -9.999E+003 -9.999E+003 -9.999E+003 -9.999E+003 -9.999E+003 -9.999E+003 -9.999E+003 -9.999E+003 -9.999E+003 -9.999E+003
 -9.999E+003 -9.999E+003 -9.999E+003 -9.999E+003 -9.999E+003 -9.999E+003 -9.999E+003 -9.999E+003 -9.999E+003 -9.999E+003 -9.999E+003 -9.999E+003 -9.999E+003 -9.999E+003 -9.999E+003 -9.999E+003 -9.999E+003 -9.999E+003 -9.999E+003 -9.999E+003 -9.999E+003 -9.999E+003 -9.999E+003 -9.999E+003 -9.999E+003 -9.999E+003 -9.999E+003 -9.999E+003 -9.999E+003 -9.999E+003 -9.999E+003 -9.999E+003 -9.999E+003 -9.999E+003 -9.999E+003 -9.999E+003 -9.999E+003 -9.999E+003 -9.999E+003 -9.999E+003 -9.999E+003 -9.999E+003 -9.999E+003 -9.999E+003 -9.999E+003 -9.999E+003 -9.999E+003 -9.999E+003 -9.999E+003 -9.999E+003 -9.999E+003 -9.999E+003 -9.999E+003 -9.999E+003 -9.999E+003 -9.999E+003 -9.999E+003 -9.999E+003 -9.999E+003 -9.999E+003 -9.999E+003 -9.999E+003 -9.999E+003 -9.999E+003 -9.999E+003 -9.999E+003 -9.999E+003 -9.999E+003 -9.999E+003 -9.999E+003 -9.999E+003 -9.999E+003 -9.999E+003 -9.999E+003 -9.999E+003 -9.999E+003 -9.999E+003 -9.999E+003 -9.999E+003 -9.999E+003 -9.999E+003 -9.999E+003 -9.999E+003 -9.999E+003 -9.999E+003 -9.999E+003 -9.999E+003 -9.999E+003 -9.999E+003 -9.999E+003 -9.999E+003 -9.999E+003 -9.999E+003 -9.999E+003 -9.999E+003 -9.999E+003 -9.999E+003 -9.999E+003 -9.999E+003 -9.999E+003 -9.999E+003 -9.999E+003 -9.999E+003 -9.999E+003 -9.999E+003 -9.999E+003 -9.999E+003 -9.999E+003 -9.999E+003 -9.999E+003 -9.999E+003 -9.999E+003 -9.999E+003 -9.999E+003 -9.999E+003 -9.999E+003 -9.999E+003 -9.999E+003 -9.999E+003 -9.999E+003 -9.999E+003 -9.999E+003 -9.999E+003 -9.999E+003 -9.999E+003 -9.999E+003 -9.999E+003 -9.999E+003 -9.999E+003 -9.999E+003 -9.999E+003 -9.999E+003 -9.999E+003 -9.999E+003 -9.999E+003 -9.999E+003 -9.999E+003 -9.999E+003 -9.999E+003 -9.999E+003 -9.999E+003 -9.999E+003 -9.999E+003 -9.999E+003 -9.999E+003 -9.999E+003 -9.999E+003 -9.999E+003 -9.999E+003 -9.999E+003
 -9.999E+003 -9.999E+003 -9.999E+003 -9.999E+003 -9.999E+003 -9.999E+003 -9.999E+003 -9.999E+003 -9.999E+003 -9.999E+003 -9.999E+003 -9.999E+003 -9.999E+003 -9.999E+003 -9.999E+003 -9.999E+003 -9.999E+003 -9.999E+003 -9.999E+003 -9.999E+003 -9.999E+003 -9.999E+003 -9.999E+003 -9.999E+003 -9.999E+003 -9.999E+003 -9.999E+003 -9.999E+003 -9.999E+003 -9.999E+003 -9.999E+003 -9.999E+003 -9.999E+003 -9.999E+003 -9.999E+003 -9.999E+003 -9.999E+003 -9.999E+003 -9.999E+003 -9.999E+003 -9.999E+003 -9.999E+003 -9.999E+003 -9.999E+003 -9.999E+003 -9.999E+003 -9.999E+003 -9.999E+003 -9.999E+003 -9.999E+003 -9.999E+003 -9.999E+003 -9.999E+003 -9.999E+003 -9.999E+003 -9.999E+003 -9.999E+003 -9.999E+003 -9.999E+003 -9.999E+003 -9.999E+003 -9.999E+003 -9.999E+003 -9.999E+003 -9.999E+003 -9.999E+003 -9.999E+003 -9.999E+003 -9.999E+003 -9.999E+003 -9.999E+003 -9.999E+003 -9.999E+003 -9.999E+003 -9.999E+003 -9.999E+003 -9.999E+003 -9.999E+003 -9.999E+003 -9.999E+003 -9.999E+003 -9.999E+003 -9.999E+003 -9.999E+003 -9.999E+003 -9.999E+003 -9.999E+003 -9.999E+003 -9.999E+003 -9.999E+003 -9.999E+003 -9.999E+003 -9.999E+003 -9.999E+003 -9.999E+003 -9.999E+003 -9.999E+003 -9.999E+003 -9.999E+003 -9.999E+003 -9.999E+003 -9.999E+003 -9.999E+003 -9.999E+003 -9.999E+003 -9.999E+003 -9.999E+003 -9.999E+003 -9.999E+003 -9.999E+003 -9.999E+003 -9.999E+003 -9.999E+003 -9.999E+003 -9.999E+003 -9.999E+003 -9.999E+003 -9.999E+003 -9.999E+003 -9.999E+003 -9.999E+003 -9.999E+003 -9.999E+003 -9.999E+003 -9.999E+003 -9.999E+003 -9.999E+003 -9.999E+003 -9.999E+003 -9.999E+003 -9.999E+003 -9.999E+003 -9.999E+003 -9.999E+003 -9.999E+003 -9.999E+003 -9.999E+003 -9.999E+003 -9.999E+003 -9.999E+003 -9.999E+003 -9.999E+003 -9.999E+003 -9.999E+003 -9.999E+003 -9.999E+003 -9.999E+003 -9.999E+003 -9.999E+003 -9.999E+003
 -9.999E+003 -9.999E+003 -9.999E+003 -9.999E+003 -9.999E+003 -9.999E+003 -9.999E+003 -9.999E+003 -9.999E+003 -9.999E+003 -9.999E+003 -9.999E+003 -9.999E+003 -9.999E+003 -9.999E+003 -9.999E+003 -9.999E+003 -9.999E+003 -9.999E+003 -9.999E+003 -9.999E+003 -9.999E+003 -9.999E+003 -9.999E+003 -9.999E+003 -9.999E+003 -9.999E+003 -9.999E+003 -9.999E+003 -9.999E+003 -9.999E+003 -9.999E+003 -9.999E+003 -9.999E+003 -9.999E+003 -9.999E+003 -9.999E+003 -9.999E+003 -9.999E+003 -9.999E+003 -9.999E+003 -9.999E+003 -9.999E+003 -9.999E+003 -9.999E+003 -9.999E+003 -9.999E+003 -9.999E+003 -9.999E+003 -9.999E+003 -9.999E+003 -9.999E+003 -9.999E+003 -9.999E+003 -9.999E+003 -9.999E+003 -9.999E+003 -9.999E+003 -9.999E+003 -9.999E+003 -9.999E+003 -9.999E+003 -9.999E+003 -9.999E+003 -9.999E+003 -9.999E+003 -9.999E+003 -9.999E+003 -9.999E+003 -9.999E+003 -9.999E+003 -9.999E+003 -9.999E+003 -9.999E+003 -9.999E+003 -9.999E+003 -9.999E+003 -9.999E+003 -9.999E+003 -9.999E+003 -9.999E+003 -9.999E+003 -9.999E+003 -9.999E+003 -9.999E+003 -9.999E+003 -9.999E+003 -9.999E+003 -9.999E+003 -9.999E+003 -9.999E+003 -9.999E+003 -9.999E+003 -9.999E+003 -9.999E+003 -9.999E+003 -9.999E+003 -9.999E+003 -9.999E+003 -9.999E+003 -9.999E+003 -9.999E+003 -9.999E+003 -9.999E+003 -9.999E+003 -9.999E+003 -9.999E+003 -9.999E+003 -9.999E+003 -9.999E+003 -9.999E+003 -9.999E+003 -9.999E+003 -9.999E+003 -9.999E+003 -9.999E+003 -9.999E+003 -9.999E+003 -9.999E+003 -9.999E+003 -9.999E+003 -9.999E+003 -9.999E+003 -9.999E+003 -9.999E+003 -9.999E+003 -9.999E+003 -9.999E+003 -9.999E+003 -9.999E+003 -9.999E+003 -9.999E+003 -9.999E+003 -9.999E+003 -9.999E+003 -9.999E+003 -9.999E+003 -9.999E+003 -9.999E+003 -9.999E+003 -9.999E+003 -9.999E+003 -9.999E+003 -9.999E+003 -9.999E+003 -9.999E+003 -9.999E+003 -9.999E+003 -9.999E+003 -9.999E+003
 -9.999E+003 -9.999E+003 -9.999E+003 -9.999E+003 -9.999E+003 -9.999E+003 -9.999E+003 -9.999E+003 -9.999E+003 -9.999E+003 -9.999E+003 -9.999E+003 -9.999E+003 -9.999E+003 -9.999E+003 -9.999E+003 -9.999E+003 -9.999E+003 -9.999E+003 -9.999E+003 -9.999E+003 -9.999E+003 -9.999E+003 -9.999E+003 -9.999E+003 -9.999E+003 -9.999E+003 -9.999E+003 -9.999E+003 -9.999E+003 -9.999E+003 -9.999E+003 -9.999E+003 -9.999E+003 -9.999E+003 -9.999E+003 -9.999E+003 -9.999E+003 -9.999E+003 -9.999E+003 -9.999E+003 -9.999E+003 -9.999E+003 -9.999E+003 -9.999E+003 -9.999E+003 -9.999E+003 -9.999E+003 -9.999E+003 -9.999E+003 -9.999E+003 -9.999E+003 -9.999E+003 -9.999E+003 -9.999E+003 -9.999E+003 -9.999E+003 -9.999E+003 -9.999E+003 -9.999E+003 -9.999E+003 -9.999E+003 -9.999E+003 -9.999E+003 -9.999E+003 -9.999E+003 -9.999E+003 -9.999E+003 -9.999E+003 -9.999E+003 -9.999E+003 -9.999E+003 -9.999E+003 -9.999E+003 -9.999E+003 -9.999E+003 -9.999E+003 -9.999E+003 -9.999E+003 -9.999E+003 -9.999E+003 -9.999E+003 -9.999E+003 -9.999E+003 -9.999E+003 -9.999E+003 -9.999E+003 -9.999E+003 -9.999E+003 -9.999E+003 -9.999E+003 -9.999E+003 -9.999E+003 -9.999E+003 -9.999E+003 -9.999E+003 -9.999E+003 -9.999E+003 -9.999E+003 -9.999E+003 -9.999E+003 -9.999E+003 -9.999E+003 -9.999E+003 -9.999E+003 -9.999E+003 -9.999E+003 -9.999E+003 -9.999E+003 -9.999E+003 -9.999E+003 -9.999E+003 -9.999E+003 -9.999E+003 -9.999E+003 -9.999E+003 -9.999E+003 -9.999E+003 -9.999E+003 -9.999E+003 -9.999E+003 -9.999E+003 -9.999E+003 -9.999E+003 -9.999E+003 -9.999E+003 -9.999E+003 -9.999E+003 -9.999E+003 -9.999E+003 -9.999E+003 -9.999E+003 -9.999E+003 -9.999E+003 -9.999E+003 -9.999E+003 -9.999E+003 -9.999E+003 -9.999E+003 -9.999E+003 -9.999E+003 -9.999E+003 -9.999E+003 -9.999E+003 -9.999E+003 -9.999E+003 -9.999E+003 -9.999E+003 -9.999E+003 -9.999E+003
 -9.999E+003 -9.999E+003 -9.999E+003 -9.999E+003 -9.999E+003 -9.999E+003 -9.999E+003 -9.999E+003 -9.999E+003 -9.999E+003 -9.999E+003 -9.999E+003 -9.999E+003 -9.999E+003 -9.999E+003 -9.999E+003 -9.999E+003 -9.999E+003 -9.999E+003 -9.999E+003 -9.999E+003 -9.999E+003 -9.999E+003 -9.999E+003 -9.999E+003 -9.999E+003 -9.999E+003 -9.999E+003 -9.999E+003 -9.999E+003 -9.999E+003 -9.999E+003 -9.999E+003 -9.999E+003 -9.999E+003 -9.999E+003 -9.999E+003 -9.999E+003 -9.999E+003 -9.999E+003 -9.999E+003 -9.999E+003 -9.999E+003 -9.999E+003 -9.999E+003 -9.999E+003 -9.999E+003 -9.999E+003 -9.999E+003 -9.999E+003 -9.999E+003 -9.999E+003 -9.999E+003 -9.999E+003 -9.999E+003 -9.999E+003 -9.999E+003 -9.999E+003 -9.999E+003 -9.999E+003 -9.999E+003 -9.999E+003 -9.999E+003 -9.999E+003 -9.999E+003 -9.999E+003 -9.999E+003 -9.999E+003 -9.999E+003 -9.999E+003 -9.999E+003 -9.999E+003 -9.999E+003 -9.999E+003 -9.999E+003 -9.999E+003 -9.999E+003 -9.999E+003 -9.999E+003 -9.999E+003 -9.999E+003 -9.999E+003 -9.999E+003 -9.999E+003 -9.999E+003 -9.999E+003 -9.999E+003 -9.999E+003 -9.999E+003 -9.999E+003 -9.999E+003 -9.999E+003 -9.999E+003 -9.999E+003 -9.999E+003 -9.999E+003 -9.999E+003 -9.999E+003 -9.999E+003 -9.999E+003 -9.999E+003 -9.999E+003 -9.999E+003 -9.999E+003 -9.999E+003 -9.999E+003 -9.999E+003 -9.999E+003 -9.999E+003 -9.999E+003 -9.999E+003 -9.999E+003 -9.999E+003 -9.999E+003 -9.999E+003 -9.999E+003 -9.999E+003 -9.999E+003 -9.999E+003 -9.999E+003 -9.999E+003 -9.999E+003 -9.999E+003 -9.999E+003 -9.999E+003 -9.999E+003 -9.999E+003 -9.999E+003 -9.999E+003 -9.999E+003 -9.999E+003 -9.999E+003 -9.999E+003 -9.999E+003 -9.999E+003 -9.999E+003 -9.999E+003 -9.999E+003 -9.999E+003 -9.999E+003 -9.999E+003 -9.999E+003 -9.999E+003 -9.999E+003 -9.999E+003 -9.999E+003 -9.999E+003 -9.999E+003 -9.999E+003 -9.999E+003
 -9.999E+003 -9.999E+003 -9.999E+003 -9.999E+003 -9.999E+003 -9.999E+003 -9.999E+003 -9.999E+003 -9.999E+003 -9.999E+003 -9.999E+003 -9.999E+003 -9.999E+003 -9.999E+003 -9.999E+003 -9.999E+003 -9.999E+003 -9.999E+003 -9.999E+003 -9.999E+003 -9.999E+003 -9.999E+003 -9.999E+003 -9.999E+003 -9.999E+003 -9.999E+003 -9.999E+003 -9.999E+003 -9.999E+003 -9.999E+003 -9.999E+003 -9.999E+003 -9.999E+003 -9.999E+003 -9.999E+003 -9.999E+003 -9.999E+003 -9.999E+003 -9.999E+003 -9.999E+003 -9.999E+003 -9.999E+003 -9.999E+003 -9.999E+003 -9.999E+003 -9.999E+003 -9.999E+003 -9.999E+003 -9.999E+003 -9.999E+003 -9.999E+003 -9.999E+003 -9.999E+003 -9.999E+003 -9.999E+003 -9.999E+003 -9.999E+003 -9.999E+003 -9.999E+003 -9.999E+003 -9.999E+003 -9.999E+003 -9.999E+003 -9.999E+003 -9.999E+003 -9.999E+003 -9.999E+003 -9.999E+003 -9.999E+003 -9.999E+003 -9.999E+003 -9.999E+003 -9.999E+003 -9.999E+003 -9.999E+003 -9.999E+003 -9.999E+003 -9.999E+003 -9.999E+003 -9.999E+003 -9.999E+003 -9.999E+003 -9.999E+003 -9.999E+003 -9.999E+003 -9.999E+003 -9.999E+003 -9.999E+003 -9.999E+003 -9.999E+003 -9.999E+003 -9.999E+003 -9.999E+003 -9.999E+003 -9.999E+003 -9.999E+003 -9.999E+003 -9.999E+003 -9.999E+003 -9.999E+003 -9.999E+003 -9.999E+003 -9.999E+003 -9.999E+003 -9.999E+003 -9.999E+003 -9.999E+003 -9.999E+003 -9.999E+003 -9.999E+003 -9.999E+003 -9.999E+003 -9.999E+003 -9.999E+003 -9.999E+003 -9.999E+003 -9.999E+003 -9.999E+003 -9.999E+003 -9.999E+003 -9.999E+003 -9.999E+003 -9.999E+003 -9.999E+003 -9.999E+003 -9.999E+003 -9.999E+003 -9.999E+003 -9.999E+003 -9.999E+003 -9.999E+003 -9.999E+003 -9.999E+003 -9.999E+003 -9.999E+003 -9.999E+003 -9.999E+003 -9.999E+003 -9.999E+003 -9.999E+003 -9.999E+003 -9.999E+003 -9.999E+003 -9.999E+003 -9.999E+003 -9.999E+003 -9.999E+003 -9.999E+003 -9.999E+003 -9.999E+003
 -9.999E+003 -9.999E+003 -9.999E+003 -9.999E+003 -9.999E+003 -9.999E+003 -9.999E+003 -9.999E+003 -9.999E+003 -9.999E+003 -9.999E+003 -9.999E+003 -9.999E+003 -9.999E+003 -9.999E+003 -9.999E+003 -9.999E+003 -9.999E+003 -9.999E+003 -9.999E+003 -9.999E+003 -9.999E+003 -9.999E+003 -9.999E+003 -9.999E+003 -9.999E+003 -9.999E+003 -9.999E+003 -9.999E+003 -9.999E+003 -9.999E+003 -9.999E+003 -9.999E+003 -9.999E+003 -9.999E+003 -9.999E+003 -9.999E+003 -9.999E+003 -9.999E+003 -9.999E+003 -9.999E+003 -9.999E+003 -9.999E+003 -9.999E+003 -9.999E+003 -9.999E+003 -9.999E+003 -9.999E+003 -9.999E+003 -9.999E+003 -9.999E+003 -9.999E+003 -9.999E+003 -9.999E+003 -9.999E+003 -9.999E+003 -9.999E+003 -9.999E+003 -9.999E+003 -9.999E+003 -9.999E+003 -9.999E+003 -9.999E+003 -9.999E+003 -9.999E+003 -9.999E+003 -9.999E+003 -9.999E+003 -9.999E+003 -9.999E+003 -9.999E+003 -9.999E+003 -9.999E+003 -9.999E+003 -9.999E+003 -9.999E+003 -9.999E+003 -9.999E+003 -9.999E+003 -9.999E+003 -9.999E+003 -9.999E+003 -9.999E+003 -9.999E+003 -9.999E+003 -9.999E+003 -9.999E+003 -9.999E+003 -9.999E+003 -9.999E+003 -9.999E+003 -9.999E+003 -9.999E+003 -9.999E+003 -9.999E+003 -9.999E+003 -9.999E+003 -9.999E+003 -9.999E+003 -9.999E+003 -9.999E+003 -9.999E+003 -9.999E+003 -9.999E+003 -9.999E+003 -9.999E+003 -9.999E+003 -9.999E+003 -9.999E+003 -9.999E+003 -9.999E+003 -9.999E+003 -9.999E+003 -9.999E+003 -9.999E+003 -9.999E+003 -9.999E+003 -9.999E+003 -9.999E+003 -9.999E+003 -9.999E+003 -9.999E+003 -9.999E+003 -9.999E+003 -9.999E+003 -9.999E+003 -9.999E+003 -9.999E+003 -9.999E+003 -9.999E+003 -9.999E+003 -9.999E+003 -9.999E+003 -9.999E+003 -9.999E+003 -9.999E+003 -9.999E+003 -9.999E+003 -9.999E+003 -9.999E+003 -9.999E+003 -9.999E+003 -9.999E+003 -9.999E+003 -9.999E+003 -9.999E+003 -9.999E+003 -9.999E+003 -9.999E+003 -9.999E+003
 -9.999E+003 -9.999E+003 -9.999E+003 -9.999E+003 -9.999E+003 -9.999E+003 -9.999E+003 -9.999E+003 -9.999E+003 -9.999E+003 -9.999E+003 -9.999E+003 -9.999E+003 -9.999E+003 -9.999E+003 -9.999E+003 -9.999E+003 -9.999E+003 -9.999E+003 -9.999E+003 -9.999E+003 -9.999E+003 -9.999E+003 -9.999E+003 -9.999E+003 -9.999E+003 -9.999E+003 -9.999E+003 -9.999E+003 -9.999E+003 -9.999E+003 -9.999E+003 -9.999E+003 -9.999E+003 -9.999E+003 -9.999E+003 -9.999E+003 -9.999E+003 -9.999E+003 -9.999E+003 -9.999E+003 -9.999E+003 -9.999E+003 -9.999E+003 -9.999E+003 -9.999E+003 -9.999E+003 -9.999E+003 -9.999E+003 -9.999E+003 -9.999E+003 -9.999E+003 -9.999E+003 -9.999E+003 -9.999E+003 -9.999E+003 -9.999E+003 -9.999E+003 -9.999E+003 -9.999E+003 -9.999E+003 -9.999E+003 -9.999E+003 -9.999E+003 -9.999E+003 -9.999E+003 -9.999E+003 -9.999E+003 -9.999E+003 -9.999E+003 -9.999E+003 -9.999E+003 -9.999E+003 -9.999E+003 -9.999E+003 -9.999E+003 -9.999E+003 -9.999E+003 -9.999E+003 -9.999E+003 -9.999E+003 -9.999E+003 -9.999E+003 -9.999E+003 -9.999E+003 -9.999E+003 -9.999E+003 -9.999E+003 -9.999E+003 -9.999E+003 -9.999E+003 -9.999E+003 -9.999E+003 -9.999E+003 -9.999E+003 -9.999E+003 -9.999E+003 -9.999E+003 -9.999E+003 -9.999E+003 -9.999E+003 -9.999E+003 -9.999E+003 -9.999E+003 -9.999E+003 -9.999E+003 -9.999E+003 -9.999E+003 -9.999E+003 -9.999E+003 -9.999E+003 -9.999E+003 -9.999E+003 -9.999E+003 -9.999E+003 -9.999E+003 -9.999E+003 -9.999E+003 -9.999E+003 -9.999E+003 -9.999E+003 -9.999E+003 -9.999E+003 -9.999E+003 -9.999E+003 -9.999E+003 -9.999E+003 -9.999E+003 -9.999E+003 -9.999E+003 -9.999E+003 -9.999E+003 -9.999E+003 -9.999E+003 -9.999E+003 -9.999E+003 -9.999E+003 -9.999E+003 -9.999E+003 -9.999E+003 -9.999E+003 -9.999E+003 -9.999E+003 -9.999E+003 -9.999E+003 -9.999E+003 -9.999E+003 -9.999E+003 -9.999E+003 -9.999E+003
 -9.999E+003 -9.999E+003 -9.999E+003 -9.999E+003 -9.999E+003 -9.999E+003 -9.999E+003 -9.999E+003 -9.999E+003 -9.999E+003 -9.999E+003 -9.999E+003 -9.999E+003 -9.999E+003 -9.999E+003 -9.999E+003 -9.999E+003 -9.999E+003 -9.999E+003 -9.999E+003 -9.999E+003 -9.999E+003 -9.999E+003 -9.999E+003 -9.999E+003 -9.999E+003 -9.999E+003 -9.999E+003 -9.999E+003 -9.999E+003 -9.999E+003 -9.999E+003 -9.999E+003 -9.999E+003 -9.999E+003 -9.999E+003 -9.999E+003 -9.999E+003 -9.999E+003 -9.999E+003 -9.999E+003 -9.999E+003 -9.999E+003 -9.999E+003 -9.999E+003 -9.999E+003 -9.999E+003 -9.999E+003 -9.999E+003 -9.999E+003 -9.999E+003 -9.999E+003 -9.999E+003 -9.999E+003 -9.999E+003 -9.999E+003 -9.999E+003 -9.999E+003 -9.999E+003 -9.999E+003 -9.999E+003 -9.999E+003 -9.999E+003 -9.999E+003 -9.999E+003 -9.999E+003 -9.999E+003 -9.999E+003 -9.999E+003 -9.999E+003 -9.999E+003 -9.999E+003 -9.999E+003 -9.999E+003 -9.999E+003 -9.999E+003 -9.999E+003 -9.999E+003 -9.999E+003 -9.999E+003 -9.999E+003 -9.999E+003 -9.999E+003 -9.999E+003 -9.999E+003 -9.999E+003 -9.999E+003 -9.999E+003 -9.999E+003 -9.999E+003 -9.999E+003 -9.999E+003 -9.999E+003 -9.999E+003 -9.999E+003 -9.999E+003 -9.999E+003 -9.999E+003 -9.999E+003 -9.999E+003 -9.999E+003 -9.999E+003 -9.999E+003 -9.999E+003 -9.999E+003 -9.999E+003 -9.999E+003 -9.999E+003 -9.999E+003 -9.999E+003 -9.999E+003 -9.999E+003 -9.999E+003 -9.999E+003 -9.999E+003 -9.999E+003 -9.999E+003 -9.999E+003 -9.999E+003 -9.999E+003 -9.999E+003 -9.999E+003 -9.999E+003 -9.999E+003 -9.999E+003 -9.999E+003 -9.999E+003 -9.999E+003 -9.999E+003 -9.999E+003 -9.999E+003 -9.999E+003 -9.999E+003 -9.999E+003 -9.999E+003 -9.999E+003 -9.999E+003 -9.999E+003 -9.999E+003 -9.999E+003 -9.999E+003 -9.999E+003 -9.999E+003 -9.999E+003 -9.999E+003 -9.999E+003 -9.999E+003 -9.999E+003 -9.999E+003 -9.999E+003
 -9.999E+003 -9.999E+003 -9.999E+003 -9.999E+003 -9.999E+003 -9.999E+003 -9.999E+003 -9.999E+003 -9.999E+003 -9.999E+003 -9.999E+003 -9.999E+003 -9.999E+003 -9.999E+003 -9.999E+003 -9.999E+003 -9.999E+003 -9.999E+003 -9.999E+003 -9.999E+003 -9.999E+003 -9.999E+003 -9.999E+003 -9.999E+003 -9.999E+003 -9.999E+003 -9.999E+003 -9.999E+003 -9.999E+003 -9.999E+003 -9.999E+003 -9.999E+003 -9.999E+003 -9.999E+003 -9.999E+003 -9.999E+003 -9.999E+003 -9.999E+003 -9.999E+003 -9.999E+003 -9.999E+003 -9.999E+003 -9.999E+003 -9.999E+003 -9.999E+003 -9.999E+003 -9.999E+003 -9.999E+003 -9.999E+003 -9.999E+003 -9.999E+003 -9.999E+003 -9.999E+003 -9.999E+003 -9.999E+003 -9.999E+003 -9.999E+003 -9.999E+003 -9.999E+003 -9.999E+003 -9.999E+003 -9.999E+003 -9.999E+003 -9.999E+003 -9.999E+003 -9.999E+003 -9.999E+003 -9.999E+003 -9.999E+003 -9.999E+003 -9.999E+003 -9.999E+003 -9.999E+003 -9.999E+003 -9.999E+003 -9.999E+003 -9.999E+003 -9.999E+003 -9.999E+003 -9.999E+003 -9.999E+003 -9.999E+003 -9.999E+003 -9.999E+003 -9.999E+003 -9.999E+003 -9.999E+003 -9.999E+003 -9.999E+003 -9.999E+003 -9.999E+003 -9.999E+003 -9.999E+003 -9.999E+003 -9.999E+003 -9.999E+003 -9.999E+003 -9.999E+003 -9.999E+003 -9.999E+003 -9.999E+003 -9.999E+003 -9.999E+003 -9.999E+003 -9.999E+003 -9.999E+003 -9.999E+003 -9.999E+003 -9.999E+003 -9.999E+003 -9.999E+003 -9.999E+003 -9.999E+003 -9.999E+003 -9.999E+003 -9.999E+003 -9.999E+003 -9.999E+003 -9.999E+003 -9.999E+003 -9.999E+003 -9.999E+003 -9.999E+003 -9.999E+003 -9.999E+003 -9.999E+003 -9.999E+003 -9.999E+003 -9.999E+003 -9.999E+003 -9.999E+003 -9.999E+003 -9.999E+003 -9.999E+003 -9.999E+003 -9.999E+003 -9.999E+003 -9.999E+003 -9.999E+003 -9.999E+003 -9.999E+003 -9.999E+003 -9.999E+003 -9.999E+003 -9.999E+003 -9.999E+003 -9.999E+003 -9.999E+003 -9.999E+003 -9.999E+003
 -9.999E+003 -9.999E+003 -9.999E+003 -9.999E+003 -9.999E+003 -9.999E+003 -9.999E+003 -9.999E+003 -9.999E+003 -9.999E+003 -9.999E+003 -9.999E+003 -9.999E+003 -9.999E+003 -9.999E+003 -9.999E+003 -9.999E+003 -9.999E+003 -9.999E+003 -9.999E+003 -9.999E+003 -9.999E+003 -9.999E+003 -9.999E+003 -9.999E+003 -9.999E+003 -9.999E+003 -9.999E+003 -9.999E+003 -9.999E+003 -9.999E+003 -9.999E+003 -9.999E+003 -9.999E+003 -9.999E+003 -9.999E+003 -9.999E+003 -9.999E+003 -9.999E+003 -9.999E+003 -9.999E+003 -9.999E+003 -9.999E+003 -9.999E+003 -9.999E+003 -9.999E+003 -9.999E+003 -9.999E+003 -9.999E+003 -9.999E+003 -9.999E+003 -9.999E+003 -9.999E+003 -9.999E+003 -9.999E+003 -9.999E+003 -9.999E+003 -9.999E+003 -9.999E+003 -9.999E+003 -9.999E+003 -9.999E+003 -9.999E+003 -9.999E+003 -9.999E+003 -9.999E+003 -9.999E+003 -9.999E+003 -9.999E+003 -9.999E+003 -9.999E+003 -9.999E+003 -9.999E+003 -9.999E+003 -9.999E+003 -9.999E+003 -9.999E+003 -9.999E+003 -9.999E+003 -9.999E+003 -9.999E+003 -9.999E+003 -9.999E+003 -9.999E+003 -9.999E+003 -9.999E+003 -9.999E+003 -9.999E+003 -9.999E+003 -9.999E+003 -9.999E+003 -9.999E+003 -9.999E+003 -9.999E+003 -9.999E+003 -9.999E+003 -9.999E+003 -9.999E+003 -9.999E+003 -9.999E+003 -9.999E+003 -9.999E+003 -9.999E+003 -9.999E+003 -9.999E+003 -9.999E+003 -9.999E+003 -9.999E+003 -9.999E+003 -9.999E+003 -9.999E+003 -9.999E+003 -9.999E+003 -9.999E+003 -9.999E+003 -9.999E+003 -9.999E+003 -9.999E+003 -9.999E+003 -9.999E+003 -9.999E+003 -9.999E+003 -9.999E+003 -9.999E+003 -9.999E+003 -9.999E+003 -9.999E+003 -9.999E+003 -9.999E+003 -9.999E+003 -9.999E+003 -9.999E+003 -9.999E+003 -9.999E+003 -9.999E+003 -9.999E+003 -9.999E+003 -9.999E+003 -9.999E+003 -9.999E+003 -9.999E+003 -9.999E+003 -9.999E+003 -9.999E+003 -9.999E+003 -9.999E+003 -9.999E+003 -9.999E+003 -9.999E+003 -9.999E+003
 -9.999E+003 -9.999E+003 -9.999E+003 -9.999E+003 -9.999E+003 -9.999E+003 -9.999E+003 -9.999E+003 -9.999E+003 -9.999E+003 -9.999E+003 -9.999E+003 -9.999E+003 -9.999E+003 -9.999E+003 -9.999E+003 -9.999E+003 -9.999E+003 -9.999E+003 -9.999E+003 -9.999E+003 -9.999E+003 -9.999E+003 -9.999E+003 -9.999E+003 -9.999E+003 -9.999E+003 -9.999E+003 -9.999E+003 -9.999E+003 -9.999E+003 -9.999E+003 -9.999E+003 -9.999E+003 -9.999E+003 -9.999E+003 -9.999E+003 -9.999E+003 -9.999E+003 -9.999E+003 -9.999E+003 -9.999E+003 -9.999E+003 -9.999E+003 -9.999E+003 -9.999E+003 -9.999E+003 -9.999E+003 -9.999E+003 -9.999E+003 -9.999E+003 -9.999E+003 -9.999E+003 -9.999E+003 -9.999E+003 -9.999E+003 -9.999E+003 -9.999E+003 -9.999E+003 -9.999E+003 -9.999E+003 -9.999E+003 -9.999E+003 -9.999E+003 -9.999E+003 -9.999E+003 -9.999E+003 -9.999E+003 -9.999E+003 -9.999E+003 -9.999E+003 -9.999E+003 -9.999E+003 -9.999E+003 -9.999E+003 -9.999E+003 -9.999E+003 -9.999E+003 -9.999E+003 -9.999E+003 -9.999E+003 -9.999E+003 -9.999E+003 -9.999E+003 -9.999E+003 -9.999E+003 -9.999E+003 -9.999E+003 -9.999E+003 -9.999E+003 -9.999E+003 -9.999E+003 -9.999E+003 -9.999E+003 -9.999E+003 -9.999E+003 -9.999E+003 -9.999E+003 -9.999E+003 -9.999E+003 -9.999E+003 -9.999E+003 -9.999E+003 -9.999E+003 -9.999E+003 -9.999E+003 -9.999E+003 -9.999E+003 -9.999E+003 -9.999E+003 -9.999E+003 -9.999E+003 -9.999E+003 -9.999E+003 -9.999E+003 -9.999E+003 -9.999E+003 -9.999E+003 -9.999E+003 -9.999E+003 -9.999E+003 -9.999E+003 -9.999E+003 -9.999E+003 -9.999E+003 -9.999E+003 -9.999E+003 -9.999E+003 -9.999E+003 -9.999E+003 -9.999E+003 -9.999E+003 -9.999E+003 -9.999E+003 -9.999E+003 -9.999E+003 -9.999E+003 -9.999E+003 -9.999E+003 -9.999E+003 -9.999E+003 -9.999E+003 -9.999E+003 -9.999E+003 -9.999E+003 -9.999E+003 -9.999E+003 -9.999E+003 -9.999E+003 -9.999E+003
 -9.999E+003 -9.999E+003 -9.999E+003 -9.999E+003 -9.999E+003 -9.999E+003 -9.999E+003 -9.999E+003 -9.999E+003 -9.999E+003 -9.999E+003 -9.999E+003 -9.999E+003 -9.999E+003 -9.999E+003 -9.999E+003 -9.999E+003 -9.999E+003 -9.999E+003 -9.999E+003 -9.999E+003 -9.999E+003 -9.999E+003 -9.999E+003 -9.999E+003 -9.999E+003 -9.999E+003 -9.999E+003 -9.999E+003 -9.999E+003 -9.999E+003 -9.999E+003 -9.999E+003 -9.999E+003 -9.999E+003 -9.999E+003 -9.999E+003 -9.999E+003 -9.999E+003 -9.999E+003 -9.999E+003 -9.999E+003 -9.999E+003 -9.999E+003 -9.999E+003 -9.999E+003 -9.999E+003 -9.999E+003 -9.999E+003 -9.999E+003 -9.999E+003 -9.999E+003 -9.999E+003 -9.999E+003 -9.999E+003 -9.999E+003 -9.999E+003 -9.999E+003 -9.999E+003 -9.999E+003 -9.999E+003 -9.999E+003 -9.999E+003 -9.999E+003 -9.999E+003 -9.999E+003 -9.999E+003 -9.999E+003 -9.999E+003 -9.999E+003 -9.999E+003 -9.999E+003 -9.999E+003 -9.999E+003 -9.999E+003 -9.999E+003 -9.999E+003 -9.999E+003 -9.999E+003 -9.999E+003 -9.999E+003 -9.999E+003 -9.999E+003 -9.999E+003 -9.999E+003 -9.999E+003 -9.999E+003 -9.999E+003 -9.999E+003 -9.999E+003 -9.999E+003 -9.999E+003 -9.999E+003 -9.999E+003 -9.999E+003 -9.999E+003 -9.999E+003 -9.999E+003 -9.999E+003 -9.999E+003 -9.999E+003 -9.999E+003 -9.999E+003 -9.999E+003 -9.999E+003 -9.999E+003 -9.999E+003 -9.999E+003 -9.999E+003 -9.999E+003 -9.999E+003 -9.999E+003 -9.999E+003 -9.999E+003 -9.999E+003 -9.999E+003 -9.999E+003 -9.999E+003 -9.999E+003 -9.999E+003 -9.999E+003 -9.999E+003 -9.999E+003 -9.999E+003 -9.999E+003 -9.999E+003 -9.999E+003 -9.999E+003 -9.999E+003 -9.999E+003 -9.999E+003 -9.999E+003 -9.999E+003 -9.999E+003 -9.999E+003 -9.999E+003 -9.999E+003 -9.999E+003 -9.999E+003 -9.999E+003 -9.999E+003 -9.999E+003 -9.999E+003 -9.999E+003 -9.999E+003 -9.999E+003 -9.999E+003 -9.999E+003 -9.999E+003 -9.999E+003
 -9.999E+003 -9.999E+003 -9.999E+003 -9.999E+003 -9.999E+003 -9.999E+003 -9.999E+003 -9.999E+003 -9.999E+003 -9.999E+003 -9.999E+003 -9.999E+003 -9.999E+003 -9.999E+003 -9.999E+003 -9.999E+003 -9.999E+003 -9.999E+003 -9.999E+003 -9.999E+003 -9.999E+003 -9.999E+003 -9.999E+003 -9.999E+003 -9.999E+003 -9.999E+003 -9.999E+003 -9.999E+003 -9.999E+003 -9.999E+003 -9.999E+003 -9.999E+003 -9.999E+003 -9.999E+003 -9.999E+003 -9.999E+003 -9.999E+003 -9.999E+003 -9.999E+003 -9.999E+003 -9.999E+003 -9.999E+003 -9.999E+003 -9.999E+003 -9.999E+003 -9.999E+003 -9.999E+003 -9.999E+003 -9.999E+003 -9.999E+003 -9.999E+003 -9.999E+003 -9.999E+003 -9.999E+003 -9.999E+003 -9.999E+003 -9.999E+003 -9.999E+003 -9.999E+003 -9.999E+003 -9.999E+003 -9.999E+003 -9.999E+003 -9.999E+003 -9.999E+003 -9.999E+003 -9.999E+003 -9.999E+003 -9.999E+003 -9.999E+003 -9.999E+003 -9.999E+003 -9.999E+003 -9.999E+003 -9.999E+003 -9.999E+003 -9.999E+003 -9.999E+003 -9.999E+003 -9.999E+003 -9.999E+003 -9.999E+003 -9.999E+003 -9.999E+003 -9.999E+003 -9.999E+003 -9.999E+003 -9.999E+003 -9.999E+003 -9.999E+003 -9.999E+003 -9.999E+003 -9.999E+003 -9.999E+003 -9.999E+003 -9.999E+003 -9.999E+003 -9.999E+003 -9.999E+003 -9.999E+003 -9.999E+003 -9.999E+003 -9.999E+003 -9.999E+003 -9.999E+003 -9.999E+003 -9.999E+003 -9.999E+003 -9.999E+003 -9.999E+003 -9.999E+003 -9.999E+003 -9.999E+003 -9.999E+003 -9.999E+003 -9.999E+003 -9.999E+003 -9.999E+003 -9.999E+003 -9.999E+003 -9.999E+003 -9.999E+003 -9.999E+003 -9.999E+003 -9.999E+003 -9.999E+003 -9.999E+003 -9.999E+003 -9.999E+003 -9.999E+003 -9.999E+003 -9.999E+003 -9.999E+003 -9.999E+003 -9.999E+003 -9.999E+003 -9.999E+003 -9.999E+003 -9.999E+003 -9.999E+003 -9.999E+003 -9.999E+003 -9.999E+003 -9.999E+003 -9.999E+003 -9.999E+003 -9.999E+003 -9.999E+003 -9.999E+003 -9.999E+003
 -9.999E+003 -9.999E+003 -9.999E+003 -9.999E+003 -9.999E+003 -9.999E+003 -9.999E+003 -9.999E+003 -9.999E+003 -9.999E+003 -9.999E+003 -9.999E+003 -9.999E+003 -9.999E+003 -9.999E+003 -9.999E+003 -9.999E+003 -9.999E+003 -9.999E+003 -9.999E+003 -9.999E+003 -9.999E+003 -9.999E+003 -9.999E+003 -9.999E+003 -9.999E+003 -9.999E+003 -9.999E+003 -9.999E+003 -9.999E+003 -9.999E+003 -9.999E+003 -9.999E+003 -9.999E+003 -9.999E+003 -9.999E+003 -9.999E+003 -9.999E+003 -9.999E+003 -9.999E+003 -9.999E+003 -9.999E+003 -9.999E+003 -9.999E+003 -9.999E+003 -9.999E+003 -9.999E+003 -9.999E+003 -9.999E+003 -9.999E+003 -9.999E+003 -9.999E+003 -9.999E+003 -9.999E+003 -9.999E+003 -9.999E+003 -9.999E+003 -9.999E+003 -9.999E+003 -9.999E+003 -9.999E+003 -9.999E+003 -9.999E+003 -9.999E+003 -9.999E+003 -9.999E+003 -9.999E+003 -9.999E+003 -9.999E+003 -9.999E+003 -9.999E+003 -9.999E+003 -9.999E+003 -9.999E+003 -9.999E+003 -9.999E+003 -9.999E+003 -9.999E+003 -9.999E+003 -9.999E+003 -9.999E+003 -9.999E+003 -9.999E+003 -9.999E+003 -9.999E+003 -9.999E+003 -9.999E+003 -9.999E+003 -9.999E+003 -9.999E+003 -9.999E+003 -9.999E+003 -9.999E+003 -9.999E+003 -9.999E+003 -9.999E+003 -9.999E+003 -9.999E+003 -9.999E+003 -9.999E+003 -9.999E+003 -9.999E+003 -9.999E+003 -9.999E+003 -9.999E+003 -9.999E+003 -9.999E+003 -9.999E+003 -9.999E+003 -9.999E+003 -9.999E+003 -9.999E+003 -9.999E+003 -9.999E+003 -9.999E+003 -9.999E+003 -9.999E+003 -9.999E+003 -9.999E+003 -9.999E+003 -9.999E+003 -9.999E+003 -9.999E+003 -9.999E+003 -9.999E+003 -9.999E+003 -9.999E+003 -9.999E+003 -9.999E+003 -9.999E+003 -9.999E+003 -9.999E+003 -9.999E+003 -9.999E+003 -9.999E+003 -9.999E+003 -9.999E+003 -9.999E+003 -9.999E+003 -9.999E+003 -9.999E+003 -9.999E+003 -9.999E+003 -9.999E+003 -9.999E+003 -9.999E+003 -9.999E+003 -9.999E+003 -9.999E+003 -9.999E+003
 -9.999E+003 -9.999E+003 -9.999E+003 -9.999E+003 -9.999E+003 -9.999E+003 -9.999E+003 -9.999E+003 -9.999E+003 -9.999E+003 -9.999E+003 -9.999E+003 -9.999E+003 -9.999E+003 -9.999E+003 -9.999E+003 -9.999E+003 -9.999E+003 -9.999E+003 -9.999E+003 -9.999E+003 -9.999E+003 -9.999E+003 -9.999E+003 -9.999E+003 -9.999E+003 -9.999E+003 -9.999E+003 -9.999E+003 -9.999E+003 -9.999E+003 -9.999E+003 -9.999E+003 -9.999E+003 -9.999E+003 -9.999E+003 -9.999E+003 -9.999E+003 -9.999E+003 -9.999E+003 -9.999E+003 -9.999E+003 -9.999E+003 -9.999E+003 -9.999E+003 -9.999E+003 -9.999E+003 -9.999E+003 -9.999E+003 -9.999E+003 -9.999E+003 -9.999E+003 -9.999E+003 -9.999E+003 -9.999E+003 -9.999E+003 -9.999E+003 -9.999E+003 -9.999E+003 -9.999E+003 -9.999E+003 -9.999E+003 -9.999E+003 -9.999E+003 -9.999E+003 -9.999E+003 -9.999E+003 -9.999E+003 -9.999E+003 -9.999E+003 -9.999E+003 -9.999E+003 -9.999E+003 -9.999E+003 -9.999E+003 -9.999E+003 -9.999E+003 -9.999E+003 -9.999E+003 -9.999E+003 -9.999E+003 -9.999E+003 -9.999E+003 -9.999E+003 -9.999E+003 -9.999E+003 -9.999E+003 -9.999E+003 -9.999E+003 -9.999E+003 -9.999E+003 -9.999E+003 -9.999E+003 -9.999E+003 -9.999E+003 -9.999E+003 -9.999E+003 -9.999E+003 -9.999E+003 -9.999E+003 -9.999E+003 -9.999E+003 -9.999E+003 -9.999E+003 -9.999E+003 -9.999E+003 -9.999E+003 -9.999E+003 -9.999E+003 -9.999E+003 -9.999E+003 -9.999E+003 -9.999E+003 -9.999E+003 -9.999E+003 -9.999E+003 -9.999E+003 -9.999E+003 -9.999E+003 -9.999E+003 -9.999E+003 -9.999E+003 -9.999E+003 -9.999E+003 -9.999E+003 -9.999E+003 -9.999E+003 -9.999E+003 -9.999E+003 -9.999E+003 -9.999E+003 -9.999E+003 -9.999E+003 -9.999E+003 -9.999E+003 -9.999E+003 -9.999E+003 -9.999E+003 -9.999E+003 -9.999E+003 -9.999E+003 -9.999E+003 -9.999E+003 -9.999E+003 -9.999E+003 -9.999E+003 -9.999E+003 -9.999E+003 -9.999E+003 -9.999E+003
 -9.999E+003 -9.999E+003 -9.999E+003 -9.999E+003 -9.999E+003 -9.999E+003 -9.999E+003 -9.999E+003 -9.999E+003 -9.999E+003 -9.999E+003 -9.999E+003 -9.999E+003 -9.999E+003 -9.999E+003 -9.999E+003 -9.999E+003 -9.999E+003 -9.999E+003 -9.999E+003 -9.999E+003 -9.999E+003 -9.999E+003 -9.999E+003 -9.999E+003 -9.999E+003 -9.999E+003 -9.999E+003 -9.999E+003 -9.999E+003 -9.999E+003 -9.999E+003 -9.999E+003 -9.999E+003 -9.999E+003 -9.999E+003 -9.999E+003 -9.999E+003 -9.999E+003 -9.999E+003 -9.999E+003 -9.999E+003 -9.999E+003 -9.999E+003 -9.999E+003 -9.999E+003 -9.999E+003 -9.999E+003 -9.999E+003 -9.999E+003 -9.999E+003 -9.999E+003 -9.999E+003 -9.999E+003 -9.999E+003 -9.999E+003 -9.999E+003 -9.999E+003 -9.999E+003 -9.999E+003 -9.999E+003 -9.999E+003 -9.999E+003 -9.999E+003 -9.999E+003 -9.999E+003 -9.999E+003 -9.999E+003 -9.999E+003 -9.999E+003 -9.999E+003 -9.999E+003 -9.999E+003 -9.999E+003 -9.999E+003 -9.999E+003 -9.999E+003 -9.999E+003 -9.999E+003 -9.999E+003 -9.999E+003 -9.999E+003 -9.999E+003 -9.999E+003 -9.999E+003 -9.999E+003 -9.999E+003 -9.999E+003 -9.999E+003 -9.999E+003 -9.999E+003 -9.999E+003 -9.999E+003 -9.999E+003 -9.999E+003 -9.999E+003 -9.999E+003 -9.999E+003 -9.999E+003 -9.999E+003 -9.999E+003 -9.999E+003 -9.999E+003 -9.999E+003 -9.999E+003 -9.999E+003 -9.999E+003 -9.999E+003 -9.999E+003 -9.999E+003 -9.999E+003 -9.999E+003 -9.999E+003 -9.999E+003 -9.999E+003 -9.999E+003 -9.999E+003 -9.999E+003 -9.999E+003 -9.999E+003 -9.999E+003 -9.999E+003 -9.999E+003 -9.999E+003 -9.999E+003 -9.999E+003 -9.999E+003 -9.999E+003 -9.999E+003 -9.999E+003 -9.999E+003 -9.999E+003 -9.999E+003 -9.999E+003 -9.999E+003 -9.999E+003 -9.999E+003 -9.999E+003 -9.999E+003 -9.999E+003 -9.999E+003 -9.999E+003 -9.999E+003 -9.999E+003 -9.999E+003 -9.999E+003 -9.999E+003 -9.999E+003 -9.999E+003 -9.999E+003
 -9.999E+003 -9.999E+003 -9.999E+003 -9.999E+003 -9.999E+003 -9.999E+003 -9.999E+003 -9.999E+003 -9.999E+003 -9.999E+003 -9.999E+003 -9.999E+003 -9.999E+003 -9.999E+003 -9.999E+003 -9.999E+003 -9.999E+003 -9.999E+003 -9.999E+003 -9.999E+003 -9.999E+003 -9.999E+003 -9.999E+003 -9.999E+003 -9.999E+003 -9.999E+003 -9.999E+003 -9.999E+003 -9.999E+003 -9.999E+003 -9.999E+003 -9.999E+003 -9.999E+003 -9.999E+003 -9.999E+003 -9.999E+003 -9.999E+003 -9.999E+003 -9.999E+003 -9.999E+003 -9.999E+003 -9.999E+003 -9.999E+003 -9.999E+003 -9.999E+003 -9.999E+003 -9.999E+003 -9.999E+003 -9.999E+003 -9.999E+003 -9.999E+003 -9.999E+003 -9.999E+003 -9.999E+003 -9.999E+003 -9.999E+003 -9.999E+003 -9.999E+003 -9.999E+003 -9.999E+003 -9.999E+003 -9.999E+003 -9.999E+003 -9.999E+003 -9.999E+003 -9.999E+003 -9.999E+003 -9.999E+003 -9.999E+003 -9.999E+003 -9.999E+003 -9.999E+003 -9.999E+003 -9.999E+003 -9.999E+003 -9.999E+003 -9.999E+003 -9.999E+003 -9.999E+003 -9.999E+003 -9.999E+003 -9.999E+003 -9.999E+003 -9.999E+003 -9.999E+003 -9.999E+003 -9.999E+003 -9.999E+003 -9.999E+003 -9.999E+003 -9.999E+003 -9.999E+003 -9.999E+003 -9.999E+003 -9.999E+003 -9.999E+003 -9.999E+003 -9.999E+003 -9.999E+003 -9.999E+003 -9.999E+003 -9.999E+003 -9.999E+003 -9.999E+003 -9.999E+003 -9.999E+003 -9.999E+003 -9.999E+003 -9.999E+003 -9.999E+003 -9.999E+003 -9.999E+003 -9.999E+003 -9.999E+003 -9.999E+003 -9.999E+003 -9.999E+003 -9.999E+003 -9.999E+003 -9.999E+003 -9.999E+003 -9.999E+003 -9.999E+003 -9.999E+003 -9.999E+003 -9.999E+003 -9.999E+003 -9.999E+003 -9.999E+003 -9.999E+003 -9.999E+003 -9.999E+003 -9.999E+003 -9.999E+003 -9.999E+003 -9.999E+003 -9.999E+003 -9.999E+003 -9.999E+003 -9.999E+003 -9.999E+003 -9.999E+003 -9.999E+003 -9.999E+003 -9.999E+003 -9.999E+003 -9.999E+003 -9.999E+003 -9.999E+003 -9.999E+003
 -9.999E+003 -9.999E+003 -9.999E+003 -9.999E+003 -9.999E+003 -9.999E+003 -9.999E+003 -9.999E+003 -9.999E+003 -9.999E+003 -9.999E+003 -9.999E+003 -9.999E+003 -9.999E+003 -9.999E+003 -9.999E+003 -9.999E+003 -9.999E+003 -9.999E+003 -9.999E+003 -9.999E+003 -9.999E+003 -9.999E+003 -9.999E+003 -9.999E+003 -9.999E+003 -9.999E+003 -9.999E+003 -9.999E+003 -9.999E+003 -9.999E+003 -9.999E+003 -9.999E+003 -9.999E+003 -9.999E+003 -9.999E+003 -9.999E+003 -9.999E+003 -9.999E+003 -9.999E+003 -9.999E+003 -9.999E+003 -9.999E+003 -9.999E+003 -9.999E+003 -9.999E+003 -9.999E+003 -9.999E+003 -9.999E+003 -9.999E+003 -9.999E+003 -9.999E+003 -9.999E+003 -9.999E+003 -9.999E+003 -9.999E+003 -9.999E+003 -9.999E+003 -9.999E+003 -9.999E+003 -9.999E+003 -9.999E+003 -9.999E+003 -9.999E+003 -9.999E+003 -9.999E+003 -9.999E+003 -9.999E+003 -9.999E+003 -9.999E+003 -9.999E+003 -9.999E+003 -9.999E+003 -9.999E+003 -9.999E+003 -9.999E+003 -9.999E+003 -9.999E+003 -9.999E+003 -9.999E+003 -9.999E+003 -9.999E+003 -9.999E+003 -9.999E+003 -9.999E+003 -9.999E+003 -9.999E+003 -9.999E+003 -9.999E+003 -9.999E+003 -9.999E+003 -9.999E+003 -9.999E+003 -9.999E+003 -9.999E+003 -9.999E+003 -9.999E+003 -9.999E+003 -9.999E+003 -9.999E+003 -9.999E+003 -9.999E+003 -9.999E+003 -9.999E+003 -9.999E+003 -9.999E+003 -9.999E+003 -9.999E+003 -9.999E+003 -9.999E+003 -9.999E+003 -9.999E+003 -9.999E+003 -9.999E+003 -9.999E+003 -9.999E+003 -9.999E+003 -9.999E+003 -9.999E+003 -9.999E+003 -9.999E+003 -9.999E+003 -9.999E+003 -9.999E+003 -9.999E+003 -9.999E+003 -9.999E+003 -9.999E+003 -9.999E+003 -9.999E+003 -9.999E+003 -9.999E+003 -9.999E+003 -9.999E+003 -9.999E+003 -9.999E+003 -9.999E+003 -9.999E+003 -9.999E+003 -9.999E+003 -9.999E+003 -9.999E+003 -9.999E+003 -9.999E+003 -9.999E+003 -9.999E+003 -9.999E+003 -9.999E+003 -9.999E+003 -9.999E+003
 -9.999E+003 -9.999E+003 -9.999E+003 -9.999E+003 -9.999E+003 -9.999E+003 -9.999E+003 -9.999E+003 -9.999E+003 -9.999E+003 -9.999E+003 -9.999E+003 -9.999E+003 -9.999E+003 -9.999E+003 -9.999E+003 -9.999E+003 -9.999E+003 -9.999E+003 -9.999E+003 -9.999E+003 -9.999E+003 -9.999E+003 -9.999E+003 -9.999E+003 -9.999E+003 -9.999E+003 -9.999E+003 -9.999E+003 -9.999E+003 -9.999E+003 -9.999E+003 -9.999E+003 -9.999E+003 -9.999E+003 -9.999E+003 -9.999E+003 -9.999E+003 -9.999E+003 -9.999E+003 -9.999E+003 -9.999E+003 -9.999E+003 -9.999E+003 -9.999E+003 -9.999E+003 -9.999E+003 -9.999E+003 -9.999E+003 -9.999E+003 -9.999E+003 -9.999E+003 -9.999E+003 -9.999E+003 -9.999E+003 -9.999E+003 -9.999E+003 -9.999E+003 -9.999E+003 -9.999E+003 -9.999E+003 -9.999E+003 -9.999E+003 -9.999E+003 -9.999E+003 -9.999E+003 -9.999E+003 -9.999E+003 -9.999E+003 -9.999E+003 -9.999E+003 -9.999E+003 -9.999E+003 -9.999E+003 -9.999E+003 -9.999E+003 -9.999E+003 -9.999E+003 -9.999E+003 -9.999E+003 -9.999E+003 -9.999E+003 -9.999E+003 -9.999E+003 -9.999E+003 -9.999E+003 -9.999E+003 -9.999E+003 -9.999E+003 -9.999E+003 -9.999E+003 -9.999E+003 -9.999E+003 -9.999E+003 -9.999E+003 -9.999E+003 -9.999E+003 -9.999E+003 -9.999E+003 -9.999E+003 -9.999E+003 -9.999E+003 -9.999E+003 -9.999E+003 -9.999E+003 -9.999E+003 -9.999E+003 -9.999E+003 -9.999E+003 -9.999E+003 -9.999E+003 -9.999E+003 -9.999E+003 -9.999E+003 -9.999E+003 -9.999E+003 -9.999E+003 -9.999E+003 -9.999E+003 -9.999E+003 -9.999E+003 -9.999E+003 -9.999E+003 -9.999E+003 -9.999E+003 -9.999E+003 -9.999E+003 -9.999E+003 -9.999E+003 -9.999E+003 -9.999E+003 -9.999E+003 -9.999E+003 -9.999E+003 -9.999E+003 -9.999E+003 -9.999E+003 -9.999E+003 -9.999E+003 -9.999E+003 -9.999E+003 -9.999E+003 -9.999E+003 -9.999E+003 -9.999E+003 -9.999E+003 -9.999E+003 -9.999E+003 -9.999E+003 -9.999E+003
 -9.999E+003 -9.999E+003 -9.999E+003 -9.999E+003 -9.999E+003 -9.999E+003 -9.999E+003 -9.999E+003 -9.999E+003 -9.999E+003 -9.999E+003 -9.999E+003 -9.999E+003 -9.999E+003 -9.999E+003 -9.999E+003 -9.999E+003 -9.999E+003 -9.999E+003 -9.999E+003 -9.999E+003 -9.999E+003 -9.999E+003 -9.999E+003 -9.999E+003 -9.999E+003 -9.999E+003 -9.999E+003 -9.999E+003 -9.999E+003 -9.999E+003 -9.999E+003 -9.999E+003 -9.999E+003 -9.999E+003 -9.999E+003 -9.999E+003 -9.999E+003 -9.999E+003 -9.999E+003 -9.999E+003 -9.999E+003 -9.999E+003 -9.999E+003 -9.999E+003 -9.999E+003 -9.999E+003 -9.999E+003 -9.999E+003 -9.999E+003 -9.999E+003 -9.999E+003 -9.999E+003 -9.999E+003 -9.999E+003 -9.999E+003 -9.999E+003 -9.999E+003 -9.999E+003 -9.999E+003 -9.999E+003 -9.999E+003 -9.999E+003 -9.999E+003 -9.999E+003 -9.999E+003 -9.999E+003 -9.999E+003 -9.999E+003 -9.999E+003 -9.999E+003 -9.999E+003 -9.999E+003 -9.999E+003 -9.999E+003 -9.999E+003 -9.999E+003 -9.999E+003 -9.999E+003 -9.999E+003 -9.999E+003 -9.999E+003 -9.999E+003 -9.999E+003 -9.999E+003 -9.999E+003 -9.999E+003 -9.999E+003 -9.999E+003 -9.999E+003 -9.999E+003 -9.999E+003 -9.999E+003 -9.999E+003 -9.999E+003 -9.999E+003 -9.999E+003 -9.999E+003 -9.999E+003 -9.999E+003 -9.999E+003 -9.999E+003 -9.999E+003 -9.999E+003 -9.999E+003 -9.999E+003 -9.999E+003 -9.999E+003 -9.999E+003 -9.999E+003 -9.999E+003 -9.999E+003 -9.999E+003 -9.999E+003 -9.999E+003 -9.999E+003 -9.999E+003 -9.999E+003 -9.999E+003 -9.999E+003 -9.999E+003 -9.999E+003 -9.999E+003 -9.999E+003 -9.999E+003 -9.999E+003 -9.999E+003 -9.999E+003 -9.999E+003 -9.999E+003 -9.999E+003 -9.999E+003 -9.999E+003 -9.999E+003 -9.999E+003 -9.999E+003 -9.999E+003 -9.999E+003 -9.999E+003 -9.999E+003 -9.999E+003 -9.999E+003 -9.999E+003 -9.999E+003 -9.999E+003 -9.999E+003 -9.999E+003 -9.999E+003 -9.999E+003 -9.999E+003
 -9.999E+003 -9.999E+003 -9.999E+003 -9.999E+003 -9.999E+003 -9.999E+003 -9.999E+003 -9.999E+003 -9.999E+003 -9.999E+003 -9.999E+003 -9.999E+003 -9.999E+003 -9.999E+003 -9.999E+003 -9.999E+003 -9.999E+003 -9.999E+003 -9.999E+003 -9.999E+003 -9.999E+003 -9.999E+003 -9.999E+003 -9.999E+003 -9.999E+003 -9.999E+003 -9.999E+003 -9.999E+003 -9.999E+003 -9.999E+003 -9.999E+003 -9.999E+003 -9.999E+003 -9.999E+003 -9.999E+003 -9.999E+003 -9.999E+003 -9.999E+003 -9.999E+003 -9.999E+003 -9.999E+003 -9.999E+003 -9.999E+003 -9.999E+003 -9.999E+003 -9.999E+003 -9.999E+003 -9.999E+003 -9.999E+003 -9.999E+003 -9.999E+003 -9.999E+003 -9.999E+003 -9.999E+003 -9.999E+003 -9.999E+003 -9.999E+003 -9.999E+003 -9.999E+003 -9.999E+003 -9.999E+003 -9.999E+003 -9.999E+003 -9.999E+003 -9.999E+003 -9.999E+003 -9.999E+003 -9.999E+003 -9.999E+003 -9.999E+003 -9.999E+003 -9.999E+003 -9.999E+003 -9.999E+003 -9.999E+003 -9.999E+003 -9.999E+003 -9.999E+003 -9.999E+003 -9.999E+003 -9.999E+003 -9.999E+003 -9.999E+003 -9.999E+003 -9.999E+003 -9.999E+003 -9.999E+003 -9.999E+003 -9.999E+003 -9.999E+003 -9.999E+003 -9.999E+003 -9.999E+003 -9.999E+003 -9.999E+003 -9.999E+003 -9.999E+003 -9.999E+003 -9.999E+003 -9.999E+003 -9.999E+003 -9.999E+003 -9.999E+003 -9.999E+003 -9.999E+003 -9.999E+003 -9.999E+003 -9.999E+003 -9.999E+003 -9.999E+003 -9.999E+003 -9.999E+003 -9.999E+003 -9.999E+003 -9.999E+003 -9.999E+003 -9.999E+003 -9.999E+003 -9.999E+003 -9.999E+003 -9.999E+003 -9.999E+003 -9.999E+003 -9.999E+003 -9.999E+003 -9.999E+003 -9.999E+003 -9.999E+003 -9.999E+003 -9.999E+003 -9.999E+003 -9.999E+003 -9.999E+003 -9.999E+003 -9.999E+003 -9.999E+003 -9.999E+003 -9.999E+003 -9.999E+003 -9.999E+003 -9.999E+003 -9.999E+003 -9.999E+003 -9.999E+003 -9.999E+003 -9.999E+003 -9.999E+003 -9.999E+003 -9.999E+003 -9.999E+003
 -9.999E+003 -9.999E+003 -9.999E+003 -9.999E+003 -9.999E+003 -9.999E+003 -9.999E+003 -9.999E+003 -9.999E+003 -9.999E+003 -9.999E+003 -9.999E+003 -9.999E+003 -9.999E+003 -9.999E+003 -9.999E+003 -9.999E+003 -9.999E+003 -9.999E+003 -9.999E+003 -9.999E+003 -9.999E+003 -9.999E+003 -9.999E+003 -9.999E+003 -9.999E+003 -9.999E+003 -9.999E+003 -9.999E+003 -9.999E+003 -9.999E+003 -9.999E+003 -9.999E+003 -9.999E+003 -9.999E+003 -9.999E+003 -9.999E+003 -9.999E+003 -9.999E+003 -9.999E+003 -9.999E+003 -9.999E+003 -9.999E+003 -9.999E+003 -9.999E+003 -9.999E+003 -9.999E+003 -9.999E+003 -9.999E+003 -9.999E+003 -9.999E+003 -9.999E+003 -9.999E+003 -9.999E+003 -9.999E+003 -9.999E+003 -9.999E+003 -9.999E+003 -9.999E+003 -9.999E+003 -9.999E+003 -9.999E+003 -9.999E+003 -9.999E+003 -9.999E+003 -9.999E+003 -9.999E+003 -9.999E+003 -9.999E+003 -9.999E+003 -9.999E+003 -9.999E+003 -9.999E+003 -9.999E+003 -9.999E+003 -9.999E+003 -9.999E+003 -9.999E+003 -9.999E+003 -9.999E+003 -9.999E+003 -9.999E+003 -9.999E+003 -9.999E+003 -9.999E+003 -9.999E+003 -9.999E+003 -9.999E+003 -9.999E+003 -9.999E+003 -9.999E+003 -9.999E+003 -9.999E+003 -9.999E+003 -9.999E+003 -9.999E+003 -9.999E+003 -9.999E+003 -9.999E+003 -9.999E+003 -9.999E+003 -9.999E+003 -9.999E+003 -9.999E+003 -9.999E+003 -9.999E+003 -9.999E+003 -9.999E+003 -9.999E+003 -9.999E+003 -9.999E+003 -9.999E+003 -9.999E+003 -9.999E+003 -9.999E+003 -9.999E+003 -9.999E+003 -9.999E+003 -9.999E+003 -9.999E+003 -9.999E+003 -9.999E+003 -9.999E+003 -9.999E+003 -9.999E+003 -9.999E+003 -9.999E+003 -9.999E+003 -9.999E+003 -9.999E+003 -9.999E+003 -9.999E+003 -9.999E+003 -9.999E+003 -9.999E+003 -9.999E+003 -9.999E+003 -9.999E+003 -9.999E+003 -9.999E+003 -9.999E+003 -9.999E+003 -9.999E+003 -9.999E+003 -9.999E+003 -9.999E+003 -9.999E+003 -9.999E+003 -9.999E+003 -9.999E+003
 -9.999E+003 -9.999E+003 -9.999E+003 -9.999E+003 -9.999E+003 -9.999E+003 -9.999E+003 -9.999E+003 -9.999E+003 -9.999E+003 -9.999E+003 -9.999E+003 -9.999E+003 -9.999E+003 -9.999E+003 -9.999E+003 -9.999E+003 -9.999E+003 -9.999E+003 -9.999E+003 -9.999E+003 -9.999E+003 -9.999E+003 -9.999E+003 -9.999E+003 -9.999E+003 -9.999E+003 -9.999E+003 -9.999E+003 -9.999E+003 -9.999E+003 -9.999E+003 -9.999E+003 -9.999E+003 -9.999E+003 -9.999E+003 -9.999E+003 -9.999E+003 -9.999E+003 -9.999E+003 -9.999E+003 -9.999E+003 -9.999E+003 -9.999E+003 -9.999E+003 -9.999E+003 -9.999E+003 -9.999E+003 -9.999E+003 -9.999E+003 -9.999E+003 -9.999E+003 -9.999E+003 -9.999E+003 -9.999E+003 -9.999E+003 -9.999E+003 -9.999E+003 -9.999E+003 -9.999E+003 -9.999E+003 -9.999E+003 -9.999E+003 -9.999E+003 -9.999E+003 -9.999E+003 -9.999E+003 -9.999E+003 -9.999E+003 -9.999E+003 -9.999E+003 -9.999E+003 -9.999E+003 -9.999E+003 -9.999E+003 -9.999E+003 -9.999E+003 -9.999E+003 -9.999E+003 -9.999E+003 -9.999E+003 -9.999E+003 -9.999E+003 -9.999E+003 -9.999E+003 -9.999E+003 -9.999E+003 -9.999E+003 -9.999E+003 -9.999E+003 -9.999E+003 -9.999E+003 -9.999E+003 -9.999E+003 -9.999E+003 -9.999E+003 -9.999E+003 -9.999E+003 -9.999E+003 -9.999E+003 -9.999E+003 -9.999E+003 -9.999E+003 -9.999E+003 -9.999E+003 -9.999E+003 -9.999E+003 -9.999E+003 -9.999E+003 -9.999E+003 -9.999E+003 -9.999E+003 -9.999E+003 -9.999E+003 -9.999E+003 -9.999E+003 -9.999E+003 -9.999E+003 -9.999E+003 -9.999E+003 -9.999E+003 -9.999E+003 -9.999E+003 -9.999E+003 -9.999E+003 -9.999E+003 -9.999E+003 -9.999E+003 -9.999E+003 -9.999E+003 -9.999E+003 -9.999E+003 -9.999E+003 -9.999E+003 -9.999E+003 -9.999E+003 -9.999E+003 -9.999E+003 -9.999E+003 -9.999E+003 -9.999E+003 -9.999E+003 -9.999E+003 -9.999E+003 -9.999E+003 -9.999E+003 -9.999E+003 -9.999E+003 -9.999E+003 -9.999E+003
 -9.999E+003 -9.999E+003 -9.999E+003 -9.999E+003 -9.999E+003 -9.999E+003 -9.999E+003 -9.999E+003 -9.999E+003 -9.999E+003 -9.999E+003 -9.999E+003 -9.999E+003 -9.999E+003 -9.999E+003 -9.999E+003 -9.999E+003 -9.999E+003 -9.999E+003 -9.999E+003 -9.999E+003 -9.999E+003 -9.999E+003 -9.999E+003 -9.999E+003 -9.999E+003 -9.999E+003 -9.999E+003 -9.999E+003 -9.999E+003 -9.999E+003 -9.999E+003 -9.999E+003 -9.999E+003 -9.999E+003 -9.999E+003 -9.999E+003 -9.999E+003 -9.999E+003 -9.999E+003 -9.999E+003 -9.999E+003 -9.999E+003 -9.999E+003 -9.999E+003 -9.999E+003 -9.999E+003 -9.999E+003 -9.999E+003 -9.999E+003 -9.999E+003 -9.999E+003 -9.999E+003 -9.999E+003 -9.999E+003 -9.999E+003 -9.999E+003 -9.999E+003 -9.999E+003 -9.999E+003 -9.999E+003 -9.999E+003 -9.999E+003 -9.999E+003 -9.999E+003 -9.999E+003 -9.999E+003 -9.999E+003 -9.999E+003 -9.999E+003 -9.999E+003 -9.999E+003 -9.999E+003 -9.999E+003 -9.999E+003 -9.999E+003 -9.999E+003 -9.999E+003 -9.999E+003 -9.999E+003 -9.999E+003 -9.999E+003 -9.999E+003 -9.999E+003 -9.999E+003 -9.999E+003 -9.999E+003 -9.999E+003 -9.999E+003 -9.999E+003 -9.999E+003 -9.999E+003 -9.999E+003 -9.999E+003 -9.999E+003 -9.999E+003 -9.999E+003 -9.999E+003 -9.999E+003 -9.999E+003 -9.999E+003 -9.999E+003 -9.999E+003 -9.999E+003 -9.999E+003 -9.999E+003 -9.999E+003 -9.999E+003 -9.999E+003 -9.999E+003 -9.999E+003 -9.999E+003 -9.999E+003 -9.999E+003 -9.999E+003 -9.999E+003 -9.999E+003 -9.999E+003 -9.999E+003 -9.999E+003 -9.999E+003 -9.999E+003 -9.999E+003 -9.999E+003 -9.999E+003 -9.999E+003 -9.999E+003 -9.999E+003 -9.999E+003 -9.999E+003 -9.999E+003 -9.999E+003 -9.999E+003 -9.999E+003 -9.999E+003 -9.999E+003 -9.999E+003 -9.999E+003 -9.999E+003 -9.999E+003 -9.999E+003 -9.999E+003 -9.999E+003 -9.999E+003 -9.999E+003 -9.999E+003 -9.999E+003 -9.999E+003 -9.999E+003 -9.999E+003
 -9.999E+003 -9.999E+003 -9.999E+003 -9.999E+003 -9.999E+003 -9.999E+003 -9.999E+003 -9.999E+003 -9.999E+003 -9.999E+003 -9.999E+003 -9.999E+003 -9.999E+003 -9.999E+003 -9.999E+003 -9.999E+003 -9.999E+003 -9.999E+003 -9.999E+003 -9.999E+003 -9.999E+003 -9.999E+003 -9.999E+003 -9.999E+003 -9.999E+003 -9.999E+003 -9.999E+003 -9.999E+003 -9.999E+003 -9.999E+003 -9.999E+003 -9.999E+003 -9.999E+003 -9.999E+003 -9.999E+003 -9.999E+003 -9.999E+003 -9.999E+003 -9.999E+003 -9.999E+003 -9.999E+003 -9.999E+003 -9.999E+003 -9.999E+003 -9.999E+003 -9.999E+003 -9.999E+003 -9.999E+003 -9.999E+003 -9.999E+003 -9.999E+003 -9.999E+003 -9.999E+003 -9.999E+003 -9.999E+003 -9.999E+003 -9.999E+003 -9.999E+003 -9.999E+003 -9.999E+003 -9.999E+003 -9.999E+003 -9.999E+003 -9.999E+003 -9.999E+003 -9.999E+003 -9.999E+003 -9.999E+003 -9.999E+003 -9.999E+003 -9.999E+003 -9.999E+003 -9.999E+003 -9.999E+003 -9.999E+003 -9.999E+003 -9.999E+003 -9.999E+003 -9.999E+003 -9.999E+003 -9.999E+003 -9.999E+003 -9.999E+003 -9.999E+003 -9.999E+003 -9.999E+003 -9.999E+003 -9.999E+003 -9.999E+003 -9.999E+003 -9.999E+003 -9.999E+003 -9.999E+003 -9.999E+003 -9.999E+003 -9.999E+003 -9.999E+003 -9.999E+003 -9.999E+003 -9.999E+003 -9.999E+003 -9.999E+003 -9.999E+003 -9.999E+003 -9.999E+003 -9.999E+003 -9.999E+003 -9.999E+003 -9.999E+003 -9.999E+003 -9.999E+003 -9.999E+003 -9.999E+003 -9.999E+003 -9.999E+003 -9.999E+003 -9.999E+003 -9.999E+003 -9.999E+003 -9.999E+003 -9.999E+003 -9.999E+003 -9.999E+003 -9.999E+003 -9.999E+003 -9.999E+003 -9.999E+003 -9.999E+003 -9.999E+003 -9.999E+003 -9.999E+003 -9.999E+003 -9.999E+003 -9.999E+003 -9.999E+003 -9.999E+003 -9.999E+003 -9.999E+003 -9.999E+003 -9.999E+003 -9.999E+003 -9.999E+003 -9.999E+003 -9.999E+003 -9.999E+003 -9.999E+003 -9.999E+003 -9.999E+003 -9.999E+003 -9.999E+003
 -9.999E+003 -9.999E+003 -9.999E+003 -9.999E+003 -9.999E+003 -9.999E+003 -9.999E+003 -9.999E+003 -9.999E+003 -9.999E+003 -9.999E+003 -9.999E+003 -9.999E+003 -9.999E+003 -9.999E+003 -9.999E+003 -9.999E+003 -9.999E+003 -9.999E+003 -9.999E+003 -9.999E+003 -9.999E+003 -9.999E+003 -9.999E+003 -9.999E+003 -9.999E+003 -9.999E+003 -9.999E+003 -9.999E+003 -9.999E+003 -9.999E+003 -9.999E+003 -9.999E+003 -9.999E+003 -9.999E+003 -9.999E+003 -9.999E+003 -9.999E+003 -9.999E+003 -9.999E+003 -9.999E+003 -9.999E+003 -9.999E+003 -9.999E+003 -9.999E+003 -9.999E+003 -9.999E+003 -9.999E+003 -9.999E+003 -9.999E+003 -9.999E+003 -9.999E+003 -9.999E+003 -9.999E+003 -9.999E+003 -9.999E+003 -9.999E+003 -9.999E+003 -9.999E+003 -9.999E+003 -9.999E+003 -9.999E+003 -9.999E+003 -9.999E+003 -9.999E+003 -9.999E+003 -9.999E+003 -9.999E+003 -9.999E+003 -9.999E+003 -9.999E+003 -9.999E+003 -9.999E+003 -9.999E+003 -9.999E+003 -9.999E+003 -9.999E+003 -9.999E+003 -9.999E+003 -9.999E+003 -9.999E+003 -9.999E+003 -9.999E+003 -9.999E+003 -9.999E+003 -9.999E+003 -9.999E+003 -9.999E+003 -9.999E+003 -9.999E+003 -9.999E+003 -9.999E+003 -9.999E+003 -9.999E+003 -9.999E+003 -9.999E+003 -9.999E+003 -9.999E+003 -9.999E+003 -9.999E+003 -9.999E+003 -9.999E+003 -9.999E+003 -9.999E+003 -9.999E+003 -9.999E+003 -9.999E+003 -9.999E+003 -9.999E+003 -9.999E+003 -9.999E+003 -9.999E+003 -9.999E+003 -9.999E+003 -9.999E+003 -9.999E+003 -9.999E+003 -9.999E+003 -9.999E+003 -9.999E+003 -9.999E+003 -9.999E+003 -9.999E+003 -9.999E+003 -9.999E+003 -9.999E+003 -9.999E+003 -9.999E+003 -9.999E+003 -9.999E+003 -9.999E+003 -9.999E+003 -9.999E+003 -9.999E+003 -9.999E+003 -9.999E+003 -9.999E+003 -9.999E+003 -9.999E+003 -9.999E+003 -9.999E+003 -9.999E+003 -9.999E+003 -9.999E+003 -9.999E+003 -9.999E+003 -9.999E+003 -9.999E+003 -9.999E+003 -9.999E+003
 -9.999E+003 -9.999E+003 -9.999E+003 -9.999E+003 -9.999E+003 -9.999E+003 -9.999E+003 -9.999E+003 -9.999E+003 -9.999E+003 -9.999E+003 -9.999E+003 -9.999E+003 -9.999E+003 -9.999E+003 -9.999E+003 -9.999E+003 -9.999E+003 -9.999E+003 -9.999E+003 -9.999E+003 -9.999E+003 -9.999E+003 -9.999E+003 -9.999E+003 -9.999E+003 -9.999E+003 -9.999E+003 -9.999E+003 -9.999E+003 -9.999E+003 -9.999E+003 -9.999E+003 -9.999E+003 -9.999E+003 -9.999E+003 -9.999E+003 -9.999E+003 -9.999E+003 -9.999E+003 -9.999E+003 -9.999E+003 -9.999E+003 -9.999E+003 -9.999E+003 -9.999E+003 -9.999E+003 -9.999E+003 -9.999E+003 -9.999E+003 -9.999E+003 -9.999E+003 -9.999E+003 -9.999E+003 -9.999E+003 -9.999E+003 -9.999E+003 -9.999E+003 -9.999E+003 -9.999E+003 -9.999E+003 -9.999E+003 -9.999E+003 -9.999E+003 -9.999E+003 -9.999E+003 -9.999E+003 -9.999E+003 -9.999E+003 -9.999E+003 -9.999E+003 -9.999E+003 -9.999E+003 -9.999E+003 -9.999E+003 -9.999E+003 -9.999E+003 -9.999E+003 -9.999E+003 -9.999E+003 -9.999E+003 -9.999E+003 -9.999E+003 -9.999E+003 -9.999E+003 -9.999E+003 -9.999E+003 -9.999E+003 -9.999E+003 -9.999E+003 -9.999E+003 -9.999E+003 -9.999E+003 -9.999E+003 -9.999E+003 -9.999E+003 -9.999E+003 -9.999E+003 -9.999E+003 -9.999E+003 -9.999E+003 -9.999E+003 -9.999E+003 -9.999E+003 -9.999E+003 -9.999E+003 -9.999E+003 -9.999E+003 -9.999E+003 -9.999E+003 -9.999E+003 -9.999E+003 -9.999E+003 -9.999E+003 -9.999E+003 -9.999E+003 -9.999E+003 -9.999E+003 -9.999E+003 -9.999E+003 -9.999E+003 -9.999E+003 -9.999E+003 -9.999E+003 -9.999E+003 -9.999E+003 -9.999E+003 -9.999E+003 -9.999E+003 -9.999E+003 -9.999E+003 -9.999E+003 -9.999E+003 -9.999E+003 -9.999E+003 -9.999E+003 -9.999E+003 -9.999E+003 -9.999E+003 -9.999E+003 -9.999E+003 -9.999E+003 -9.999E+003 -9.999E+003 -9.999E+003 -9.999E+003 -9.999E+003 -9.999E+003 -9.999E+003 -9.999E+003
 -9.999E+003 -9.999E+003 -9.999E+003 -9.999E+003 -9.999E+003 -9.999E+003 -9.999E+003 -9.999E+003 -9.999E+003 -9.999E+003 -9.999E+003 -9.999E+003 -9.999E+003 -9.999E+003 -9.999E+003 -9.999E+003 -9.999E+003 -9.999E+003 -9.999E+003 -9.999E+003 -9.999E+003 -9.999E+003 -9.999E+003 -9.999E+003 -9.999E+003 -9.999E+003 -9.999E+003 -9.999E+003 -9.999E+003 -9.999E+003 -9.999E+003 -9.999E+003 -9.999E+003 -9.999E+003 -9.999E+003 -9.999E+003 -9.999E+003 -9.999E+003 -9.999E+003 -9.999E+003 -9.999E+003 -9.999E+003 -9.999E+003 -9.999E+003 -9.999E+003 -9.999E+003 -9.999E+003 -9.999E+003 -9.999E+003 -9.999E+003 -9.999E+003 -9.999E+003 -9.999E+003 -9.999E+003 -9.999E+003 -9.999E+003 -9.999E+003 -9.999E+003 -9.999E+003 -9.999E+003 -9.999E+003 -9.999E+003 -9.999E+003 -9.999E+003 -9.999E+003 -9.999E+003 -9.999E+003 -9.999E+003 -9.999E+003 -9.999E+003 -9.999E+003 -9.999E+003 -9.999E+003 -9.999E+003 -9.999E+003 -9.999E+003 -9.999E+003 -9.999E+003 -9.999E+003 -9.999E+003 -9.999E+003 -9.999E+003 -9.999E+003 -9.999E+003 -9.999E+003 -9.999E+003 -9.999E+003 -9.999E+003 -9.999E+003 -9.999E+003 -9.999E+003 -9.999E+003 -9.999E+003 -9.999E+003 -9.999E+003 -9.999E+003 -9.999E+003 -9.999E+003 -9.999E+003 -9.999E+003 -9.999E+003 -9.999E+003 -9.999E+003 -9.999E+003 -9.999E+003 -9.999E+003 -9.999E+003 -9.999E+003 -9.999E+003 -9.999E+003 -9.999E+003 -9.999E+003 -9.999E+003 -9.999E+003 -9.999E+003 -9.999E+003 -9.999E+003 -9.999E+003 -9.999E+003 -9.999E+003 -9.999E+003 -9.999E+003 -9.999E+003 -9.999E+003 -9.999E+003 -9.999E+003 -9.999E+003 -9.999E+003 -9.999E+003 -9.999E+003 -9.999E+003 -9.999E+003 -9.999E+003 -9.999E+003 -9.999E+003 -9.999E+003 -9.999E+003 -9.999E+003 -9.999E+003 -9.999E+003 -9.999E+003 -9.999E+003 -9.999E+003 -9.999E+003 -9.999E+003 -9.999E+003 -9.999E+003 -9.999E+003 -9.999E+003 -9.999E+003
 -9.999E+003 -9.999E+003 -9.999E+003 -9.999E+003 -9.999E+003 -9.999E+003 -9.999E+003 -9.999E+003 -9.999E+003 -9.999E+003 -9.999E+003 -9.999E+003 -9.999E+003 -9.999E+003 -9.999E+003 -9.999E+003 -9.999E+003 -9.999E+003 -9.999E+003 -9.999E+003 -9.999E+003 -9.999E+003 -9.999E+003 -9.999E+003 -9.999E+003 -9.999E+003 -9.999E+003 -9.999E+003 -9.999E+003 -9.999E+003 -9.999E+003 -9.999E+003 -9.999E+003 -9.999E+003 -9.999E+003 -9.999E+003 -9.999E+003 -9.999E+003 -9.999E+003 -9.999E+003 -9.999E+003 -9.999E+003 -9.999E+003 -9.999E+003 -9.999E+003 -9.999E+003 -9.999E+003 -9.999E+003 -9.999E+003 -9.999E+003 -9.999E+003 -9.999E+003 -9.999E+003 -9.999E+003 -9.999E+003 -9.999E+003 -9.999E+003 -9.999E+003 -9.999E+003 -9.999E+003 -9.999E+003 -9.999E+003 -9.999E+003 -9.999E+003 -9.999E+003 -9.999E+003 -9.999E+003 -9.999E+003 -9.999E+003 -9.999E+003 -9.999E+003 -9.999E+003 -9.999E+003 -9.999E+003 -9.999E+003 -9.999E+003 -9.999E+003 -9.999E+003 -9.999E+003 -9.999E+003 -9.999E+003 -9.999E+003 -9.999E+003 -9.999E+003 -9.999E+003 -9.999E+003 -9.999E+003 -9.999E+003 -9.999E+003 -9.999E+003 -9.999E+003 -9.999E+003 -9.999E+003 -9.999E+003 -9.999E+003 -9.999E+003 -9.999E+003 -9.999E+003 -9.999E+003 -9.999E+003 -9.999E+003 -9.999E+003 -9.999E+003 -9.999E+003 -9.999E+003 -9.999E+003 -9.999E+003 -9.999E+003 -9.999E+003 -9.999E+003 -9.999E+003 -9.999E+003 -9.999E+003 -9.999E+003 -9.999E+003 -9.999E+003 -9.999E+003 -9.999E+003 -9.999E+003 -9.999E+003 -9.999E+003 -9.999E+003 -9.999E+003 -9.999E+003 -9.999E+003 -9.999E+003 -9.999E+003 -9.999E+003 -9.999E+003 -9.999E+003 -9.999E+003 -9.999E+003 -9.999E+003 -9.999E+003 -9.999E+003 -9.999E+003 -9.999E+003 -9.999E+003 -9.999E+003 -9.999E+003 -9.999E+003 -9.999E+003 -9.999E+003 -9.999E+003 -9.999E+003 -9.999E+003 -9.999E+003 -9.999E+003 -9.999E+003 -9.999E+003
 -9.999E+003 -9.999E+003 -9.999E+003 -9.999E+003 -9.999E+003 -9.999E+003 -9.999E+003 -9.999E+003 -9.999E+003 -9.999E+003 -9.999E+003 -9.999E+003 -9.999E+003 -9.999E+003 -9.999E+003 -9.999E+003 -9.999E+003 -9.999E+003 -9.999E+003 -9.999E+003 -9.999E+003 -9.999E+003 -9.999E+003 -9.999E+003 -9.999E+003 -9.999E+003 -9.999E+003 -9.999E+003 -9.999E+003 -9.999E+003 -9.999E+003 -9.999E+003 -9.999E+003 -9.999E+003 -9.999E+003 -9.999E+003 -9.999E+003 -9.999E+003 -9.999E+003 -9.999E+003 -9.999E+003 -9.999E+003 -9.999E+003 -9.999E+003 -9.999E+003 -9.999E+003 -9.999E+003 -9.999E+003 -9.999E+003 -9.999E+003 -9.999E+003 -9.999E+003 -9.999E+003 -9.999E+003 -9.999E+003 -9.999E+003 -9.999E+003 -9.999E+003 -9.999E+003 -9.999E+003 -9.999E+003 -9.999E+003 -9.999E+003 -9.999E+003 -9.999E+003 -9.999E+003 -9.999E+003 -9.999E+003 -9.999E+003 -9.999E+003 -9.999E+003 -9.999E+003 -9.999E+003 -9.999E+003 -9.999E+003 -9.999E+003 -9.999E+003 -9.999E+003 -9.999E+003 -9.999E+003 -9.999E+003 -9.999E+003 -9.999E+003 -9.999E+003 -9.999E+003 -9.999E+003 -9.999E+003 -9.999E+003 -9.999E+003 -9.999E+003 -9.999E+003 -9.999E+003 -9.999E+003 -9.999E+003 -9.999E+003 -9.999E+003 -9.999E+003 -9.999E+003 -9.999E+003 -9.999E+003 -9.999E+003 -9.999E+003 -9.999E+003 -9.999E+003 -9.999E+003 -9.999E+003 -9.999E+003 -9.999E+003 -9.999E+003 -9.999E+003 -9.999E+003 -9.999E+003 -9.999E+003 -9.999E+003 -9.999E+003 -9.999E+003 -9.999E+003 -9.999E+003 -9.999E+003 -9.999E+003 -9.999E+003 -9.999E+003 -9.999E+003 -9.999E+003 -9.999E+003 -9.999E+003 -9.999E+003 -9.999E+003 -9.999E+003 -9.999E+003 -9.999E+003 -9.999E+003 -9.999E+003 -9.999E+003 -9.999E+003 -9.999E+003 -9.999E+003 -9.999E+003 -9.999E+003 -9.999E+003 -9.999E+003 -9.999E+003 -9.999E+003 -9.999E+003 -9.999E+003 -9.999E+003 -9.999E+003 -9.999E+003 -9.999E+003 -9.999E+003
 -9.999E+003 -9.999E+003 -9.999E+003 -9.999E+003 -9.999E+003 -9.999E+003 -9.999E+003 -9.999E+003 -9.999E+003 -9.999E+003 -9.999E+003 -9.999E+003 -9.999E+003 -9.999E+003 -9.999E+003 -9.999E+003 -9.999E+003 -9.999E+003 -9.999E+003 -9.999E+003 -9.999E+003 -9.999E+003 -9.999E+003 -9.999E+003 -9.999E+003 -9.999E+003 -9.999E+003 -9.999E+003 -9.999E+003 -9.999E+003 -9.999E+003 -9.999E+003 -9.999E+003 -9.999E+003 -9.999E+003 -9.999E+003 -9.999E+003 -9.999E+003 -9.999E+003 -9.999E+003 -9.999E+003 -9.999E+003 -9.999E+003 -9.999E+003 -9.999E+003 -9.999E+003 -9.999E+003 -9.999E+003 -9.999E+003 -9.999E+003 -9.999E+003 -9.999E+003 -9.999E+003 -9.999E+003 -9.999E+003 -9.999E+003 -9.999E+003 -9.999E+003 -9.999E+003 -9.999E+003 -9.999E+003 -9.999E+003 -9.999E+003 -9.999E+003 -9.999E+003 -9.999E+003 -9.999E+003 -9.999E+003 -9.999E+003 -9.999E+003 -9.999E+003 -9.999E+003 -9.999E+003 -9.999E+003 -9.999E+003 -9.999E+003 -9.999E+003 -9.999E+003 -9.999E+003 -9.999E+003 -9.999E+003 -9.999E+003 -9.999E+003 -9.999E+003 -9.999E+003 -9.999E+003 -9.999E+003 -9.999E+003 -9.999E+003 -9.999E+003 -9.999E+003 -9.999E+003 -9.999E+003 -9.999E+003 -9.999E+003 -9.999E+003 -9.999E+003 -9.999E+003 -9.999E+003 -9.999E+003 -9.999E+003 -9.999E+003 -9.999E+003 -9.999E+003 -9.999E+003 -9.999E+003 -9.999E+003 -9.999E+003 -9.999E+003 -9.999E+003 -9.999E+003 -9.999E+003 -9.999E+003 -9.999E+003 -9.999E+003 -9.999E+003 -9.999E+003 -9.999E+003 -9.999E+003 -9.999E+003 -9.999E+003 -9.999E+003 -9.999E+003 -9.999E+003 -9.999E+003 -9.999E+003 -9.999E+003 -9.999E+003 -9.999E+003 -9.999E+003 -9.999E+003 -9.999E+003 -9.999E+003 -9.999E+003 -9.999E+003 -9.999E+003 -9.999E+003 -9.999E+003 -9.999E+003 -9.999E+003 -9.999E+003 -9.999E+003 -9.999E+003 -9.999E+003 -9.999E+003 -9.999E+003 -9.999E+003 -9.999E+003 -9.999E+003 -9.999E+003
 -9.999E+003 -9.999E+003 -9.999E+003 -9.999E+003 -9.999E+003 -9.999E+003 -9.999E+003 -9.999E+003 -9.999E+003 -9.999E+003 -9.999E+003 -9.999E+003 -9.999E+003 -9.999E+003 -9.999E+003 -9.999E+003 -9.999E+003 -9.999E+003 -9.999E+003 -9.999E+003 -9.999E+003 -9.999E+003 -9.999E+003 -9.999E+003 -9.999E+003 -9.999E+003 -9.999E+003 -9.999E+003 -9.999E+003 -9.999E+003 -9.999E+003 -9.999E+003 -9.999E+003 -9.999E+003 -9.999E+003 -9.999E+003 -9.999E+003 -9.999E+003 -9.999E+003 -9.999E+003 -9.999E+003 -9.999E+003 -9.999E+003 -9.999E+003 -9.999E+003 -9.999E+003 -9.999E+003 -9.999E+003 -9.999E+003 -9.999E+003 -9.999E+003 -9.999E+003 -9.999E+003 -9.999E+003 -9.999E+003 -9.999E+003 -9.999E+003 -9.999E+003 -9.999E+003 -9.999E+003 -9.999E+003 -9.999E+003 -9.999E+003 -9.999E+003 -9.999E+003 -9.999E+003 -9.999E+003 -9.999E+003 -9.999E+003 -9.999E+003 -9.999E+003 -9.999E+003 -9.999E+003 -9.999E+003 -9.999E+003 -9.999E+003 -9.999E+003 -9.999E+003 -9.999E+003 -9.999E+003 -9.999E+003 -9.999E+003 -9.999E+003 -9.999E+003 -9.999E+003 -9.999E+003 -9.999E+003 -9.999E+003 -9.999E+003 -9.999E+003 -9.999E+003 -9.999E+003 -9.999E+003 -9.999E+003 -9.999E+003 -9.999E+003 -9.999E+003 -9.999E+003 -9.999E+003 -9.999E+003 -9.999E+003 -9.999E+003 -9.999E+003 -9.999E+003 -9.999E+003 -9.999E+003 -9.999E+003 -9.999E+003 -9.999E+003 -9.999E+003 -9.999E+003 -9.999E+003 -9.999E+003 -9.999E+003 -9.999E+003 -9.999E+003 -9.999E+003 -9.999E+003 -9.999E+003 -9.999E+003 -9.999E+003 -9.999E+003 -9.999E+003 -9.999E+003 -9.999E+003 -9.999E+003 -9.999E+003 -9.999E+003 -9.999E+003 -9.999E+003 -9.999E+003 -9.999E+003 -9.999E+003 -9.999E+003 -9.999E+003 -9.999E+003 -9.999E+003 -9.999E+003 -9.999E+003 -9.999E+003 -9.999E+003 -9.999E+003 -9.999E+003 -9.999E+003 -9.999E+003 -9.999E+003 -9.999E+003 -9.999E+003 -9.999E+003 -9.999E+003
 -9.999E+003 -9.999E+003 -9.999E+003 -9.999E+003 -9.999E+003 -9.999E+003 -9.999E+003 -9.999E+003 -9.999E+003 -9.999E+003 -9.999E+003 -9.999E+003 -9.999E+003 -9.999E+003 -9.999E+003 -9.999E+003 -9.999E+003 -9.999E+003 -9.999E+003 -9.999E+003 -9.999E+003 -9.999E+003 -9.999E+003 -9.999E+003 -9.999E+003 -9.999E+003 -9.999E+003 -9.999E+003 -9.999E+003 -9.999E+003 -9.999E+003 -9.999E+003 -9.999E+003 -9.999E+003 -9.999E+003 -9.999E+003 -9.999E+003 -9.999E+003 -9.999E+003 -9.999E+003 -9.999E+003 -9.999E+003 -9.999E+003 -9.999E+003 -9.999E+003 -9.999E+003 -9.999E+003 -9.999E+003 -9.999E+003 -9.999E+003 -9.999E+003 -9.999E+003 -9.999E+003 -9.999E+003 -9.999E+003 -9.999E+003 -9.999E+003 -9.999E+003 -9.999E+003 -9.999E+003 -9.999E+003 -9.999E+003 -9.999E+003 -9.999E+003 -9.999E+003 -9.999E+003 -9.999E+003 -9.999E+003 -9.999E+003 -9.999E+003 -9.999E+003 -9.999E+003 -9.999E+003 -9.999E+003 -9.999E+003 -9.999E+003 -9.999E+003 -9.999E+003 -9.999E+003 -9.999E+003 -9.999E+003 -9.999E+003 -9.999E+003 -9.999E+003 -9.999E+003 -9.999E+003 -9.999E+003 -9.999E+003 -9.999E+003 -9.999E+003 -9.999E+003 -9.999E+003 -9.999E+003 -9.999E+003 -9.999E+003 -9.999E+003 -9.999E+003 -9.999E+003 -9.999E+003 -9.999E+003 -9.999E+003 -9.999E+003 -9.999E+003 -9.999E+003 -9.999E+003 -9.999E+003 -9.999E+003 -9.999E+003 -9.999E+003 -9.999E+003 -9.999E+003 -9.999E+003 -9.999E+003 -9.999E+003 -9.999E+003 -9.999E+003 -9.999E+003 -9.999E+003 -9.999E+003 -9.999E+003 -9.999E+003 -9.999E+003 -9.999E+003 -9.999E+003 -9.999E+003 -9.999E+003 -9.999E+003 -9.999E+003 -9.999E+003 -9.999E+003 -9.999E+003 -9.999E+003 -9.999E+003 -9.999E+003 -9.999E+003 -9.999E+003 -9.999E+003 -9.999E+003 -9.999E+003 -9.999E+003 -9.999E+003 -9.999E+003 -9.999E+003 -9.999E+003 -9.999E+003 -9.999E+003 -9.999E+003 -9.999E+003 -9.999E+003 -9.999E+003
 -9.999E+003 -9.999E+003 -9.999E+003 -9.999E+003 -9.999E+003 -9.999E+003 -9.999E+003 -9.999E+003 -9.999E+003 -9.999E+003 -9.999E+003 -9.999E+003 -9.999E+003 -9.999E+003 -9.999E+003 -9.999E+003 -9.999E+003 -9.999E+003 -9.999E+003 -9.999E+003 -9.999E+003 -9.999E+003 -9.999E+003 -9.999E+003 -9.999E+003 -9.999E+003 -9.999E+003 -9.999E+003 -9.999E+003 -9.999E+003 -9.999E+003 -9.999E+003 -9.999E+003 -9.999E+003 -9.999E+003 -9.999E+003 -9.999E+003 -9.999E+003 -9.999E+003 -9.999E+003 -9.999E+003 -9.999E+003 -9.999E+003 -9.999E+003 -9.999E+003 -9.999E+003 -9.999E+003 -9.999E+003 -9.999E+003 -9.999E+003 -9.999E+003 -9.999E+003 -9.999E+003 -9.999E+003 -9.999E+003 -9.999E+003 -9.999E+003 -9.999E+003 -9.999E+003 -9.999E+003 -9.999E+003 -9.999E+003 -9.999E+003 -9.999E+003 -9.999E+003 -9.999E+003 -9.999E+003 -9.999E+003 -9.999E+003 -9.999E+003 -9.999E+003 -9.999E+003 -9.999E+003 -9.999E+003 -9.999E+003 -9.999E+003 -9.999E+003 -9.999E+003 -9.999E+003 -9.999E+003 -9.999E+003 -9.999E+003 -9.999E+003 -9.999E+003 -9.999E+003 -9.999E+003 -9.999E+003 -9.999E+003 -9.999E+003 -9.999E+003 -9.999E+003 -9.999E+003 -9.999E+003 -9.999E+003 -9.999E+003 -9.999E+003 -9.999E+003 -9.999E+003 -9.999E+003 -9.999E+003 -9.999E+003 -9.999E+003 -9.999E+003 -9.999E+003 -9.999E+003 -9.999E+003 -9.999E+003 -9.999E+003 -9.999E+003 -9.999E+003 -9.999E+003 -9.999E+003 -9.999E+003 -9.999E+003 -9.999E+003 -9.999E+003 -9.999E+003 -9.999E+003 -9.999E+003 -9.999E+003 -9.999E+003 -9.999E+003 -9.999E+003 -9.999E+003 -9.999E+003 -9.999E+003 -9.999E+003 -9.999E+003 -9.999E+003 -9.999E+003 -9.999E+003 -9.999E+003 -9.999E+003 -9.999E+003 -9.999E+003 -9.999E+003 -9.999E+003 -9.999E+003 -9.999E+003 -9.999E+003 -9.999E+003 -9.999E+003 -9.999E+003 -9.999E+003 -9.999E+003 -9.999E+003 -9.999E+003 -9.999E+003 -9.999E+003 -9.999E+003
 -9.999E+003 -9.999E+003 -9.999E+003 -9.999E+003 -9.999E+003 -9.999E+003 -9.999E+003 -9.999E+003 -9.999E+003 -9.999E+003 -9.999E+003 -9.999E+003 -9.999E+003 -9.999E+003 -9.999E+003 -9.999E+003 -9.999E+003 -9.999E+003 -9.999E+003 -9.999E+003 -9.999E+003 -9.999E+003 -9.999E+003 -9.999E+003 -9.999E+003 -9.999E+003 -9.999E+003 -9.999E+003 -9.999E+003 -9.999E+003 -9.999E+003 -9.999E+003 -9.999E+003 -9.999E+003 -9.999E+003 -9.999E+003 -9.999E+003 -9.999E+003 -9.999E+003 -9.999E+003 -9.999E+003 -9.999E+003 -9.999E+003 -9.999E+003 -9.999E+003 -9.999E+003 -9.999E+003 -9.999E+003 -9.999E+003 -9.999E+003 -9.999E+003 -9.999E+003 -9.999E+003 -9.999E+003 -9.999E+003 -9.999E+003 -9.999E+003 -9.999E+003 -9.999E+003 -9.999E+003 -9.999E+003 -9.999E+003 -9.999E+003 -9.999E+003 -9.999E+003 -9.999E+003 -9.999E+003 -9.999E+003 -9.999E+003 -9.999E+003 -9.999E+003 -9.999E+003 -9.999E+003 -9.999E+003 -9.999E+003 -9.999E+003 -9.999E+003 -9.999E+003 -9.999E+003 -9.999E+003 -9.999E+003 -9.999E+003 -9.999E+003 -9.999E+003 -9.999E+003 -9.999E+003 -9.999E+003 -9.999E+003 -9.999E+003 -9.999E+003 -9.999E+003 -9.999E+003 -9.999E+003 -9.999E+003 -9.999E+003 -9.999E+003 -9.999E+003 -9.999E+003 -9.999E+003 -9.999E+003 -9.999E+003 -9.999E+003 -9.999E+003 -9.999E+003 -9.999E+003 -9.999E+003 -9.999E+003 -9.999E+003 -9.999E+003 -9.999E+003 -9.999E+003 -9.999E+003 -9.999E+003 -9.999E+003 -9.999E+003 -9.999E+003 -9.999E+003 -9.999E+003 -9.999E+003 -9.999E+003 -9.999E+003 -9.999E+003 -9.999E+003 -9.999E+003 -9.999E+003 -9.999E+003 -9.999E+003 -9.999E+003 -9.999E+003 -9.999E+003 -9.999E+003 -9.999E+003 -9.999E+003 -9.999E+003 -9.999E+003 -9.999E+003 -9.999E+003 -9.999E+003 -9.999E+003 -9.999E+003 -9.999E+003 -9.999E+003 -9.999E+003 -9.999E+003 -9.999E+003 -9.999E+003 -9.999E+003 -9.999E+003 -9.999E+003 -9.999E+003
 -9.999E+003 -9.999E+003 -9.999E+003 -9.999E+003 -9.999E+003 -9.999E+003 -9.999E+003 -9.999E+003 -9.999E+003 -9.999E+003 -9.999E+003 -9.999E+003 -9.999E+003 -9.999E+003 -9.999E+003 -9.999E+003 -9.999E+003 -9.999E+003 -9.999E+003 -9.999E+003 -9.999E+003 -9.999E+003 -9.999E+003 -9.999E+003 -9.999E+003 -9.999E+003 -9.999E+003 -9.999E+003 -9.999E+003 -9.999E+003 -9.999E+003 -9.999E+003 -9.999E+003 -9.999E+003 -9.999E+003 -9.999E+003 -9.999E+003 -9.999E+003 -9.999E+003 -9.999E+003 -9.999E+003 -9.999E+003 -9.999E+003 -9.999E+003 -9.999E+003 -9.999E+003 -9.999E+003 -9.999E+003 -9.999E+003 -9.999E+003 -9.999E+003 -9.999E+003 -9.999E+003 -9.999E+003 -9.999E+003 -9.999E+003 -9.999E+003 -9.999E+003 -9.999E+003 -9.999E+003 -9.999E+003 -9.999E+003 -9.999E+003 -9.999E+003 -9.999E+003 -9.999E+003 -9.999E+003 -9.999E+003 -9.999E+003 -9.999E+003 -9.999E+003 -9.999E+003 -9.999E+003 -9.999E+003 -9.999E+003 -9.999E+003 -9.999E+003 -9.999E+003 -9.999E+003 -9.999E+003 -9.999E+003 -9.999E+003 -9.999E+003 -9.999E+003 -9.999E+003 -9.999E+003 -9.999E+003 -9.999E+003 -9.999E+003 -9.999E+003 -9.999E+003 -9.999E+003 -9.999E+003 -9.999E+003 -9.999E+003 -9.999E+003 -9.999E+003 -9.999E+003 -9.999E+003 -9.999E+003 -9.999E+003 -9.999E+003 -9.999E+003 -9.999E+003 -9.999E+003 -9.999E+003 -9.999E+003 -9.999E+003 -9.999E+003 -9.999E+003 -9.999E+003 -9.999E+003 -9.999E+003 -9.999E+003 -9.999E+003 -9.999E+003 -9.999E+003 -9.999E+003 -9.999E+003 -9.999E+003 -9.999E+003 -9.999E+003 -9.999E+003 -9.999E+003 -9.999E+003 -9.999E+003 -9.999E+003 -9.999E+003 -9.999E+003 -9.999E+003 -9.999E+003 -9.999E+003 -9.999E+003 -9.999E+003 -9.999E+003 -9.999E+003 -9.999E+003 -9.999E+003 -9.999E+003 -9.999E+003 -9.999E+003 -9.999E+003 -9.999E+003 -9.999E+003 -9.999E+003 -9.999E+003 -9.999E+003 -9.999E+003 -9.999E+003 -9.999E+003
 -9.999E+003 -9.999E+003 -9.999E+003 -9.999E+003 -9.999E+003 -9.999E+003 -9.999E+003 -9.999E+003 -9.999E+003 -9.999E+003 -9.999E+003 -9.999E+003 -9.999E+003 -9.999E+003 -9.999E+003 -9.999E+003 -9.999E+003 -9.999E+003 -9.999E+003 -9.999E+003 -9.999E+003 -9.999E+003 -9.999E+003 -9.999E+003 -9.999E+003 -9.999E+003 -9.999E+003 -9.999E+003 -9.999E+003 -9.999E+003 -9.999E+003 -9.999E+003 -9.999E+003 -9.999E+003 -9.999E+003 -9.999E+003 -9.999E+003 -9.999E+003 -9.999E+003 -9.999E+003 -9.999E+003 -9.999E+003 -9.999E+003 -9.999E+003 -9.999E+003 -9.999E+003 -9.999E+003 -9.999E+003 -9.999E+003 -9.999E+003 -9.999E+003 -9.999E+003 -9.999E+003 -9.999E+003 -9.999E+003 -9.999E+003 -9.999E+003 -9.999E+003 -9.999E+003 -9.999E+003 -9.999E+003 -9.999E+003 -9.999E+003 -9.999E+003 -9.999E+003 -9.999E+003 -9.999E+003 -9.999E+003 -9.999E+003 -9.999E+003 -9.999E+003 -9.999E+003 -9.999E+003 -9.999E+003 -9.999E+003 -9.999E+003 -9.999E+003 -9.999E+003 -9.999E+003 -9.999E+003 -9.999E+003 -9.999E+003 -9.999E+003 -9.999E+003 -9.999E+003 -9.999E+003 -9.999E+003 -9.999E+003 -9.999E+003 -9.999E+003 -9.999E+003 -9.999E+003 -9.999E+003 -9.999E+003 -9.999E+003 -9.999E+003 -9.999E+003 -9.999E+003 -9.999E+003 -9.999E+003 -9.999E+003 -9.999E+003 -9.999E+003 -9.999E+003 -9.999E+003 -9.999E+003 -9.999E+003 -9.999E+003 -9.999E+003 -9.999E+003 -9.999E+003 -9.999E+003 -9.999E+003 -9.999E+003 -9.999E+003 -9.999E+003 -9.999E+003 -9.999E+003 -9.999E+003 -9.999E+003 -9.999E+003 -9.999E+003 -9.999E+003 -9.999E+003 -9.999E+003 -9.999E+003 -9.999E+003 -9.999E+003 -9.999E+003 -9.999E+003 -9.999E+003 -9.999E+003 -9.999E+003 -9.999E+003 -9.999E+003 -9.999E+003 -9.999E+003 -9.999E+003 -9.999E+003 -9.999E+003 -9.999E+003 -9.999E+003 -9.999E+003 -9.999E+003 -9.999E+003 -9.999E+003 -9.999E+003 -9.999E+003 -9.999E+003 -9.999E+003
 -9.999E+003 -9.999E+003 -9.999E+003 -9.999E+003 -9.999E+003 -9.999E+003 -9.999E+003 -9.999E+003 -9.999E+003 -9.999E+003 -9.999E+003 -9.999E+003 -9.999E+003 -9.999E+003 -9.999E+003 -9.999E+003 -9.999E+003 -9.999E+003 -9.999E+003 -9.999E+003 -9.999E+003 -9.999E+003 -9.999E+003 -9.999E+003 -9.999E+003 -9.999E+003 -9.999E+003 -9.999E+003 -9.999E+003 -9.999E+003 -9.999E+003 -9.999E+003 -9.999E+003 -9.999E+003 -9.999E+003 -9.999E+003 -9.999E+003 -9.999E+003 -9.999E+003 -9.999E+003 -9.999E+003 -9.999E+003 -9.999E+003 -9.999E+003 -9.999E+003 -9.999E+003 -9.999E+003 -9.999E+003 -9.999E+003 -9.999E+003 -9.999E+003 -9.999E+003 -9.999E+003 -9.999E+003 -9.999E+003 -9.999E+003 -9.999E+003 -9.999E+003 -9.999E+003 -9.999E+003 -9.999E+003 -9.999E+003 -9.999E+003 -9.999E+003 -9.999E+003 -9.999E+003 -9.999E+003 -9.999E+003 -9.999E+003 -9.999E+003 -9.999E+003 -9.999E+003 -9.999E+003 -9.999E+003 -9.999E+003 -9.999E+003 -9.999E+003 -9.999E+003 -9.999E+003 -9.999E+003 -9.999E+003 -9.999E+003 -9.999E+003 -9.999E+003 -9.999E+003 -9.999E+003 -9.999E+003 -9.999E+003 -9.999E+003 -9.999E+003 -9.999E+003 -9.999E+003 -9.999E+003 -9.999E+003 -9.999E+003 -9.999E+003 -9.999E+003 -9.999E+003 -9.999E+003 -9.999E+003 -9.999E+003 -9.999E+003 -9.999E+003 -9.999E+003 -9.999E+003 -9.999E+003 -9.999E+003 -9.999E+003 -9.999E+003 -9.999E+003 -9.999E+003 -9.999E+003 -9.999E+003 -9.999E+003 -9.999E+003 -9.999E+003 -9.999E+003 -9.999E+003 -9.999E+003 -9.999E+003 -9.999E+003 -9.999E+003 -9.999E+003 -9.999E+003 -9.999E+003 -9.999E+003 -9.999E+003 -9.999E+003 -9.999E+003 -9.999E+003 -9.999E+003 -9.999E+003 -9.999E+003 -9.999E+003 -9.999E+003 -9.999E+003 -9.999E+003 -9.999E+003 -9.999E+003 -9.999E+003 -9.999E+003 -9.999E+003 -9.999E+003 -9.999E+003 -9.999E+003 -9.999E+003 -9.999E+003 -9.999E+003 -9.999E+003 -9.999E+003
 -9.999E+003 -9.999E+003 -9.999E+003 -9.999E+003 -9.999E+003 -9.999E+003 -9.999E+003 -9.999E+003 -9.999E+003 -9.999E+003 -9.999E+003 -9.999E+003 -9.999E+003 -9.999E+003 -9.999E+003 -9.999E+003 -9.999E+003 -9.999E+003 -9.999E+003 -9.999E+003 -9.999E+003 -9.999E+003 -9.999E+003 -9.999E+003 -9.999E+003 -9.999E+003 -9.999E+003 -9.999E+003 -9.999E+003 -9.999E+003 -9.999E+003 -9.999E+003 -9.999E+003 -9.999E+003 -9.999E+003 -9.999E+003 -9.999E+003 -9.999E+003 -9.999E+003 -9.999E+003 -9.999E+003 -9.999E+003 -9.999E+003 -9.999E+003 -9.999E+003 -9.999E+003 -9.999E+003 -9.999E+003 -9.999E+003 -9.999E+003 -9.999E+003 -9.999E+003 -9.999E+003 -9.999E+003 -9.999E+003 -9.999E+003 -9.999E+003 -9.999E+003 -9.999E+003 -9.999E+003 -9.999E+003 -9.999E+003 -9.999E+003 -9.999E+003 -9.999E+003 -9.999E+003 -9.999E+003 -9.999E+003 -9.999E+003 -9.999E+003 -9.999E+003 -9.999E+003 -9.999E+003 -9.999E+003 -9.999E+003 -9.999E+003 -9.999E+003 -9.999E+003 -9.999E+003 -9.999E+003 -9.999E+003 -9.999E+003 -9.999E+003 -9.999E+003 -9.999E+003 -9.999E+003 -9.999E+003 -9.999E+003 -9.999E+003 -9.999E+003 -9.999E+003 -9.999E+003 -9.999E+003 -9.999E+003 -9.999E+003 -9.999E+003 -9.999E+003 -9.999E+003 -9.999E+003 -9.999E+003 -9.999E+003 -9.999E+003 -9.999E+003 -9.999E+003 -9.999E+003 -9.999E+003 -9.999E+003 -9.999E+003 -9.999E+003 -9.999E+003 -9.999E+003 -9.999E+003 -9.999E+003 -9.999E+003 -9.999E+003 -9.999E+003 -9.999E+003 -9.999E+003 -9.999E+003 -9.999E+003 -9.999E+003 -9.999E+003 -9.999E+003 -9.999E+003 -9.999E+003 -9.999E+003 -9.999E+003 -9.999E+003 -9.999E+003 -9.999E+003 -9.999E+003 -9.999E+003 -9.999E+003 -9.999E+003 -9.999E+003 -9.999E+003 -9.999E+003 -9.999E+003 -9.999E+003 -9.999E+003 -9.999E+003 -9.999E+003 -9.999E+003 -9.999E+003 -9.999E+003 -9.999E+003 -9.999E+003 -9.999E+003 -9.999E+003 -9.999E+003
 -9.999E+003 -9.999E+003 -9.999E+003 -9.999E+003 -9.999E+003 -9.999E+003 -9.999E+003 -9.999E+003 -9.999E+003 -9.999E+003 -9.999E+003 -9.999E+003 -9.999E+003 -9.999E+003 -9.999E+003 -9.999E+003 -9.999E+003 -9.999E+003 -9.999E+003 -9.999E+003 -9.999E+003 -9.999E+003 -9.999E+003 -9.999E+003 -9.999E+003 -9.999E+003 -9.999E+003 -9.999E+003 -9.999E+003 -9.999E+003 -9.999E+003 -9.999E+003 -9.999E+003 -9.999E+003 -9.999E+003 -9.999E+003 -9.999E+003 -9.999E+003 -9.999E+003 -9.999E+003 -9.999E+003 -9.999E+003 -9.999E+003 -9.999E+003 -9.999E+003 -9.999E+003 -9.999E+003 -9.999E+003 -9.999E+003 -9.999E+003 -9.999E+003 -9.999E+003 -9.999E+003 -9.999E+003 -9.999E+003 -9.999E+003 -9.999E+003 -9.999E+003 -9.999E+003 -9.999E+003 -9.999E+003 -9.999E+003 -9.999E+003 -9.999E+003 -9.999E+003 -9.999E+003 -9.999E+003 -9.999E+003 -9.999E+003  9.202E-002  3.561E-001  3.668E-001  5.641E-005 -9.999E+003 -9.999E+003 -9.999E+003 -9.999E+003 -9.999E+003 -9.999E+003 -9.999E+003 -9.999E+003 -9.999E+003 -9.999E+003 -9.999E+003 -9.999E+003 -9.999E+003 -9.999E+003 -9.999E+003 -9.999E+003 -9.999E+003 -9.999E+003 -9.999E+003 -9.999E+003 -9.999E+003 -9.999E+003 -9.999E+003 -9.999E+003 -9.999E+003 -9.999E+003 -9.999E+003 -9.999E+003 -9.999E+003 -9.999E+003 -9.999E+003 -9.999E+003 -9.999E+003 -9.999E+003 -9.999E+003 -9.999E+003 -9.999E+003 -9.999E+003 -9.999E+003 -9.999E+003 -9.999E+003 -9.999E+003 -9.999E+003 -9.999E+003 -9.999E+003 -9.999E+003 -9.999E+003 -9.999E+003 -9.999E+003 -9.999E+003 -9.999E+003 -9.999E+003 -9.999E+003 -9.999E+003 -9.999E+003 -9.999E+003 -9.999E+003 -9.999E+003 -9.999E+003 -9.999E+003 -9.999E+003 -9.999E+003 -9.999E+003 -9.999E+003 -9.999E+003 -9.999E+003 -9.999E+003 -9.999E+003 -9.999E+003 -9.999E+003 -9.999E+003 -9.999E+003 -9.999E+003 -9.999E+003 -9.999E+003 -9.999E+003 -9.999E+003
 -9.999E+003 -9.999E+003 -9.999E+003 -9.999E+003 -9.999E+003 -9.999E+003 -9.999E+003 -9.999E+003 -9.999E+003 -9.999E+003 -9.999E+003 -9.999E+003 -9.999E+003 -9.999E+003 -9.999E+003 -9.999E+003 -9.999E+003 -9.999E+003 -9.999E+003 -9.999E+003 -9.999E+003 -9.999E+003 -9.999E+003 -9.999E+003 -9.999E+003 -9.999E+003 -9.999E+003 -9.999E+003 -9.999E+003 -9.999E+003 -9.999E+003 -9.999E+003 -9.999E+003 -9.999E+003 -9.999E+003 -9.999E+003 -9.999E+003 -9.999E+003 -9.999E+003 -9.999E+003 -9.999E+003 -9.999E+003 -9.999E+003 -9.999E+003 -9.999E+003 -9.999E+003 -9.999E+003 -9.999E+003 -9.999E+003 -9.999E+003 -9.999E+003 -9.999E+003 -9.999E+003 -9.999E+003 -9.999E+003 -9.999E+003 -9.999E+003 -9.999E+003 -9.999E+003 -9.999E+003 -9.999E+003 -9.999E+003 -9.999E+003 -9.999E+003 -9.999E+003 -9.999E+003 -9.999E+003 -9.999E+003  1.277E-001  6.420E-001  9.536E-001  9.581E-001  7.394E-001  5.466E-005 -9.999E+003  1.763E-005 -9.999E+003 -9.999E+003 -9.999E+003 -9.999E+003 -9.999E+003 -9.999E+003 -9.999E+003 -9.999E+003 -9.999E+003 -9.999E+003 -9.999E+003 -9.999E+003 -9.999E+003 -9.999E+003 -9.999E+003 -9.999E+003 -9.999E+003 -9.999E+003 -9.999E+003 -9.999E+003 -9.999E+003 -9.999E+003 -9.999E+003 -9.999E+003 -9.999E+003 -9.999E+003 -9.999E+003 -9.999E+003 -9.999E+003 -9.999E+003 -9.999E+003 -9.999E+003 -9.999E+003 -9.999E+003 -9.999E+003 -9.999E+003 -9.999E+003 -9.999E+003 -9.999E+003 -9.999E+003 -9.999E+003 -9.999E+003 -9.999E+003 -9.999E+003 -9.999E+003 -9.999E+003 -9.999E+003 -9.999E+003 -9.999E+003 -9.999E+003 -9.999E+003 -9.999E+003 -9.999E+003 -9.999E+003 -9.999E+003 -9.999E+003 -9.999E+003 -9.999E+003 -9.999E+003 -9.999E+003 -9.999E+003 -9.999E+003 -9.999E+003 -9.999E+003 -9.999E+003 -9.999E+003 -9.999E+003 -9.999E+003 -9.999E+003 -9.999E+003 -9.999E+003 -9.999E+003 -9.999E+003 -9.999E+003
 -9.999E+003 -9.999E+003 -9.999E+003 -9.999E+003 -9.999E+003 -9.999E+003 -9.999E+003 -9.999E+003 -9.999E+003 -9.999E+003 -9.999E+003 -9.999E+003 -9.999E+003 -9.999E+003 -9.999E+003 -9.999E+003 -9.999E+003 -9.999E+003 -9.999E+003 -9.999E+003 -9.999E+003 -9.999E+003 -9.999E+003 -9.999E+003 -9.999E+003 -9.999E+003 -9.999E+003 -9.999E+003 -9.999E+003 -9.999E+003 -9.999E+003 -9.999E+003 -9.999E+003 -9.999E+003 -9.999E+003 -9.999E+003 -9.999E+003 -9.999E+003 -9.999E+003 -9.999E+003 -9.999E+003 -9.999E+003 -9.999E+003 -9.999E+003 -9.999E+003 -9.999E+003 -9.999E+003 -9.999E+003 -9.999E+003 -9.999E+003 -9.999E+003 -9.999E+003 -9.999E+003 -9.999E+003 -9.999E+003 -9.999E+003 -9.999E+003 -9.999E+003 -9.999E+003 -9.999E+003 -9.999E+003 -9.999E+003 -9.999E+003 -9.999E+003 -9.999E+003 -9.999E+003 -9.999E+003 -9.999E+003  7.359E-001  1.166E+000  1.285E+000  1.313E+000  1.225E+000  9.132E-001  5.530E-001  5.020E-002  1.760E-005 -9.999E+003 -9.999E+003 -9.999E+003 -9.999E+003 -9.999E+003 -9.999E+003 -9.999E+003 -9.999E+003 -9.999E+003 -9.999E+003 -9.999E+003 -9.999E+003 -9.999E+003 -9.999E+003 -9.999E+003 -9.999E+003 -9.999E+003 -9.999E+003 -9.999E+003 -9.999E+003 -9.999E+003 -9.999E+003 -9.999E+003 -9.999E+003 -9.999E+003 -9.999E+003 -9.999E+003 -9.999E+003 -9.999E+003 -9.999E+003 -9.999E+003 -9.999E+003 -9.999E+003 -9.999E+003 -9.999E+003 -9.999E+003 -9.999E+003 -9.999E+003 -9.999E+003 -9.999E+003 -9.999E+003 -9.999E+003 -9.999E+003 -9.999E+003 -9.999E+003 -9.999E+003 -9.999E+003 -9.999E+003 -9.999E+003 -9.999E+003 -9.999E+003 -9.999E+003 -9.999E+003 -9.999E+003 -9.999E+003 -9.999E+003 -9.999E+003 -9.999E+003 -9.999E+003 -9.999E+003 -9.999E+003 -9.999E+003 -9.999E+003 -9.999E+003 -9.999E+003 -9.999E+003 -9.999E+003 -9.999E+003 -9.999E+003 -9.999E+003 -9.999E+003 -9.999E+003 -9.999E+003
 -9.999E+003 -9.999E+003 -9.999E+003 -9.999E+003 -9.999E+003 -9.999E+003 -9.999E+003 -9.999E+003 -9.999E+003 -9.999E+003 -9.999E+003 -9.999E+003 -9.999E+003 -9.999E+003 -9.999E+003 -9.999E+003 -9.999E+003 -9.999E+003 -9.999E+003 -9.999E+003 -9.999E+003 -9.999E+003 -9.999E+003 -9.999E+003 -9.999E+003 -9.999E+003 -9.999E+003 -9.999E+003 -9.999E+003 -9.999E+003 -9.999E+003 -9.999E+003 -9.999E+003 -9.999E+003 -9.999E+003 -9.999E+003 -9.999E+003 -9.999E+003 -9.999E+003 -9.999E+003 -9.999E+003 -9.999E+003 -9.999E+003 -9.999E+003 -9.999E+003 -9.999E+003 -9.999E+003 -9.999E+003 -9.999E+003 -9.999E+003 -9.999E+003 -9.999E+003 -9.999E+003 -9.999E+003 -9.999E+003 -9.999E+003 -9.999E+003 -9.999E+003 -9.999E+003 -9.999E+003 -9.999E+003 -9.999E+003 -9.999E+003 -9.999E+003 -9.999E+003 -9.999E+003 -9.999E+003  2.669E-001  8.693E-001  1.322E+000  1.402E+000  1.386E+000  1.423E+000  1.479E+000  1.019E+000  3.593E-001  1.150E-002 -9.999E+003 -9.999E+003 -9.999E+003 -9.999E+003 -9.999E+003 -9.999E+003 -9.999E+003 -9.999E+003 -9.999E+003 -9.999E+003 -9.999E+003 -9.999E+003 -9.999E+003 -9.999E+003 -9.999E+003 -9.999E+003 -9.999E+003 -9.999E+003 -9.999E+003 -9.999E+003 -9.999E+003 -9.999E+003 -9.999E+003 -9.999E+003 -9.999E+003 -9.999E+003 -9.999E+003 -9.999E+003 -9.999E+003 -9.999E+003 -9.999E+003 -9.999E+003 -9.999E+003 -9.999E+003 -9.999E+003 -9.999E+003 -9.999E+003 -9.999E+003 -9.999E+003 -9.999E+003 -9.999E+003 -9.999E+003 -9.999E+003 -9.999E+003 -9.999E+003 -9.999E+003 -9.999E+003 -9.999E+003 -9.999E+003 -9.999E+003 -9.999E+003 -9.999E+003 -9.999E+003 -9.999E+003 -9.999E+003 -9.999E+003 -9.999E+003 -9.999E+003 -9.999E+003 -9.999E+003 -9.999E+003 -9.999E+003 -9.999E+003 -9.999E+003 -9.999E+003 -9.999E+003 -9.999E+003 -9.999E+003 -9.999E+003 -9.999E+003 -9.999E+003 -9.999E+003 -9.999E+003
 -9.999E+003 -9.999E+003 -9.999E+003 -9.999E+003 -9.999E+003 -9.999E+003 -9.999E+003 -9.999E+003 -9.999E+003 -9.999E+003 -9.999E+003 -9.999E+003 -9.999E+003 -9.999E+003 -9.999E+003 -9.999E+003 -9.999E+003 -9.999E+003 -9.999E+003 -9.999E+003 -9.999E+003 -9.999E+003 -9.999E+003 -9.999E+003 -9.999E+003 -9.999E+003 -9.999E+003 -9.999E+003 -9.999E+003 -9.999E+003 -9.999E+003 -9.999E+003 -9.999E+003 -9.999E+003 -9.999E+003 -9.999E+003 -9.999E+003 -9.999E+003 -9.999E+003 -9.999E+003 -9.999E+003 -9.999E+003 -9.999E+003 -9.999E+003 -9.999E+003 -9.999E+003 -9.999E+003 -9.999E+003 -9.999E+003 -9.999E+003 -9.999E+003 -9.999E+003 -9.999E+003 -9.999E+003 -9.999E+003 -9.999E+003 -9.999E+003 -9.999E+003 -9.999E+003 -9.999E+003 -9.999E+003 -9.999E+003 -9.999E+003 -9.999E+003 -9.999E+003 -9.999E+003  9.149E-005  3.295E-001  9.010E-001  1.345E+000  1.456E+000  1.448E+000  1.585E+000  1.775E+000  1.256E+000  4.508E-001  1.306E-001 -9.999E+003 -9.999E+003 -9.999E+003 -9.999E+003 -9.999E+003 -9.999E+003 -9.999E+003 -9.999E+003 -9.999E+003 -9.999E+003 -9.999E+003 -9.999E+003 -9.999E+003 -9.999E+003 -9.999E+003 -9.999E+003 -9.999E+003 -9.999E+003 -9.999E+003 -9.999E+003 -9.999E+003 -9.999E+003 -9.999E+003 -9.999E+003 -9.999E+003 -9.999E+003 -9.999E+003 -9.999E+003 -9.999E+003 -9.999E+003 -9.999E+003 -9.999E+003 -9.999E+003 -9.999E+003 -9.999E+003 -9.999E+003 -9.999E+003 -9.999E+003 -9.999E+003 -9.999E+003 -9.999E+003 -9.999E+003 -9.999E+003 -9.999E+003 -9.999E+003 -9.999E+003 -9.999E+003 -9.999E+003 -9.999E+003 -9.999E+003 -9.999E+003 -9.999E+003 -9.999E+003 -9.999E+003 -9.999E+003 -9.999E+003 -9.999E+003 -9.999E+003 -9.999E+003 -9.999E+003 -9.999E+003 -9.999E+003 -9.999E+003 -9.999E+003 -9.999E+003 -9.999E+003 -9.999E+003 -9.999E+003 -9.999E+003 -9.999E+003 -9.999E+003 -9.999E+003 -9.999E+003
 -9.999E+003 -9.999E+003 -9.999E+003 -9.999E+003 -9.999E+003 -9.999E+003 -9.999E+003 -9.999E+003 -9.999E+003 -9.999E+003 -9.999E+003 -9.999E+003 -9.999E+003 -9.999E+003 -9.999E+003 -9.999E+003 -9.999E+003 -9.999E+003 -9.999E+003 -9.999E+003 -9.999E+003 -9.999E+003 -9.999E+003 -9.999E+003 -9.999E+003 -9.999E+003 -9.999E+003 -9.999E+003 -9.999E+003 -9.999E+003 -9.999E+003 -9.999E+003 -9.999E+003 -9.999E+003 -9.999E+003 -9.999E+003 -9.999E+003 -9.999E+003 -9.999E+003 -9.999E+003 -9.999E+003 -9.999E+003 -9.999E+003 -9.999E+003 -9.999E+003 -9.999E+003 -9.999E+003 -9.999E+003 -9.999E+003 -9.999E+003 -9.999E+003 -9.999E+003 -9.999E+003 -9.999E+003 -9.999E+003 -9.999E+003 -9.999E+003 -9.999E+003 -9.999E+003 -9.999E+003 -9.999E+003 -9.999E+003 -9.999E+003 -9.999E+003 -9.999E+003 -9.999E+003 -9.999E+003  2.635E-002  8.961E-001  1.260E+000  1.418E+000  1.485E+000  1.679E+000  1.801E+000  1.112E+000  3.964E-001 -9.999E+003 -9.999E+003 -9.999E+003 -9.999E+003 -9.999E+003 -9.999E+003 -9.999E+003 -9.999E+003 -9.999E+003 -9.999E+003 -9.999E+003 -9.999E+003 -9.999E+003 -9.999E+003 -9.999E+003 -9.999E+003 -9.999E+003 -9.999E+003 -9.999E+003 -9.999E+003 -9.999E+003 -9.999E+003 -9.999E+003 -9.999E+003 -9.999E+003 -9.999E+003 -9.999E+003 -9.999E+003 -9.999E+003 -9.999E+003 -9.999E+003 -9.999E+003 -9.999E+003 -9.999E+003 -9.999E+003 -9.999E+003 -9.999E+003 -9.999E+003 -9.999E+003 -9.999E+003 -9.999E+003 -9.999E+003 -9.999E+003 -9.999E+003 -9.999E+003 -9.999E+003 -9.999E+003 -9.999E+003 -9.999E+003 -9.999E+003 -9.999E+003 -9.999E+003 -9.999E+003 -9.999E+003 -9.999E+003 -9.999E+003 -9.999E+003 -9.999E+003 -9.999E+003 -9.999E+003 -9.999E+003 -9.999E+003 -9.999E+003 -9.999E+003 -9.999E+003 -9.999E+003 -9.999E+003 -9.999E+003 -9.999E+003 -9.999E+003 -9.999E+003 -9.999E+003 -9.999E+003 -9.999E+003
 -9.999E+003 -9.999E+003 -9.999E+003 -9.999E+003 -9.999E+003 -9.999E+003 -9.999E+003 -9.999E+003 -9.999E+003 -9.999E+003 -9.999E+003 -9.999E+003 -9.999E+003 -9.999E+003 -9.999E+003 -9.999E+003 -9.999E+003 -9.999E+003 -9.999E+003 -9.999E+003 -9.999E+003 -9.999E+003 -9.999E+003 -9.999E+003 -9.999E+003 -9.999E+003 -9.999E+003 -9.999E+003 -9.999E+003 -9.999E+003 -9.999E+003 -9.999E+003 -9.999E+003 -9.999E+003 -9.999E+003 -9.999E+003 -9.999E+003 -9.999E+003 -9.999E+003 -9.999E+003 -9.999E+003 -9.999E+003 -9.999E+003 -9.999E+003 -9.999E+003 -9.999E+003 -9.999E+003 -9.999E+003 -9.999E+003 -9.999E+003 -9.999E+003 -9.999E+003 -9.999E+003 -9.999E+003 -9.999E+003 -9.999E+003 -9.999E+003 -9.999E+003 -9.999E+003 -9.999E+003 -9.999E+003 -9.999E+003 -9.999E+003 -9.999E+003 -9.999E+003 -9.999E+003 -9.999E+003  1.549E-002  6.915E-001  1.123E+000  1.355E+000  1.484E+000  1.584E+000  1.415E+000  8.166E-001  3.056E-001 -9.999E+003 -9.999E+003 -9.999E+003 -9.999E+003 -9.999E+003 -9.999E+003 -9.999E+003 -9.999E+003 -9.999E+003 -9.999E+003 -9.999E+003 -9.999E+003 -9.999E+003 -9.999E+003 -9.999E+003 -9.999E+003 -9.999E+003 -9.999E+003 -9.999E+003 -9.999E+003 -9.999E+003 -9.999E+003 -9.999E+003 -9.999E+003 -9.999E+003 -9.999E+003 -9.999E+003 -9.999E+003 -9.999E+003 -9.999E+003 -9.999E+003 -9.999E+003 -9.999E+003 -9.999E+003 -9.999E+003 -9.999E+003 -9.999E+003 -9.999E+003 -9.999E+003 -9.999E+003 -9.999E+003 -9.999E+003 -9.999E+003 -9.999E+003 -9.999E+003 -9.999E+003 -9.999E+003 -9.999E+003 -9.999E+003 -9.999E+003 -9.999E+003 -9.999E+003 -9.999E+003 -9.999E+003 -9.999E+003 -9.999E+003 -9.999E+003 -9.999E+003 -9.999E+003 -9.999E+003 -9.999E+003 -9.999E+003 -9.999E+003 -9.999E+003 -9.999E+003 -9.999E+003 -9.999E+003 -9.999E+003 -9.999E+003 -9.999E+003 -9.999E+003 -9.999E+003 -9.999E+003 -9.999E+003
 -9.999E+003 -9.999E+003 -9.999E+003 -9.999E+003 -9.999E+003 -9.999E+003 -9.999E+003 -9.999E+003 -9.999E+003 -9.999E+003 -9.999E+003 -9.999E+003 -9.999E+003 -9.999E+003 -9.999E+003 -9.999E+003 -9.999E+003 -9.999E+003 -9.999E+003 -9.999E+003 -9.999E+003 -9.999E+003 -9.999E+003 -9.999E+003 -9.999E+003 -9.999E+003 -9.999E+003 -9.999E+003 -9.999E+003 -9.999E+003 -9.999E+003 -9.999E+003 -9.999E+003 -9.999E+003 -9.999E+003 -9.999E+003 -9.999E+003 -9.999E+003 -9.999E+003 -9.999E+003 -9.999E+003 -9.999E+003 -9.999E+003 -9.999E+003 -9.999E+003 -9.999E+003 -9.999E+003 -9.999E+003 -9.999E+003 -9.999E+003 -9.999E+003 -9.999E+003 -9.999E+003 -9.999E+003 -9.999E+003 -9.999E+003 -9.999E+003 -9.999E+003 -9.999E+003 -9.999E+003 -9.999E+003 -9.999E+003 -9.999E+003 -9.999E+003 -9.999E+003 -9.999E+003 -9.999E+003  1.200E-002  5.990E-001  1.051E+000  1.347E+000  1.478E+000  1.439E+000  1.175E+000  6.980E-001 -9.999E+003 -9.999E+003 -9.999E+003 -9.999E+003 -9.999E+003 -9.999E+003 -9.999E+003 -9.999E+003 -9.999E+003 -9.999E+003 -9.999E+003 -9.999E+003 -9.999E+003 -9.999E+003 -9.999E+003 -9.999E+003 -9.999E+003 -9.999E+003 -9.999E+003 -9.999E+003 -9.999E+003 -9.999E+003 -9.999E+003 -9.999E+003 -9.999E+003 -9.999E+003 -9.999E+003 -9.999E+003 -9.999E+003 -9.999E+003 -9.999E+003 -9.999E+003 -9.999E+003 -9.999E+003 -9.999E+003 -9.999E+003 -9.999E+003 -9.999E+003 -9.999E+003 -9.999E+003 -9.999E+003 -9.999E+003 -9.999E+003 -9.999E+003 -9.999E+003 -9.999E+003 -9.999E+003 -9.999E+003 -9.999E+003 -9.999E+003 -9.999E+003 -9.999E+003 -9.999E+003 -9.999E+003 -9.999E+003 -9.999E+003 -9.999E+003 -9.999E+003 -9.999E+003 -9.999E+003 -9.999E+003 -9.999E+003 -9.999E+003 -9.999E+003 -9.999E+003 -9.999E+003 -9.999E+003 -9.999E+003 -9.999E+003 -9.999E+003 -9.999E+003 -9.999E+003 -9.999E+003 -9.999E+003 -9.999E+003
 -9.999E+003 -9.999E+003 -9.999E+003 -9.999E+003 -9.999E+003 -9.999E+003 -9.999E+003 -9.999E+003 -9.999E+003 -9.999E+003 -9.999E+003 -9.999E+003 -9.999E+003 -9.999E+003 -9.999E+003 -9.999E+003 -9.999E+003 -9.999E+003 -9.999E+003 -9.999E+003 -9.999E+003 -9.999E+003 -9.999E+003 -9.999E+003 -9.999E+003 -9.999E+003 -9.999E+003 -9.999E+003 -9.999E+003 -9.999E+003 -9.999E+003 -9.999E+003 -9.999E+003 -9.999E+003 -9.999E+003 -9.999E+003 -9.999E+003 -9.999E+003 -9.999E+003 -9.999E+003 -9.999E+003 -9.999E+003 -9.999E+003 -9.999E+003 -9.999E+003 -9.999E+003 -9.999E+003 -9.999E+003 -9.999E+003 -9.999E+003 -9.999E+003 -9.999E+003 -9.999E+003 -9.999E+003 -9.999E+003 -9.999E+003 -9.999E+003 -9.999E+003 -9.999E+003 -9.999E+003 -9.999E+003 -9.999E+003 -9.999E+003 -9.999E+003 -9.999E+003 -9.999E+003 -9.999E+003  1.354E-004  6.244E-001  1.119E+000  1.465E+000  1.604E+000  1.502E+000  1.251E+000  8.976E-001 -9.999E+003 -9.999E+003 -9.999E+003 -9.999E+003 -9.999E+003 -9.999E+003 -9.999E+003 -9.999E+003 -9.999E+003 -9.999E+003 -9.999E+003 -9.999E+003 -9.999E+003 -9.999E+003 -9.999E+003 -9.999E+003 -9.999E+003 -9.999E+003 -9.999E+003 -9.999E+003 -9.999E+003 -9.999E+003 -9.999E+003 -9.999E+003 -9.999E+003 -9.999E+003 -9.999E+003 -9.999E+003 -9.999E+003 -9.999E+003 -9.999E+003 -9.999E+003 -9.999E+003 -9.999E+003 -9.999E+003 -9.999E+003 -9.999E+003 -9.999E+003 -9.999E+003 -9.999E+003 -9.999E+003 -9.999E+003 -9.999E+003 -9.999E+003 -9.999E+003 -9.999E+003 -9.999E+003 -9.999E+003 -9.999E+003 -9.999E+003 -9.999E+003 -9.999E+003 -9.999E+003 -9.999E+003 -9.999E+003 -9.999E+003 -9.999E+003 -9.999E+003 -9.999E+003 -9.999E+003 -9.999E+003 -9.999E+003 -9.999E+003 -9.999E+003 -9.999E+003 -9.999E+003 -9.999E+003 -9.999E+003 -9.999E+003 -9.999E+003 -9.999E+003 -9.999E+003 -9.999E+003 -9.999E+003 -9.999E+003
 -9.999E+003 -9.999E+003 -9.999E+003 -9.999E+003 -9.999E+003 -9.999E+003 -9.999E+003 -9.999E+003 -9.999E+003 -9.999E+003 -9.999E+003 -9.999E+003 -9.999E+003 -9.999E+003 -9.999E+003 -9.999E+003 -9.999E+003 -9.999E+003 -9.999E+003 -9.999E+003 -9.999E+003 -9.999E+003 -9.999E+003 -9.999E+003 -9.999E+003 -9.999E+003 -9.999E+003 -9.999E+003 -9.999E+003 -9.999E+003 -9.999E+003 -9.999E+003 -9.999E+003 -9.999E+003 -9.999E+003 -9.999E+003 -9.999E+003 -9.999E+003 -9.999E+003 -9.999E+003 -9.999E+003 -9.999E+003 -9.999E+003 -9.999E+003 -9.999E+003 -9.999E+003 -9.999E+003 -9.999E+003 -9.999E+003 -9.999E+003 -9.999E+003 -9.999E+003 -9.999E+003 -9.999E+003 -9.999E+003 -9.999E+003 -9.999E+003 -9.999E+003 -9.999E+003 -9.999E+003 -9.999E+003 -9.999E+003 -9.999E+003 -9.999E+003 -9.999E+003 -9.999E+003 -9.999E+003 -9.999E+003  6.845E-001  1.211E+000  1.572E+000  1.717E+000  1.615E+000  1.419E+000  1.130E+000  6.523E-001 -9.999E+003 -9.999E+003 -9.999E+003 -9.999E+003 -9.999E+003 -9.999E+003 -9.999E+003 -9.999E+003 -9.999E+003 -9.999E+003 -9.999E+003 -9.999E+003 -9.999E+003 -9.999E+003 -9.999E+003 -9.999E+003 -9.999E+003 -9.999E+003 -9.999E+003  1.039E-004 -9.999E+003 -9.999E+003 -9.999E+003 -9.999E+003 -9.999E+003 -9.999E+003 -9.999E+003 -9.999E+003 -9.999E+003 -9.999E+003 -9.999E+003 -9.999E+003 -9.999E+003 -9.999E+003 -9.999E+003 -9.999E+003 -9.999E+003 -9.999E+003 -9.999E+003 -9.999E+003 -9.999E+003 -9.999E+003 -9.999E+003 -9.999E+003 -9.999E+003 -9.999E+003 -9.999E+003 -9.999E+003 -9.999E+003 -9.999E+003 -9.999E+003 -9.999E+003 -9.999E+003 -9.999E+003 -9.999E+003 -9.999E+003 -9.999E+003 -9.999E+003 -9.999E+003 -9.999E+003 -9.999E+003 -9.999E+003 -9.999E+003 -9.999E+003 -9.999E+003 -9.999E+003 -9.999E+003 -9.999E+003 -9.999E+003 -9.999E+003 -9.999E+003 -9.999E+003 -9.999E+003 -9.999E+003
 -9.999E+003 -9.999E+003 -9.999E+003 -9.999E+003 -9.999E+003 -9.999E+003 -9.999E+003 -9.999E+003 -9.999E+003 -9.999E+003 -9.999E+003 -9.999E+003 -9.999E+003 -9.999E+003 -9.999E+003 -9.999E+003 -9.999E+003 -9.999E+003 -9.999E+003 -9.999E+003 -9.999E+003 -9.999E+003 -9.999E+003 -9.999E+003 -9.999E+003 -9.999E+003 -9.999E+003 -9.999E+003 -9.999E+003 -9.999E+003 -9.999E+003 -9.999E+003 -9.999E+003 -9.999E+003 -9.999E+003 -9.999E+003 -9.999E+003 -9.999E+003 -9.999E+003 -9.999E+003 -9.999E+003 -9.999E+003 -9.999E+003 -9.999E+003 -9.999E+003 -9.999E+003 -9.999E+003 -9.999E+003 -9.999E+003 -9.999E+003 -9.999E+003 -9.999E+003 -9.999E+003 -9.999E+003 -9.999E+003 -9.999E+003 -9.999E+003 -9.999E+003 -9.999E+003 -9.999E+003 -9.999E+003 -9.999E+003 -9.999E+003 -9.999E+003 -9.999E+003 -9.999E+003 -9.999E+003 -9.999E+003  9.823E-005  1.242E+000  1.584E+000  1.738E+000  1.630E+000  1.463E+000  1.249E+000  8.260E-001  9.708E-005  1.167E-004  1.098E-001 -9.999E+003 -9.999E+003 -9.999E+003 -9.999E+003 -9.999E+003 -9.999E+003 -9.999E+003 -9.999E+003 -9.999E+003 -9.999E+003 -9.999E+003 -9.999E+003 -9.999E+003  3.824E-005 -9.999E+003  1.398E-001  1.745E-001  1.246E-003 -9.999E+003 -9.999E+003 -9.999E+003 -9.999E+003 -9.999E+003 -9.999E+003 -9.999E+003 -9.999E+003 -9.999E+003 -9.999E+003 -9.999E+003 -9.999E+003 -9.999E+003 -9.999E+003 -9.999E+003 -9.999E+003 -9.999E+003 -9.999E+003 -9.999E+003 -9.999E+003 -9.999E+003 -9.999E+003 -9.999E+003 -9.999E+003 -9.999E+003 -9.999E+003 -9.999E+003 -9.999E+003 -9.999E+003 -9.999E+003 -9.999E+003 -9.999E+003 -9.999E+003 -9.999E+003 -9.999E+003 -9.999E+003 -9.999E+003 -9.999E+003 -9.999E+003 -9.999E+003 -9.999E+003 -9.999E+003 -9.999E+003 -9.999E+003 -9.999E+003 -9.999E+003 -9.999E+003 -9.999E+003 -9.999E+003 -9.999E+003 -9.999E+003 -9.999E+003 -9.999E+003
 -9.999E+003 -9.999E+003 -9.999E+003 -9.999E+003 -9.999E+003 -9.999E+003 -9.999E+003 -9.999E+003 -9.999E+003 -9.999E+003 -9.999E+003 -9.999E+003 -9.999E+003 -9.999E+003 -9.999E+003 -9.999E+003 -9.999E+003 -9.999E+003 -9.999E+003 -9.999E+003 -9.999E+003 -9.999E+003 -9.999E+003 -9.999E+003 -9.999E+003 -9.999E+003 -9.999E+003 -9.999E+003 -9.999E+003 -9.999E+003 -9.999E+003 -9.999E+003 -9.999E+003 -9.999E+003 -9.999E+003 -9.999E+003 -9.999E+003 -9.999E+003 -9.999E+003 -9.999E+003 -9.999E+003 -9.999E+003 -9.999E+003 -9.999E+003 -9.999E+003 -9.999E+003 -9.999E+003 -9.999E+003 -9.999E+003 -9.999E+003 -9.999E+003 -9.999E+003 -9.999E+003 -9.999E+003 -9.999E+003 -9.999E+003 -9.999E+003 -9.999E+003 -9.999E+003 -9.999E+003 -9.999E+003 -9.999E+003 -9.999E+003 -9.999E+003 -9.999E+003 -9.999E+003 -9.999E+003 -9.999E+003 -9.999E+003  1.059E+000  1.339E+000  1.477E+000  1.354E+000  1.168E+000  1.016E+000  8.455E-001  6.642E-001  5.366E-001  2.574E-001  4.941E-002 -9.999E+003 -9.999E+003 -9.999E+003 -9.999E+003 -9.999E+003 -9.999E+003 -9.999E+003 -9.999E+003 -9.999E+003 -9.999E+003 -9.999E+003  1.044E-004  6.481E-001  7.996E-001  8.973E-001  7.823E-001  3.016E-001  5.813E-004 -9.999E+003 -9.999E+003 -9.999E+003 -9.999E+003 -9.999E+003 -9.999E+003 -9.999E+003 -9.999E+003 -9.999E+003 -9.999E+003 -9.999E+003 -9.999E+003 -9.999E+003 -9.999E+003 -9.999E+003 -9.999E+003 -9.999E+003 -9.999E+003 -9.999E+003 -9.999E+003 -9.999E+003 -9.999E+003 -9.999E+003 -9.999E+003 -9.999E+003 -9.999E+003 -9.999E+003 -9.999E+003 -9.999E+003 -9.999E+003 -9.999E+003 -9.999E+003 -9.999E+003 -9.999E+003 -9.999E+003 -9.999E+003 -9.999E+003 -9.999E+003 -9.999E+003 -9.999E+003 -9.999E+003 -9.999E+003 -9.999E+003 -9.999E+003 -9.999E+003 -9.999E+003 -9.999E+003 -9.999E+003 -9.999E+003 -9.999E+003 -9.999E+003 -9.999E+003
 -9.999E+003 -9.999E+003 -9.999E+003 -9.999E+003 -9.999E+003 -9.999E+003 -9.999E+003 -9.999E+003 -9.999E+003 -9.999E+003 -9.999E+003 -9.999E+003 -9.999E+003 -9.999E+003 -9.999E+003 -9.999E+003 -9.999E+003 -9.999E+003 -9.999E+003 -9.999E+003 -9.999E+003 -9.999E+003 -9.999E+003 -9.999E+003 -9.999E+003 -9.999E+003 -9.999E+003 -9.999E+003 -9.999E+003 -9.999E+003 -9.999E+003 -9.999E+003 -9.999E+003 -9.999E+003 -9.999E+003 -9.999E+003 -9.999E+003 -9.999E+003 -9.999E+003 -9.999E+003 -9.999E+003 -9.999E+003 -9.999E+003 -9.999E+003 -9.999E+003 -9.999E+003 -9.999E+003 -9.999E+003 -9.999E+003 -9.999E+003 -9.999E+003 -9.999E+003 -9.999E+003 -9.999E+003 -9.999E+003 -9.999E+003 -9.999E+003 -9.999E+003 -9.999E+003 -9.999E+003 -9.999E+003 -9.999E+003 -9.999E+003 -9.999E+003 -9.999E+003 -9.999E+003 -9.999E+003 -9.999E+003 -9.999E+003  7.981E-001  9.854E-001  1.094E+000  1.055E+000  9.364E-001  8.444E-001  8.278E-001  8.200E-001  6.687E-001  2.678E-001  5.860E-002  1.736E-003 -9.999E+003 -9.999E+003 -9.999E+003 -9.999E+003 -9.999E+003 -9.999E+003 -9.999E+003 -9.999E+003 -9.999E+003  9.364E-005  6.984E-001  1.180E+000  1.367E+000  1.376E+000  1.249E+000  9.397E-001 -9.999E+003 -9.999E+003 -9.999E+003 -9.999E+003 -9.999E+003 -9.999E+003 -9.999E+003 -9.999E+003 -9.999E+003 -9.999E+003 -9.999E+003 -9.999E+003 -9.999E+003 -9.999E+003 -9.999E+003 -9.999E+003 -9.999E+003 -9.999E+003 -9.999E+003 -9.999E+003 -9.999E+003 -9.999E+003 -9.999E+003 -9.999E+003 -9.999E+003 -9.999E+003 -9.999E+003 -9.999E+003 -9.999E+003 -9.999E+003 -9.999E+003 -9.999E+003 -9.999E+003 -9.999E+003 -9.999E+003 -9.999E+003 -9.999E+003 -9.999E+003 -9.999E+003 -9.999E+003 -9.999E+003 -9.999E+003 -9.999E+003 -9.999E+003 -9.999E+003 -9.999E+003 -9.999E+003 -9.999E+003 -9.999E+003 -9.999E+003 -9.999E+003 -9.999E+003 -9.999E+003
 -9.999E+003 -9.999E+003 -9.999E+003 -9.999E+003 -9.999E+003 -9.999E+003 -9.999E+003 -9.999E+003 -9.999E+003 -9.999E+003 -9.999E+003 -9.999E+003 -9.999E+003 -9.999E+003 -9.999E+003 -9.999E+003 -9.999E+003 -9.999E+003 -9.999E+003 -9.999E+003 -9.999E+003 -9.999E+003 -9.999E+003 -9.999E+003 -9.999E+003 -9.999E+003 -9.999E+003 -9.999E+003 -9.999E+003 -9.999E+003 -9.999E+003 -9.999E+003 -9.999E+003 -9.999E+003 -9.999E+003 -9.999E+003 -9.999E+003 -9.999E+003 -9.999E+003 -9.999E+003 -9.999E+003 -9.999E+003 -9.999E+003 -9.999E+003 -9.999E+003 -9.999E+003 -9.999E+003 -9.999E+003 -9.999E+003 -9.999E+003 -9.999E+003 -9.999E+003 -9.999E+003 -9.999E+003 -9.999E+003 -9.999E+003 -9.999E+003 -9.999E+003 -9.999E+003 -9.999E+003 -9.999E+003 -9.999E+003 -9.999E+003 -9.999E+003 -9.999E+003 -9.999E+003 -9.999E+003 -9.999E+003  2.787E-005  4.660E-001  7.946E-001  1.003E+000  1.041E+000  9.658E-001  8.906E-001  8.903E-001  9.023E-001  5.723E-001  1.747E-001  5.373E-002 -9.999E+003 -9.999E+003 -9.999E+003 -9.999E+003 -9.999E+003 -9.999E+003 -9.999E+003 -9.999E+003 -9.999E+003 -9.999E+003 -9.999E+003  2.206E-001  1.455E+000  1.590E+000  1.579E+000  1.399E+000  2.055E-001  1.419E-003 -9.999E+003 -9.999E+003 -9.999E+003 -9.999E+003 -9.999E+003 -9.999E+003 -9.999E+003 -9.999E+003 -9.999E+003 -9.999E+003 -9.999E+003 -9.999E+003 -9.999E+003 -9.999E+003 -9.999E+003 -9.999E+003 -9.999E+003 -9.999E+003 -9.999E+003 -9.999E+003 -9.999E+003 -9.999E+003 -9.999E+003 -9.999E+003 -9.999E+003 -9.999E+003 -9.999E+003 -9.999E+003 -9.999E+003 -9.999E+003 -9.999E+003 -9.999E+003 -9.999E+003 -9.999E+003 -9.999E+003 -9.999E+003 -9.999E+003 -9.999E+003 -9.999E+003 -9.999E+003 -9.999E+003 -9.999E+003 -9.999E+003 -9.999E+003 -9.999E+003 -9.999E+003 -9.999E+003 -9.999E+003 -9.999E+003 -9.999E+003 -9.999E+003 -9.999E+003
 -9.999E+003 -9.999E+003 -9.999E+003 -9.999E+003 -9.999E+003 -9.999E+003 -9.999E+003 -9.999E+003 -9.999E+003 -9.999E+003 -9.999E+003 -9.999E+003 -9.999E+003 -9.999E+003 -9.999E+003 -9.999E+003 -9.999E+003 -9.999E+003 -9.999E+003 -9.999E+003 -9.999E+003 -9.999E+003 -9.999E+003 -9.999E+003 -9.999E+003 -9.999E+003 -9.999E+003 -9.999E+003 -9.999E+003 -9.999E+003 -9.999E+003 -9.999E+003 -9.999E+003 -9.999E+003 -9.999E+003 -9.999E+003 -9.999E+003 -9.999E+003 -9.999E+003 -9.999E+003 -9.999E+003 -9.999E+003 -9.999E+003 -9.999E+003 -9.999E+003 -9.999E+003 -9.999E+003 -9.999E+003 -9.999E+003 -9.999E+003 -9.999E+003 -9.999E+003 -9.999E+003 -9.999E+003 -9.999E+003 -9.999E+003 -9.999E+003 -9.999E+003 -9.999E+003 -9.999E+003 -9.999E+003 -9.999E+003 -9.999E+003 -9.999E+003 -9.999E+003 -9.999E+003 -9.999E+003 -9.999E+003 -9.999E+003  4.002E-001  7.274E-001  9.913E-001  1.095E+000  1.078E+000  1.010E+000  9.504E-001  7.906E-001  3.818E-001  1.054E-001  3.603E-002 -9.999E+003 -9.999E+003 -9.999E+003 -9.999E+003 -9.999E+003 -9.999E+003 -9.999E+003 -9.999E+003 -9.999E+003 -9.999E+003  1.469E-003  1.230E+000  1.480E+000  1.578E+000  1.539E+000  1.309E+000  8.346E-001 -9.999E+003 -9.999E+003 -9.999E+003 -9.999E+003 -9.999E+003 -9.999E+003 -9.999E+003 -9.999E+003 -9.999E+003 -9.999E+003 -9.999E+003 -9.999E+003 -9.999E+003 -9.999E+003 -9.999E+003 -9.999E+003 -9.999E+003 -9.999E+003 -9.999E+003 -9.999E+003 -9.999E+003 -9.999E+003 -9.999E+003 -9.999E+003 -9.999E+003 -9.999E+003 -9.999E+003 -9.999E+003 -9.999E+003 -9.999E+003 -9.999E+003 -9.999E+003 -9.999E+003 -9.999E+003 -9.999E+003 -9.999E+003 -9.999E+003 -9.999E+003 -9.999E+003 -9.999E+003 -9.999E+003 -9.999E+003 -9.999E+003 -9.999E+003 -9.999E+003 -9.999E+003 -9.999E+003 -9.999E+003 -9.999E+003 -9.999E+003 -9.999E+003 -9.999E+003 -9.999E+003
 -9.999E+003 -9.999E+003 -9.999E+003 -9.999E+003 -9.999E+003 -9.999E+003 -9.999E+003 -9.999E+003 -9.999E+003 -9.999E+003 -9.999E+003 -9.999E+003 -9.999E+003 -9.999E+003 -9.999E+003 -9.999E+003 -9.999E+003 -9.999E+003 -9.999E+003 -9.999E+003 -9.999E+003 -9.999E+003 -9.999E+003 -9.999E+003 -9.999E+003 -9.999E+003 -9.999E+003 -9.999E+003 -9.999E+003 -9.999E+003 -9.999E+003 -9.999E+003 -9.999E+003 -9.999E+003 -9.999E+003 -9.999E+003 -9.999E+003 -9.999E+003 -9.999E+003 -9.999E+003 -9.999E+003 -9.999E+003 -9.999E+003 -9.999E+003 -9.999E+003 -9.999E+003 -9.999E+003 -9.999E+003 -9.999E+003 -9.999E+003 -9.999E+003 -9.999E+003 -9.999E+003 -9.999E+003 -9.999E+003 -9.999E+003 -9.999E+003 -9.999E+003 -9.999E+003 -9.999E+003 -9.999E+003 -9.999E+003 -9.999E+003 -9.999E+003 -9.999E+003 -9.999E+003 -9.999E+003 -9.999E+003 -9.999E+003 -9.999E+003  6.050E-001  9.262E-001  1.140E+000  1.217E+000  1.177E+000  1.030E+000  7.094E-001  2.981E-001  7.490E-002 -9.999E+003 -9.999E+003 -9.999E+003 -9.999E+003 -9.999E+003 -9.999E+003 -9.999E+003 -9.999E+003 -9.999E+003 -9.999E+003 -9.999E+003 -9.999E+003  1.262E+000  1.397E+000  1.445E+000  1.353E+000  1.121E+000  6.863E-001  3.179E-004 -9.999E+003 -9.999E+003 -9.999E+003 -9.999E+003 -9.999E+003 -9.999E+003 -9.999E+003 -9.999E+003 -9.999E+003 -9.999E+003 -9.999E+003 -9.999E+003 -9.999E+003 -9.999E+003 -9.999E+003 -9.999E+003 -9.999E+003 -9.999E+003 -9.999E+003 -9.999E+003 -9.999E+003 -9.999E+003 -9.999E+003 -9.999E+003 -9.999E+003 -9.999E+003 -9.999E+003 -9.999E+003 -9.999E+003 -9.999E+003 -9.999E+003 -9.999E+003 -9.999E+003 -9.999E+003 -9.999E+003 -9.999E+003 -9.999E+003 -9.999E+003 -9.999E+003 -9.999E+003 -9.999E+003 -9.999E+003 -9.999E+003 -9.999E+003 -9.999E+003 -9.999E+003 -9.999E+003 -9.999E+003 -9.999E+003 -9.999E+003 -9.999E+003 -9.999E+003
 -9.999E+003 -9.999E+003 -9.999E+003 -9.999E+003 -9.999E+003 -9.999E+003 -9.999E+003 -9.999E+003 -9.999E+003 -9.999E+003 -9.999E+003 -9.999E+003 -9.999E+003 -9.999E+003 -9.999E+003 -9.999E+003 -9.999E+003 -9.999E+003 -9.999E+003 -9.999E+003 -9.999E+003 -9.999E+003 -9.999E+003 -9.999E+003 -9.999E+003 -9.999E+003 -9.999E+003 -9.999E+003 -9.999E+003 -9.999E+003 -9.999E+003 -9.999E+003 -9.999E+003 -9.999E+003 -9.999E+003 -9.999E+003 -9.999E+003 -9.999E+003 -9.999E+003 -9.999E+003 -9.999E+003 -9.999E+003 -9.999E+003 -9.999E+003 -9.999E+003 -9.999E+003 -9.999E+003 -9.999E+003 -9.999E+003 -9.999E+003 -9.999E+003 -9.999E+003 -9.999E+003 -9.999E+003 -9.999E+003 -9.999E+003 -9.999E+003 -9.999E+003 -9.999E+003 -9.999E+003 -9.999E+003 -9.999E+003 -9.999E+003 -9.999E+003 -9.999E+003 -9.999E+003 -9.999E+003 -9.999E+003 -9.999E+003  3.183E-005  4.785E-001  8.618E-001  1.164E+000  1.309E+000  1.310E+000  1.179E+000  8.670E-001  3.220E-001  6.216E-002 -9.999E+003 -9.999E+003 -9.999E+003 -9.999E+003 -9.999E+003 -9.999E+003 -9.999E+003 -9.999E+003 -9.999E+003 -9.999E+003 -9.999E+003  6.972E-004  1.220E+000  1.330E+000  1.369E+000  1.273E+000  1.070E+000  6.688E-001 -9.999E+003 -9.999E+003 -9.999E+003 -9.999E+003 -9.999E+003 -9.999E+003 -9.999E+003 -9.999E+003 -9.999E+003 -9.999E+003 -9.999E+003 -9.999E+003 -9.999E+003 -9.999E+003 -9.999E+003 -9.999E+003 -9.999E+003 -9.999E+003 -9.999E+003 -9.999E+003 -9.999E+003 -9.999E+003 -9.999E+003 -9.999E+003 -9.999E+003 -9.999E+003 -9.999E+003 -9.999E+003 -9.999E+003 -9.999E+003 -9.999E+003 -9.999E+003 -9.999E+003 -9.999E+003 -9.999E+003 -9.999E+003 -9.999E+003 -9.999E+003 -9.999E+003 -9.999E+003 -9.999E+003 -9.999E+003 -9.999E+003 -9.999E+003 -9.999E+003 -9.999E+003 -9.999E+003 -9.999E+003 -9.999E+003 -9.999E+003 -9.999E+003 -9.999E+003 -9.999E+003
 -9.999E+003 -9.999E+003 -9.999E+003 -9.999E+003 -9.999E+003 -9.999E+003 -9.999E+003 -9.999E+003 -9.999E+003 -9.999E+003 -9.999E+003 -9.999E+003 -9.999E+003 -9.999E+003 -9.999E+003 -9.999E+003 -9.999E+003 -9.999E+003 -9.999E+003 -9.999E+003 -9.999E+003 -9.999E+003 -9.999E+003 -9.999E+003 -9.999E+003 -9.999E+003 -9.999E+003 -9.999E+003 -9.999E+003 -9.999E+003 -9.999E+003 -9.999E+003 -9.999E+003 -9.999E+003 -9.999E+003 -9.999E+003 -9.999E+003 -9.999E+003 -9.999E+003 -9.999E+003 -9.999E+003 -9.999E+003 -9.999E+003 -9.999E+003 -9.999E+003 -9.999E+003 -9.999E+003 -9.999E+003 -9.999E+003 -9.999E+003 -9.999E+003 -9.999E+003 -9.999E+003 -9.999E+003 -9.999E+003 -9.999E+003 -9.999E+003 -9.999E+003 -9.999E+003 -9.999E+003 -9.999E+003 -9.999E+003 -9.999E+003 -9.999E+003 -9.999E+003 -9.999E+003 -9.999E+003 -9.999E+003 -9.999E+003 -9.999E+003  4.324E-001  8.235E-001  1.168E+000  1.339E+000  1.344E+000  1.274E+000  1.090E+000  3.878E-001  7.207E-002  2.485E-002 -9.999E+003 -9.999E+003 -9.999E+003 -9.999E+003 -9.999E+003 -9.999E+003 -9.999E+003 -9.999E+003 -9.999E+003  2.847E-001  7.971E-001  1.370E+000  1.380E+000  1.378E+000  1.301E+000  1.142E+000 -9.999E+003 -9.999E+003 -9.999E+003 -9.999E+003 -9.999E+003 -9.999E+003 -9.999E+003 -9.999E+003 -9.999E+003 -9.999E+003 -9.999E+003 -9.999E+003 -9.999E+003 -9.999E+003 -9.999E+003 -9.999E+003 -9.999E+003 -9.999E+003 -9.999E+003 -9.999E+003 -9.999E+003 -9.999E+003 -9.999E+003 -9.999E+003 -9.999E+003 -9.999E+003 -9.999E+003 -9.999E+003 -9.999E+003 -9.999E+003 -9.999E+003 -9.999E+003 -9.999E+003 -9.999E+003 -9.999E+003 -9.999E+003 -9.999E+003 -9.999E+003 -9.999E+003 -9.999E+003 -9.999E+003 -9.999E+003 -9.999E+003 -9.999E+003 -9.999E+003 -9.999E+003 -9.999E+003 -9.999E+003 -9.999E+003 -9.999E+003 -9.999E+003 -9.999E+003 -9.999E+003 -9.999E+003
 -9.999E+003 -9.999E+003 -9.999E+003 -9.999E+003 -9.999E+003 -9.999E+003 -9.999E+003 -9.999E+003 -9.999E+003 -9.999E+003 -9.999E+003 -9.999E+003 -9.999E+003 -9.999E+003 -9.999E+003 -9.999E+003 -9.999E+003 -9.999E+003 -9.999E+003 -9.999E+003 -9.999E+003 -9.999E+003 -9.999E+003 -9.999E+003 -9.999E+003 -9.999E+003 -9.999E+003 -9.999E+003 -9.999E+003 -9.999E+003 -9.999E+003 -9.999E+003 -9.999E+003 -9.999E+003 -9.999E+003 -9.999E+003 -9.999E+003 -9.999E+003 -9.999E+003 -9.999E+003 -9.999E+003 -9.999E+003 -9.999E+003 -9.999E+003 -9.999E+003 -9.999E+003 -9.999E+003 -9.999E+003 -9.999E+003 -9.999E+003 -9.999E+003 -9.999E+003 -9.999E+003 -9.999E+003 -9.999E+003 -9.999E+003 -9.999E+003 -9.999E+003 -9.999E+003 -9.999E+003 -9.999E+003 -9.999E+003 -9.999E+003 -9.999E+003 -9.999E+003 -9.999E+003 -9.999E+003 -9.999E+003 -9.999E+003 -9.999E+003  6.064E-005  8.572E-001  1.214E+000  1.380E+000  1.379E+000  1.283E+000  1.161E+000  5.656E-001  1.198E-001  3.926E-002 -9.999E+003 -9.999E+003 -9.999E+003 -9.999E+003 -9.999E+003 -9.999E+003 -9.999E+003 -9.999E+003  3.411E-001  1.064E+000  1.453E+000  1.616E+000  1.628E+000  1.560E+000  1.394E+000  7.038E-001 -9.999E+003 -9.999E+003 -9.999E+003 -9.999E+003 -9.999E+003 -9.999E+003 -9.999E+003 -9.999E+003 -9.999E+003 -9.999E+003 -9.999E+003 -9.999E+003 -9.999E+003 -9.999E+003 -9.999E+003 -9.999E+003 -9.999E+003 -9.999E+003 -9.999E+003 -9.999E+003 -9.999E+003 -9.999E+003 -9.999E+003 -9.999E+003 -9.999E+003 -9.999E+003 -9.999E+003 -9.999E+003 -9.999E+003 -9.999E+003 -9.999E+003 -9.999E+003 -9.999E+003 -9.999E+003 -9.999E+003 -9.999E+003 -9.999E+003 -9.999E+003 -9.999E+003 -9.999E+003 -9.999E+003 -9.999E+003 -9.999E+003 -9.999E+003 -9.999E+003 -9.999E+003 -9.999E+003 -9.999E+003 -9.999E+003 -9.999E+003 -9.999E+003 -9.999E+003 -9.999E+003 -9.999E+003
 -9.999E+003 -9.999E+003 -9.999E+003 -9.999E+003 -9.999E+003 -9.999E+003 -9.999E+003 -9.999E+003 -9.999E+003 -9.999E+003 -9.999E+003 -9.999E+003 -9.999E+003 -9.999E+003 -9.999E+003 -9.999E+003 -9.999E+003 -9.999E+003 -9.999E+003 -9.999E+003 -9.999E+003 -9.999E+003 -9.999E+003 -9.999E+003 -9.999E+003 -9.999E+003 -9.999E+003 -9.999E+003 -9.999E+003 -9.999E+003 -9.999E+003 -9.999E+003 -9.999E+003 -9.999E+003 -9.999E+003 -9.999E+003 -9.999E+003 -9.999E+003 -9.999E+003 -9.999E+003 -9.999E+003 -9.999E+003 -9.999E+003 -9.999E+003 -9.999E+003 -9.999E+003 -9.999E+003 -9.999E+003 -9.999E+003 -9.999E+003 -9.999E+003 -9.999E+003 -9.999E+003 -9.999E+003 -9.999E+003 -9.999E+003 -9.999E+003 -9.999E+003 -9.999E+003 -9.999E+003 -9.999E+003 -9.999E+003 -9.999E+003 -9.999E+003 -9.999E+003 -9.999E+003 -9.999E+003 -9.999E+003 -9.999E+003 -9.999E+003  4.294E-001  1.022E+000  1.278E+000  1.416E+000  1.410E+000  1.298E+000  1.093E+000  6.259E-001  2.224E-001  8.524E-002 -9.999E+003 -9.999E+003 -9.999E+003 -9.999E+003 -9.999E+003 -9.999E+003 -9.999E+003 -9.999E+003 -9.999E+003  1.707E+000  1.941E+000  1.987E+000  1.980E+000  1.786E+000  7.724E-001 -9.999E+003 -9.999E+003 -9.999E+003 -9.999E+003 -9.999E+003 -9.999E+003 -9.999E+003 -9.999E+003 -9.999E+003 -9.999E+003 -9.999E+003 -9.999E+003 -9.999E+003 -9.999E+003 -9.999E+003 -9.999E+003 -9.999E+003 -9.999E+003 -9.999E+003 -9.999E+003 -9.999E+003 -9.999E+003 -9.999E+003 -9.999E+003 -9.999E+003 -9.999E+003 -9.999E+003 -9.999E+003 -9.999E+003 -9.999E+003 -9.999E+003 -9.999E+003 -9.999E+003 -9.999E+003 -9.999E+003 -9.999E+003 -9.999E+003 -9.999E+003 -9.999E+003 -9.999E+003 -9.999E+003 -9.999E+003 -9.999E+003 -9.999E+003 -9.999E+003 -9.999E+003 -9.999E+003 -9.999E+003 -9.999E+003 -9.999E+003 -9.999E+003 -9.999E+003 -9.999E+003 -9.999E+003 -9.999E+003
 -9.999E+003 -9.999E+003 -9.999E+003 -9.999E+003 -9.999E+003 -9.999E+003 -9.999E+003 -9.999E+003 -9.999E+003 -9.999E+003 -9.999E+003 -9.999E+003 -9.999E+003 -9.999E+003 -9.999E+003 -9.999E+003 -9.999E+003 -9.999E+003 -9.999E+003 -9.999E+003 -9.999E+003 -9.999E+003 -9.999E+003 -9.999E+003 -9.999E+003 -9.999E+003 -9.999E+003 -9.999E+003 -9.999E+003 -9.999E+003 -9.999E+003 -9.999E+003 -9.999E+003 -9.999E+003 -9.999E+003 -9.999E+003 -9.999E+003 -9.999E+003 -9.999E+003 -9.999E+003 -9.999E+003 -9.999E+003 -9.999E+003 -9.999E+003 -9.999E+003 -9.999E+003 -9.999E+003 -9.999E+003 -9.999E+003 -9.999E+003 -9.999E+003 -9.999E+003 -9.999E+003 -9.999E+003 -9.999E+003 -9.999E+003 -9.999E+003 -9.999E+003 -9.999E+003 -9.999E+003 -9.999E+003 -9.999E+003 -9.999E+003 -9.999E+003 -9.999E+003 -9.999E+003 -9.999E+003 -9.999E+003 -9.999E+003 -9.999E+003  8.671E-001  1.178E+000  1.277E+000  1.344E+000  1.357E+000  1.283E+000  1.054E+000  7.113E-001  3.989E-001  1.502E-001  5.049E-002 -9.999E+003 -9.999E+003 -9.999E+003 -9.999E+003 -9.999E+003 -9.999E+003 -9.999E+003  2.760E-001  1.616E+000  2.309E+000  2.354E+000  2.222E+000  1.503E+000  3.670E-001  1.092E-005 -9.999E+003 -9.999E+003 -9.999E+003 -9.999E+003 -9.999E+003 -9.999E+003 -9.999E+003 -9.999E+003 -9.999E+003 -9.999E+003 -9.999E+003 -9.999E+003 -9.999E+003 -9.999E+003 -9.999E+003 -9.999E+003 -9.999E+003 -9.999E+003 -9.999E+003 -9.999E+003 -9.999E+003 -9.999E+003 -9.999E+003 -9.999E+003 -9.999E+003 -9.999E+003 -9.999E+003 -9.999E+003 -9.999E+003 -9.999E+003 -9.999E+003 -9.999E+003 -9.999E+003 -9.999E+003 -9.999E+003 -9.999E+003 -9.999E+003 -9.999E+003 -9.999E+003 -9.999E+003 -9.999E+003 -9.999E+003 -9.999E+003 -9.999E+003 -9.999E+003 -9.999E+003 -9.999E+003 -9.999E+003 -9.999E+003 -9.999E+003 -9.999E+003 -9.999E+003 -9.999E+003 -9.999E+003
 -9.999E+003 -9.999E+003 -9.999E+003 -9.999E+003 -9.999E+003 -9.999E+003 -9.999E+003 -9.999E+003 -9.999E+003 -9.999E+003 -9.999E+003 -9.999E+003 -9.999E+003 -9.999E+003 -9.999E+003 -9.999E+003 -9.999E+003 -9.999E+003 -9.999E+003 -9.999E+003 -9.999E+003 -9.999E+003 -9.999E+003 -9.999E+003 -9.999E+003 -9.999E+003 -9.999E+003 -9.999E+003 -9.999E+003 -9.999E+003 -9.999E+003 -9.999E+003 -9.999E+003 -9.999E+003 -9.999E+003 -9.999E+003 -9.999E+003 -9.999E+003 -9.999E+003 -9.999E+003 -9.999E+003 -9.999E+003 -9.999E+003 -9.999E+003 -9.999E+003 -9.999E+003 -9.999E+003 -9.999E+003 -9.999E+003 -9.999E+003 -9.999E+003 -9.999E+003 -9.999E+003 -9.999E+003 -9.999E+003 -9.999E+003 -9.999E+003 -9.999E+003 -9.999E+003 -9.999E+003 -9.999E+003 -9.999E+003 -9.999E+003 -9.999E+003 -9.999E+003 -9.999E+003 -9.999E+003 -9.999E+003  9.608E-003  5.016E-001  1.034E+000  1.146E+000  1.180E+000  1.235E+000  1.295E+000  1.290E+000  1.183E+000  9.565E-001  5.583E-001  1.818E-001  4.754E-002 -9.999E+003 -9.999E+003 -9.999E+003 -9.999E+003 -9.999E+003 -9.999E+003 -9.999E+003  7.698E-001  1.743E+000  2.506E+000  2.582E+000  2.017E+000  9.341E-001  1.790E-002 -9.999E+003 -9.999E+003 -9.999E+003 -9.999E+003 -9.999E+003 -9.999E+003 -9.999E+003 -9.999E+003 -9.999E+003 -9.999E+003 -9.999E+003 -9.999E+003 -9.999E+003 -9.999E+003 -9.999E+003 -9.999E+003 -9.999E+003 -9.999E+003 -9.999E+003 -9.999E+003 -9.999E+003 -9.999E+003 -9.999E+003 -9.999E+003 -9.999E+003 -9.999E+003 -9.999E+003 -9.999E+003 -9.999E+003 -9.999E+003 -9.999E+003 -9.999E+003 -9.999E+003 -9.999E+003 -9.999E+003 -9.999E+003 -9.999E+003 -9.999E+003 -9.999E+003 -9.999E+003 -9.999E+003 -9.999E+003 -9.999E+003 -9.999E+003 -9.999E+003 -9.999E+003 -9.999E+003 -9.999E+003 -9.999E+003 -9.999E+003 -9.999E+003 -9.999E+003 -9.999E+003 -9.999E+003 -9.999E+003
 -9.999E+003 -9.999E+003 -9.999E+003 -9.999E+003 -9.999E+003 -9.999E+003 -9.999E+003 -9.999E+003 -9.999E+003 -9.999E+003 -9.999E+003 -9.999E+003 -9.999E+003 -9.999E+003 -9.999E+003 -9.999E+003 -9.999E+003 -9.999E+003 -9.999E+003 -9.999E+003 -9.999E+003 -9.999E+003 -9.999E+003 -9.999E+003 -9.999E+003 -9.999E+003 -9.999E+003 -9.999E+003 -9.999E+003 -9.999E+003 -9.999E+003 -9.999E+003 -9.999E+003 -9.999E+003 -9.999E+003 -9.999E+003 -9.999E+003 -9.999E+003 -9.999E+003 -9.999E+003 -9.999E+003 -9.999E+003 -9.999E+003 -9.999E+003 -9.999E+003 -9.999E+003 -9.999E+003 -9.999E+003 -9.999E+003 -9.999E+003 -9.999E+003 -9.999E+003 -9.999E+003 -9.999E+003 -9.999E+003 -9.999E+003 -9.999E+003 -9.999E+003 -9.999E+003 -9.999E+003 -9.999E+003 -9.999E+003 -9.999E+003 -9.999E+003 -9.999E+003 -9.999E+003 -9.999E+003  2.420E-004  4.941E-002  6.457E-001  8.803E-001  9.955E-001  1.104E+000  1.209E+000  1.292E+000  1.339E+000  1.337E+000  1.215E+000  5.688E-001  1.226E-001  3.840E-002 -9.999E+003 -9.999E+003 -9.999E+003 -9.999E+003 -9.999E+003 -9.999E+003  2.156E-004  5.608E-001  1.720E+000  2.292E+000  2.077E+000  1.314E+000  3.081E-001  1.910E-004 -9.999E+003 -9.999E+003 -9.999E+003 -9.999E+003 -9.999E+003 -9.999E+003 -9.999E+003 -9.999E+003 -9.999E+003 -9.999E+003 -9.999E+003 -9.999E+003 -9.999E+003 -9.999E+003 -9.999E+003 -9.999E+003 -9.999E+003 -9.999E+003 -9.999E+003 -9.999E+003 -9.999E+003 -9.999E+003 -9.999E+003 -9.999E+003 -9.999E+003 -9.999E+003 -9.999E+003 -9.999E+003 -9.999E+003 -9.999E+003 -9.999E+003 -9.999E+003 -9.999E+003 -9.999E+003 -9.999E+003 -9.999E+003 -9.999E+003 -9.999E+003 -9.999E+003 -9.999E+003 -9.999E+003 -9.999E+003 -9.999E+003 -9.999E+003 -9.999E+003 -9.999E+003 -9.999E+003 -9.999E+003 -9.999E+003 -9.999E+003 -9.999E+003 -9.999E+003 -9.999E+003 -9.999E+003 -9.999E+003
 -9.999E+003 -9.999E+003 -9.999E+003 -9.999E+003 -9.999E+003 -9.999E+003 -9.999E+003 -9.999E+003 -9.999E+003 -9.999E+003 -9.999E+003 -9.999E+003 -9.999E+003 -9.999E+003 -9.999E+003 -9.999E+003 -9.999E+003 -9.999E+003 -9.999E+003 -9.999E+003 -9.999E+003 -9.999E+003 -9.999E+003 -9.999E+003 -9.999E+003 -9.999E+003 -9.999E+003 -9.999E+003 -9.999E+003 -9.999E+003 -9.999E+003 -9.999E+003 -9.999E+003 -9.999E+003 -9.999E+003 -9.999E+003 -9.999E+003 -9.999E+003 -9.999E+003 -9.999E+003 -9.999E+003 -9.999E+003 -9.999E+003 -9.999E+003 -9.999E+003 -9.999E+003 -9.999E+003 -9.999E+003 -9.999E+003 -9.999E+003 -9.999E+003 -9.999E+003 -9.999E+003 -9.999E+003 -9.999E+003 -9.999E+003 -9.999E+003 -9.999E+003 -9.999E+003 -9.999E+003 -9.999E+003 -9.999E+003 -9.999E+003 -9.999E+003 -9.999E+003 -9.999E+003 -9.999E+003 -9.999E+003  7.215E-004  8.392E-002  5.145E-001  8.616E-001  1.190E+000  1.375E+000  1.390E+000  1.364E+000  1.398E+000  1.340E+000  5.345E-001  9.059E-002  2.967E-002 -9.999E+003 -9.999E+003 -9.999E+003 -9.999E+003 -9.999E+003  2.393E-005 -9.999E+003  1.162E+000  1.658E+000  1.882E+000  1.854E+000  4.541E-001  9.612E-003 -9.999E+003 -9.999E+003 -9.999E+003 -9.999E+003 -9.999E+003 -9.999E+003 -9.999E+003 -9.999E+003 -9.999E+003 -9.999E+003 -9.999E+003 -9.999E+003 -9.999E+003 -9.999E+003 -9.999E+003 -9.999E+003 -9.999E+003 -9.999E+003 -9.999E+003 -9.999E+003 -9.999E+003 -9.999E+003 -9.999E+003 -9.999E+003 -9.999E+003 -9.999E+003 -9.999E+003 -9.999E+003 -9.999E+003 -9.999E+003 -9.999E+003 -9.999E+003 -9.999E+003 -9.999E+003 -9.999E+003 -9.999E+003 -9.999E+003 -9.999E+003 -9.999E+003 -9.999E+003 -9.999E+003 -9.999E+003 -9.999E+003 -9.999E+003 -9.999E+003 -9.999E+003 -9.999E+003 -9.999E+003 -9.999E+003 -9.999E+003 -9.999E+003 -9.999E+003 -9.999E+003 -9.999E+003 -9.999E+003 -9.999E+003
 -9.999E+003 -9.999E+003 -9.999E+003 -9.999E+003 -9.999E+003 -9.999E+003 -9.999E+003 -9.999E+003 -9.999E+003 -9.999E+003 -9.999E+003 -9.999E+003 -9.999E+003 -9.999E+003 -9.999E+003 -9.999E+003 -9.999E+003 -9.999E+003 -9.999E+003 -9.999E+003 -9.999E+003 -9.999E+003 -9.999E+003 -9.999E+003 -9.999E+003 -9.999E+003 -9.999E+003 -9.999E+003 -9.999E+003 -9.999E+003 -9.999E+003 -9.999E+003 -9.999E+003 -9.999E+003 -9.999E+003 -9.999E+003 -9.999E+003 -9.999E+003 -9.999E+003 -9.999E+003 -9.999E+003 -9.999E+003 -9.999E+003 -9.999E+003 -9.999E+003 -9.999E+003 -9.999E+003 -9.999E+003 -9.999E+003 -9.999E+003 -9.999E+003 -9.999E+003 -9.999E+003 -9.999E+003 -9.999E+003 -9.999E+003 -9.999E+003 -9.999E+003 -9.999E+003 -9.999E+003 -9.999E+003 -9.999E+003 -9.999E+003 -9.999E+003 -9.999E+003 -9.999E+003 -9.999E+003 -9.999E+003 -9.999E+003  9.191E-004 -9.999E+003  7.010E-001  1.203E+000  1.488E+000  1.448E+000  1.285E+000  1.270E+000  1.257E+000  4.571E-001  8.431E-002  2.822E-002 -9.999E+003 -9.999E+003 -9.999E+003 -9.999E+003  2.703E-005  2.591E-001  6.335E-001  1.095E+000  1.425E+000  1.451E+000  7.134E-002  3.123E-003 -9.999E+003 -9.999E+003 -9.999E+003 -9.999E+003 -9.999E+003 -9.999E+003 -9.999E+003 -9.999E+003 -9.999E+003 -9.999E+003 -9.999E+003 -9.999E+003 -9.999E+003 -9.999E+003 -9.999E+003 -9.999E+003 -9.999E+003 -9.999E+003 -9.999E+003 -9.999E+003 -9.999E+003 -9.999E+003 -9.999E+003 -9.999E+003 -9.999E+003 -9.999E+003 -9.999E+003 -9.999E+003 -9.999E+003 -9.999E+003 -9.999E+003 -9.999E+003 -9.999E+003 -9.999E+003 -9.999E+003 -9.999E+003 -9.999E+003 -9.999E+003 -9.999E+003 -9.999E+003 -9.999E+003 -9.999E+003 -9.999E+003 -9.999E+003 -9.999E+003 -9.999E+003 -9.999E+003 -9.999E+003 -9.999E+003 -9.999E+003 -9.999E+003 -9.999E+003 -9.999E+003 -9.999E+003 -9.999E+003 -9.999E+003 -9.999E+003
 -9.999E+003 -9.999E+003 -9.999E+003 -9.999E+003 -9.999E+003 -9.999E+003 -9.999E+003 -9.999E+003 -9.999E+003 -9.999E+003 -9.999E+003 -9.999E+003 -9.999E+003 -9.999E+003 -9.999E+003 -9.999E+003 -9.999E+003 -9.999E+003 -9.999E+003 -9.999E+003 -9.999E+003 -9.999E+003 -9.999E+003 -9.999E+003 -9.999E+003 -9.999E+003 -9.999E+003 -9.999E+003 -9.999E+003 -9.999E+003 -9.999E+003 -9.999E+003 -9.999E+003 -9.999E+003 -9.999E+003 -9.999E+003 -9.999E+003 -9.999E+003 -9.999E+003 -9.999E+003 -9.999E+003 -9.999E+003 -9.999E+003 -9.999E+003 -9.999E+003 -9.999E+003 -9.999E+003 -9.999E+003 -9.999E+003 -9.999E+003 -9.999E+003 -9.999E+003 -9.999E+003 -9.999E+003 -9.999E+003 -9.999E+003 -9.999E+003 -9.999E+003 -9.999E+003 -9.999E+003 -9.999E+003 -9.999E+003 -9.999E+003 -9.999E+003 -9.999E+003 -9.999E+003 -9.999E+003 -9.999E+003 -9.999E+003 -9.999E+003 -9.999E+003  5.115E-001  9.806E-001  1.367E+000  1.401E+000  1.174E+000  1.071E+000  8.959E-001  3.505E-001  8.915E-002  3.035E-002 -9.999E+003 -9.999E+003 -9.999E+003 -9.999E+003  7.899E-002  2.593E-001  5.353E-001  8.649E-001  1.048E+000  9.150E-001  1.077E-001  2.339E-003 -9.999E+003 -9.999E+003 -9.999E+003 -9.999E+003 -9.999E+003 -9.999E+003 -9.999E+003 -9.999E+003 -9.999E+003 -9.999E+003 -9.999E+003 -9.999E+003 -9.999E+003 -9.999E+003 -9.999E+003 -9.999E+003 -9.999E+003 -9.999E+003 -9.999E+003 -9.999E+003 -9.999E+003 -9.999E+003 -9.999E+003 -9.999E+003 -9.999E+003 -9.999E+003 -9.999E+003 -9.999E+003 -9.999E+003 -9.999E+003 -9.999E+003 -9.999E+003 -9.999E+003 -9.999E+003 -9.999E+003 -9.999E+003 -9.999E+003 -9.999E+003 -9.999E+003 -9.999E+003 -9.999E+003 -9.999E+003 -9.999E+003 -9.999E+003 -9.999E+003 -9.999E+003 -9.999E+003 -9.999E+003 -9.999E+003 -9.999E+003 -9.999E+003 -9.999E+003 -9.999E+003 -9.999E+003 -9.999E+003 -9.999E+003 -9.999E+003
 -9.999E+003 -9.999E+003 -9.999E+003 -9.999E+003 -9.999E+003 -9.999E+003 -9.999E+003 -9.999E+003 -9.999E+003 -9.999E+003 -9.999E+003 -9.999E+003 -9.999E+003 -9.999E+003 -9.999E+003 -9.999E+003 -9.999E+003 -9.999E+003 -9.999E+003 -9.999E+003 -9.999E+003 -9.999E+003 -9.999E+003 -9.999E+003 -9.999E+003 -9.999E+003 -9.999E+003 -9.999E+003 -9.999E+003 -9.999E+003 -9.999E+003 -9.999E+003 -9.999E+003 -9.999E+003 -9.999E+003 -9.999E+003 -9.999E+003 -9.999E+003 -9.999E+003 -9.999E+003 -9.999E+003 -9.999E+003 -9.999E+003 -9.999E+003 -9.999E+003 -9.999E+003 -9.999E+003 -9.999E+003 -9.999E+003 -9.999E+003 -9.999E+003 -9.999E+003 -9.999E+003 -9.999E+003 -9.999E+003 -9.999E+003 -9.999E+003 -9.999E+003 -9.999E+003 -9.999E+003 -9.999E+003 -9.999E+003 -9.999E+003 -9.999E+003 -9.999E+003 -9.999E+003 -9.999E+003 -9.999E+003 -9.999E+003 -9.999E+003 -9.999E+003  2.645E-001  5.581E-001  8.456E-001  1.038E+000  1.023E+000  9.253E-001  7.859E-001  4.379E-001  1.431E-001  7.094E-002  4.101E-002  3.346E-002  3.325E-002  6.629E-002  1.508E-001  2.560E-001  3.573E-001  4.969E-001  5.448E-001  4.726E-001  3.167E-001  7.800E-003 -9.999E+003 -9.999E+003 -9.999E+003 -9.999E+003 -9.999E+003 -9.999E+003 -9.999E+003 -9.999E+003 -9.999E+003 -9.999E+003 -9.999E+003 -9.999E+003 -9.999E+003 -9.999E+003 -9.999E+003 -9.999E+003 -9.999E+003 -9.999E+003 -9.999E+003 -9.999E+003 -9.999E+003 -9.999E+003 -9.999E+003 -9.999E+003 -9.999E+003 -9.999E+003 -9.999E+003 -9.999E+003 -9.999E+003 -9.999E+003 -9.999E+003 -9.999E+003 -9.999E+003 -9.999E+003 -9.999E+003 -9.999E+003 -9.999E+003 -9.999E+003 -9.999E+003 -9.999E+003 -9.999E+003 -9.999E+003 -9.999E+003 -9.999E+003 -9.999E+003 -9.999E+003 -9.999E+003 -9.999E+003 -9.999E+003 -9.999E+003 -9.999E+003 -9.999E+003 -9.999E+003 -9.999E+003 -9.999E+003 -9.999E+003 -9.999E+003
 -9.999E+003 -9.999E+003 -9.999E+003 -9.999E+003 -9.999E+003 -9.999E+003 -9.999E+003 -9.999E+003 -9.999E+003 -9.999E+003 -9.999E+003 -9.999E+003 -9.999E+003 -9.999E+003 -9.999E+003 -9.999E+003 -9.999E+003 -9.999E+003 -9.999E+003 -9.999E+003 -9.999E+003 -9.999E+003 -9.999E+003 -9.999E+003 -9.999E+003 -9.999E+003 -9.999E+003 -9.999E+003 -9.999E+003 -9.999E+003 -9.999E+003 -9.999E+003 -9.999E+003 -9.999E+003 -9.999E+003 -9.999E+003 -9.999E+003 -9.999E+003 -9.999E+003 -9.999E+003 -9.999E+003 -9.999E+003 -9.999E+003 -9.999E+003 -9.999E+003 -9.999E+003 -9.999E+003 -9.999E+003 -9.999E+003 -9.999E+003 -9.999E+003 -9.999E+003 -9.999E+003 -9.999E+003 -9.999E+003 -9.999E+003 -9.999E+003 -9.999E+003 -9.999E+003 -9.999E+003 -9.999E+003 -9.999E+003 -9.999E+003 -9.999E+003 -9.999E+003 -9.999E+003 -9.999E+003 -9.999E+003 -9.999E+003 -9.999E+003 -9.999E+003  1.127E-002  3.403E-001  5.729E-001  8.396E-001  9.933E-001  9.097E-001  8.932E-001  7.708E-001  3.996E-001  2.018E-001  1.242E-001  9.884E-002  9.827E-002  1.592E-001  2.529E-001  2.642E-001  2.587E-001  2.344E-001  2.296E-001  2.293E-001  2.044E-001  2.069E-002 -9.999E+003 -9.999E+003 -9.999E+003 -9.999E+003 -9.999E+003 -9.999E+003 -9.999E+003 -9.999E+003 -9.999E+003 -9.999E+003 -9.999E+003 -9.999E+003 -9.999E+003 -9.999E+003 -9.999E+003 -9.999E+003 -9.999E+003 -9.999E+003 -9.999E+003 -9.999E+003 -9.999E+003 -9.999E+003 -9.999E+003 -9.999E+003 -9.999E+003 -9.999E+003 -9.999E+003 -9.999E+003 -9.999E+003 -9.999E+003 -9.999E+003 -9.999E+003 -9.999E+003 -9.999E+003 -9.999E+003 -9.999E+003 -9.999E+003 -9.999E+003 -9.999E+003 -9.999E+003 -9.999E+003 -9.999E+003 -9.999E+003 -9.999E+003 -9.999E+003 -9.999E+003 -9.999E+003 -9.999E+003 -9.999E+003 -9.999E+003 -9.999E+003 -9.999E+003 -9.999E+003 -9.999E+003 -9.999E+003 -9.999E+003 -9.999E+003
 -9.999E+003 -9.999E+003 -9.999E+003 -9.999E+003 -9.999E+003 -9.999E+003 -9.999E+003 -9.999E+003 -9.999E+003 -9.999E+003 -9.999E+003 -9.999E+003 -9.999E+003 -9.999E+003 -9.999E+003 -9.999E+003 -9.999E+003 -9.999E+003 -9.999E+003 -9.999E+003 -9.999E+003 -9.999E+003 -9.999E+003 -9.999E+003 -9.999E+003 -9.999E+003 -9.999E+003 -9.999E+003 -9.999E+003 -9.999E+003 -9.999E+003 -9.999E+003 -9.999E+003 -9.999E+003 -9.999E+003 -9.999E+003 -9.999E+003 -9.999E+003 -9.999E+003 -9.999E+003 -9.999E+003 -9.999E+003 -9.999E+003 -9.999E+003 -9.999E+003 -9.999E+003 -9.999E+003 -9.999E+003 -9.999E+003 -9.999E+003 -9.999E+003 -9.999E+003 -9.999E+003 -9.999E+003 -9.999E+003 -9.999E+003 -9.999E+003 -9.999E+003 -9.999E+003 -9.999E+003 -9.999E+003 -9.999E+003 -9.999E+003 -9.999E+003 -9.999E+003 -9.999E+003 -9.999E+003 -9.999E+003 -9.999E+003 -9.999E+003  8.865E-004  1.939E-001  5.583E-001  8.357E-001  1.027E+000  1.132E+000  1.129E+000  1.140E+000  9.883E-001  7.745E-001  5.886E-001  4.274E-001  3.573E-001  3.568E-001  3.440E-001  3.254E-001  3.189E-001  2.894E-001  2.203E-001  1.956E-001  1.690E-001  1.203E-001  5.893E-002 -9.999E+003 -9.999E+003 -9.999E+003 -9.999E+003 -9.999E+003 -9.999E+003 -9.999E+003 -9.999E+003 -9.999E+003 -9.999E+003 -9.999E+003 -9.999E+003 -9.999E+003 -9.999E+003 -9.999E+003 -9.999E+003 -9.999E+003 -9.999E+003 -9.999E+003 -9.999E+003 -9.999E+003 -9.999E+003 -9.999E+003 -9.999E+003 -9.999E+003 -9.999E+003 -9.999E+003 -9.999E+003 -9.999E+003 -9.999E+003 -9.999E+003 -9.999E+003 -9.999E+003 -9.999E+003 -9.999E+003 -9.999E+003 -9.999E+003 -9.999E+003 -9.999E+003 -9.999E+003 -9.999E+003 -9.999E+003 -9.999E+003 -9.999E+003 -9.999E+003 -9.999E+003 -9.999E+003 -9.999E+003 -9.999E+003 -9.999E+003 -9.999E+003 -9.999E+003 -9.999E+003 -9.999E+003 -9.999E+003 -9.999E+003 -9.999E+003
 -9.999E+003 -9.999E+003 -9.999E+003 -9.999E+003 -9.999E+003 -9.999E+003 -9.999E+003 -9.999E+003 -9.999E+003 -9.999E+003 -9.999E+003 -9.999E+003 -9.999E+003 -9.999E+003 -9.999E+003 -9.999E+003 -9.999E+003 -9.999E+003 -9.999E+003 -9.999E+003 -9.999E+003 -9.999E+003 -9.999E+003 -9.999E+003 -9.999E+003 -9.999E+003 -9.999E+003 -9.999E+003 -9.999E+003 -9.999E+003 -9.999E+003 -9.999E+003 -9.999E+003 -9.999E+003 -9.999E+003 -9.999E+003 -9.999E+003 -9.999E+003 -9.999E+003 -9.999E+003 -9.999E+003 -9.999E+003 -9.999E+003 -9.999E+003 -9.999E+003 -9.999E+003 -9.999E+003 -9.999E+003 -9.999E+003 -9.999E+003 -9.999E+003 -9.999E+003 -9.999E+003 -9.999E+003 -9.999E+003 -9.999E+003 -9.999E+003 -9.999E+003 -9.999E+003 -9.999E+003 -9.999E+003 -9.999E+003 -9.999E+003 -9.999E+003 -9.999E+003 -9.999E+003 -9.999E+003 -9.999E+003 -9.999E+003  8.502E-004  5.556E-001  1.046E+000  1.109E+000  1.204E+000  1.279E+000  1.335E+000  1.368E+000  1.304E+000  1.103E+000  9.676E-001  8.985E-001  8.264E-001  7.866E-001  8.128E-001  6.398E-001  5.057E-001  4.746E-001  3.999E-001  3.095E-001  2.606E-001  1.749E-001  6.765E-002 -9.999E+003 -9.999E+003 -9.999E+003 -9.999E+003 -9.999E+003 -9.999E+003 -9.999E+003 -9.999E+003 -9.999E+003 -9.999E+003 -9.999E+003 -9.999E+003 -9.999E+003 -9.999E+003 -9.999E+003 -9.999E+003 -9.999E+003 -9.999E+003 -9.999E+003 -9.999E+003 -9.999E+003 -9.999E+003 -9.999E+003 -9.999E+003 -9.999E+003 -9.999E+003 -9.999E+003 -9.999E+003 -9.999E+003 -9.999E+003 -9.999E+003 -9.999E+003 -9.999E+003 -9.999E+003 -9.999E+003 -9.999E+003 -9.999E+003 -9.999E+003 -9.999E+003 -9.999E+003 -9.999E+003 -9.999E+003 -9.999E+003 -9.999E+003 -9.999E+003 -9.999E+003 -9.999E+003 -9.999E+003 -9.999E+003 -9.999E+003 -9.999E+003 -9.999E+003 -9.999E+003 -9.999E+003 -9.999E+003 -9.999E+003 -9.999E+003 -9.999E+003
 -9.999E+003 -9.999E+003 -9.999E+003 -9.999E+003 -9.999E+003 -9.999E+003 -9.999E+003 -9.999E+003 -9.999E+003 -9.999E+003 -9.999E+003 -9.999E+003 -9.999E+003 -9.999E+003 -9.999E+003 -9.999E+003 -9.999E+003 -9.999E+003 -9.999E+003 -9.999E+003 -9.999E+003 -9.999E+003 -9.999E+003 -9.999E+003 -9.999E+003 -9.999E+003 -9.999E+003 -9.999E+003 -9.999E+003 -9.999E+003 -9.999E+003 -9.999E+003 -9.999E+003 -9.999E+003 -9.999E+003 -9.999E+003 -9.999E+003 -9.999E+003 -9.999E+003 -9.999E+003 -9.999E+003 -9.999E+003 -9.999E+003 -9.999E+003 -9.999E+003 -9.999E+003 -9.999E+003 -9.999E+003 -9.999E+003 -9.999E+003 -9.999E+003 -9.999E+003 -9.999E+003 -9.999E+003 -9.999E+003 -9.999E+003 -9.999E+003 -9.999E+003 -9.999E+003 -9.999E+003 -9.999E+003 -9.999E+003 -9.999E+003 -9.999E+003 -9.999E+003 -9.999E+003 -9.999E+003 -9.999E+003  8.380E-005  3.390E-001  9.051E-001  1.270E+000  1.413E+000  1.444E+000  1.461E+000  1.498E+000  1.509E+000  1.406E+000  1.234E+000  1.087E+000  9.913E-001  9.292E-001  8.903E-001  8.513E-001  7.183E-001  5.891E-001  5.674E-001  4.904E-001  3.938E-001  3.040E-001  1.592E-001 -9.999E+003 -9.999E+003 -9.999E+003 -9.999E+003 -9.999E+003 -9.999E+003 -9.999E+003 -9.999E+003 -9.999E+003 -9.999E+003 -9.999E+003 -9.999E+003 -9.999E+003 -9.999E+003 -9.999E+003 -9.999E+003 -9.999E+003 -9.999E+003 -9.999E+003 -9.999E+003 -9.999E+003 -9.999E+003 -9.999E+003 -9.999E+003 -9.999E+003 -9.999E+003 -9.999E+003 -9.999E+003 -9.999E+003 -9.999E+003 -9.999E+003 -9.999E+003 -9.999E+003 -9.999E+003 -9.999E+003 -9.999E+003 -9.999E+003 -9.999E+003 -9.999E+003 -9.999E+003 -9.999E+003 -9.999E+003 -9.999E+003 -9.999E+003 -9.999E+003 -9.999E+003 -9.999E+003 -9.999E+003 -9.999E+003 -9.999E+003 -9.999E+003 -9.999E+003 -9.999E+003 -9.999E+003 -9.999E+003 -9.999E+003 -9.999E+003 -9.999E+003 -9.999E+003
 -9.999E+003 -9.999E+003 -9.999E+003 -9.999E+003 -9.999E+003 -9.999E+003 -9.999E+003 -9.999E+003 -9.999E+003 -9.999E+003 -9.999E+003 -9.999E+003 -9.999E+003 -9.999E+003 -9.999E+003 -9.999E+003 -9.999E+003 -9.999E+003 -9.999E+003 -9.999E+003 -9.999E+003 -9.999E+003 -9.999E+003 -9.999E+003 -9.999E+003 -9.999E+003 -9.999E+003 -9.999E+003 -9.999E+003 -9.999E+003 -9.999E+003 -9.999E+003 -9.999E+003 -9.999E+003 -9.999E+003 -9.999E+003 -9.999E+003 -9.999E+003 -9.999E+003 -9.999E+003 -9.999E+003 -9.999E+003 -9.999E+003 -9.999E+003 -9.999E+003 -9.999E+003 -9.999E+003 -9.999E+003 -9.999E+003 -9.999E+003 -9.999E+003 -9.999E+003 -9.999E+003 -9.999E+003 -9.999E+003 -9.999E+003 -9.999E+003 -9.999E+003 -9.999E+003 -9.999E+003 -9.999E+003 -9.999E+003 -9.999E+003 -9.999E+003 -9.999E+003 -9.999E+003 -9.999E+003 -9.999E+003 -9.999E+003  4.717E-001  9.357E-001  1.324E+000  1.524E+000  1.567E+000  1.585E+000  1.590E+000  1.534E+000  1.463E+000  1.398E+000  1.261E+000  1.097E+000  8.894E-001  7.262E-001  6.785E-001  6.152E-001  5.354E-001  4.835E-001  4.371E-001  3.964E-001 -9.999E+003 -9.999E+003 -9.999E+003 -9.999E+003 -9.999E+003 -9.999E+003 -9.999E+003 -9.999E+003 -9.999E+003 -9.999E+003 -9.999E+003 -9.999E+003 -9.999E+003 -9.999E+003 -9.999E+003 -9.999E+003 -9.999E+003 -9.999E+003 -9.999E+003 -9.999E+003 -9.999E+003 -9.999E+003 -9.999E+003 -9.999E+003 -9.999E+003 -9.999E+003 -9.999E+003 -9.999E+003 -9.999E+003 -9.999E+003 -9.999E+003 -9.999E+003 -9.999E+003 -9.999E+003 -9.999E+003 -9.999E+003 -9.999E+003 -9.999E+003 -9.999E+003 -9.999E+003 -9.999E+003 -9.999E+003 -9.999E+003 -9.999E+003 -9.999E+003 -9.999E+003 -9.999E+003 -9.999E+003 -9.999E+003 -9.999E+003 -9.999E+003 -9.999E+003 -9.999E+003 -9.999E+003 -9.999E+003 -9.999E+003 -9.999E+003 -9.999E+003 -9.999E+003 -9.999E+003 -9.999E+003
 -9.999E+003 -9.999E+003 -9.999E+003 -9.999E+003 -9.999E+003 -9.999E+003 -9.999E+003 -9.999E+003 -9.999E+003 -9.999E+003 -9.999E+003 -9.999E+003 -9.999E+003 -9.999E+003 -9.999E+003 -9.999E+003 -9.999E+003 -9.999E+003 -9.999E+003 -9.999E+003 -9.999E+003 -9.999E+003 -9.999E+003 -9.999E+003 -9.999E+003 -9.999E+003 -9.999E+003 -9.999E+003 -9.999E+003 -9.999E+003 -9.999E+003 -9.999E+003 -9.999E+003 -9.999E+003 -9.999E+003 -9.999E+003 -9.999E+003 -9.999E+003 -9.999E+003 -9.999E+003 -9.999E+003 -9.999E+003 -9.999E+003 -9.999E+003 -9.999E+003 -9.999E+003 -9.999E+003 -9.999E+003 -9.999E+003 -9.999E+003 -9.999E+003 -9.999E+003 -9.999E+003 -9.999E+003 -9.999E+003 -9.999E+003 -9.999E+003 -9.999E+003 -9.999E+003 -9.999E+003 -9.999E+003 -9.999E+003 -9.999E+003 -9.999E+003 -9.999E+003 -9.999E+003 -9.999E+003 -9.999E+003 -9.999E+003 -9.999E+003  8.750E-001  1.330E+000  1.591E+000  1.706E+000  1.737E+000  1.681E+000  1.585E+000  1.571E+000  1.555E+000  1.496E+000  1.269E+000  8.491E-001  5.380E-001  4.214E-001  4.349E-001  4.164E-001  3.441E-001  1.576E-001 -9.999E+003 -9.999E+003 -9.999E+003 -9.999E+003 -9.999E+003 -9.999E+003 -9.999E+003 -9.999E+003 -9.999E+003 -9.999E+003 -9.999E+003 -9.999E+003 -9.999E+003 -9.999E+003 -9.999E+003 -9.999E+003 -9.999E+003 -9.999E+003 -9.999E+003 -9.999E+003 -9.999E+003 -9.999E+003 -9.999E+003 -9.999E+003 -9.999E+003 -9.999E+003 -9.999E+003 -9.999E+003 -9.999E+003 -9.999E+003 -9.999E+003 -9.999E+003 -9.999E+003 -9.999E+003 -9.999E+003 -9.999E+003 -9.999E+003 -9.999E+003 -9.999E+003 -9.999E+003 -9.999E+003 -9.999E+003 -9.999E+003 -9.999E+003 -9.999E+003 -9.999E+003 -9.999E+003 -9.999E+003 -9.999E+003 -9.999E+003 -9.999E+003 -9.999E+003 -9.999E+003 -9.999E+003 -9.999E+003 -9.999E+003 -9.999E+003 -9.999E+003 -9.999E+003 -9.999E+003 -9.999E+003 -9.999E+003
 -9.999E+003 -9.999E+003 -9.999E+003 -9.999E+003 -9.999E+003 -9.999E+003 -9.999E+003 -9.999E+003 -9.999E+003 -9.999E+003 -9.999E+003 -9.999E+003 -9.999E+003 -9.999E+003 -9.999E+003 -9.999E+003 -9.999E+003 -9.999E+003 -9.999E+003 -9.999E+003 -9.999E+003 -9.999E+003 -9.999E+003 -9.999E+003 -9.999E+003 -9.999E+003 -9.999E+003 -9.999E+003 -9.999E+003 -9.999E+003 -9.999E+003 -9.999E+003 -9.999E+003 -9.999E+003 -9.999E+003 -9.999E+003 -9.999E+003 -9.999E+003 -9.999E+003 -9.999E+003 -9.999E+003 -9.999E+003 -9.999E+003 -9.999E+003 -9.999E+003 -9.999E+003 -9.999E+003 -9.999E+003 -9.999E+003 -9.999E+003 -9.999E+003 -9.999E+003 -9.999E+003 -9.999E+003 -9.999E+003 -9.999E+003 -9.999E+003 -9.999E+003 -9.999E+003 -9.999E+003 -9.999E+003 -9.999E+003 -9.999E+003 -9.999E+003 -9.999E+003 -9.999E+003 -9.999E+003 -9.999E+003 -9.999E+003 -9.999E+003  9.222E-005  1.319E+000  1.666E+000  1.857E+000  1.909E+000  1.850E+000  1.776E+000  1.747E+000  1.705E+000  1.653E+000  1.335E+000  8.598E-001  2.916E-004 -9.999E+003  1.650E-001  2.357E-001  1.688E-004 -9.999E+003 -9.999E+003 -9.999E+003 -9.999E+003 -9.999E+003 -9.999E+003 -9.999E+003 -9.999E+003 -9.999E+003 -9.999E+003 -9.999E+003 -9.999E+003 -9.999E+003 -9.999E+003 -9.999E+003 -9.999E+003 -9.999E+003 -9.999E+003 -9.999E+003 -9.999E+003 -9.999E+003 -9.999E+003 -9.999E+003 -9.999E+003 -9.999E+003 -9.999E+003 -9.999E+003 -9.999E+003 -9.999E+003 -9.999E+003 -9.999E+003 -9.999E+003 -9.999E+003 -9.999E+003 -9.999E+003 -9.999E+003 -9.999E+003 -9.999E+003 -9.999E+003 -9.999E+003 -9.999E+003 -9.999E+003 -9.999E+003 -9.999E+003 -9.999E+003 -9.999E+003 -9.999E+003 -9.999E+003 -9.999E+003 -9.999E+003 -9.999E+003 -9.999E+003 -9.999E+003 -9.999E+003 -9.999E+003 -9.999E+003 -9.999E+003 -9.999E+003 -9.999E+003 -9.999E+003 -9.999E+003 -9.999E+003 -9.999E+003
 -9.999E+003 -9.999E+003 -9.999E+003 -9.999E+003 -9.999E+003 -9.999E+003 -9.999E+003 -9.999E+003 -9.999E+003 -9.999E+003 -9.999E+003 -9.999E+003 -9.999E+003 -9.999E+003 -9.999E+003 -9.999E+003 -9.999E+003 -9.999E+003 -9.999E+003 -9.999E+003 -9.999E+003 -9.999E+003 -9.999E+003 -9.999E+003 -9.999E+003 -9.999E+003 -9.999E+003 -9.999E+003 -9.999E+003 -9.999E+003 -9.999E+003 -9.999E+003 -9.999E+003 -9.999E+003 -9.999E+003 -9.999E+003 -9.999E+003 -9.999E+003 -9.999E+003 -9.999E+003 -9.999E+003 -9.999E+003 -9.999E+003 -9.999E+003 -9.999E+003 -9.999E+003 -9.999E+003 -9.999E+003 -9.999E+003 -9.999E+003 -9.999E+003 -9.999E+003 -9.999E+003 -9.999E+003 -9.999E+003 -9.999E+003 -9.999E+003 -9.999E+003 -9.999E+003 -9.999E+003 -9.999E+003 -9.999E+003 -9.999E+003 -9.999E+003 -9.999E+003 -9.999E+003 -9.999E+003 -9.999E+003 -9.999E+003 -9.999E+003 -9.999E+003  1.313E+000  1.757E+000  1.964E+000  2.052E+000  2.036E+000  1.979E+000  1.913E+000  1.825E+000  7.825E-001 -9.999E+003  2.315E-004 -9.999E+003 -9.999E+003 -9.999E+003  2.356E-005 -9.999E+003 -9.999E+003 -9.999E+003 -9.999E+003 -9.999E+003 -9.999E+003 -9.999E+003 -9.999E+003 -9.999E+003 -9.999E+003 -9.999E+003 -9.999E+003 -9.999E+003 -9.999E+003 -9.999E+003 -9.999E+003 -9.999E+003 -9.999E+003 -9.999E+003 -9.999E+003 -9.999E+003 -9.999E+003 -9.999E+003 -9.999E+003 -9.999E+003 -9.999E+003 -9.999E+003 -9.999E+003 -9.999E+003 -9.999E+003 -9.999E+003 -9.999E+003 -9.999E+003 -9.999E+003 -9.999E+003 -9.999E+003 -9.999E+003 -9.999E+003 -9.999E+003 -9.999E+003 -9.999E+003 -9.999E+003 -9.999E+003 -9.999E+003 -9.999E+003 -9.999E+003 -9.999E+003 -9.999E+003 -9.999E+003 -9.999E+003 -9.999E+003 -9.999E+003 -9.999E+003 -9.999E+003 -9.999E+003 -9.999E+003 -9.999E+003 -9.999E+003 -9.999E+003 -9.999E+003 -9.999E+003 -9.999E+003 -9.999E+003 -9.999E+003
 -9.999E+003 -9.999E+003 -9.999E+003 -9.999E+003 -9.999E+003 -9.999E+003 -9.999E+003 -9.999E+003 -9.999E+003 -9.999E+003 -9.999E+003 -9.999E+003 -9.999E+003 -9.999E+003 -9.999E+003 -9.999E+003 -9.999E+003 -9.999E+003 -9.999E+003 -9.999E+003 -9.999E+003 -9.999E+003 -9.999E+003 -9.999E+003 -9.999E+003 -9.999E+003 -9.999E+003 -9.999E+003 -9.999E+003 -9.999E+003 -9.999E+003 -9.999E+003 -9.999E+003 -9.999E+003 -9.999E+003 -9.999E+003 -9.999E+003 -9.999E+003 -9.999E+003 -9.999E+003 -9.999E+003 -9.999E+003 -9.999E+003 -9.999E+003 -9.999E+003 -9.999E+003 -9.999E+003 -9.999E+003 -9.999E+003 -9.999E+003 -9.999E+003 -9.999E+003 -9.999E+003 -9.999E+003 -9.999E+003 -9.999E+003 -9.999E+003 -9.999E+003 -9.999E+003 -9.999E+003 -9.999E+003 -9.999E+003 -9.999E+003 -9.999E+003 -9.999E+003 -9.999E+003 -9.999E+003 -9.999E+003 -9.999E+003 -9.999E+003  5.113E-001  1.353E+000  1.786E+000  2.016E+000  2.138E+000  2.152E+000  2.117E+000  2.026E+000  7.824E-001 -9.999E+003 -9.999E+003 -9.999E+003 -9.999E+003 -9.999E+003 -9.999E+003 -9.999E+003 -9.999E+003 -9.999E+003 -9.999E+003 -9.999E+003 -9.999E+003 -9.999E+003 -9.999E+003 -9.999E+003 -9.999E+003 -9.999E+003 -9.999E+003 -9.999E+003 -9.999E+003 -9.999E+003 -9.999E+003 -9.999E+003 -9.999E+003 -9.999E+003 -9.999E+003 -9.999E+003 -9.999E+003 -9.999E+003 -9.999E+003 -9.999E+003 -9.999E+003 -9.999E+003 -9.999E+003 -9.999E+003 -9.999E+003 -9.999E+003 -9.999E+003 -9.999E+003 -9.999E+003 -9.999E+003 -9.999E+003 -9.999E+003 -9.999E+003 -9.999E+003 -9.999E+003 -9.999E+003 -9.999E+003 -9.999E+003 -9.999E+003 -9.999E+003 -9.999E+003 -9.999E+003 -9.999E+003 -9.999E+003 -9.999E+003 -9.999E+003 -9.999E+003 -9.999E+003 -9.999E+003 -9.999E+003 -9.999E+003 -9.999E+003 -9.999E+003 -9.999E+003 -9.999E+003 -9.999E+003 -9.999E+003 -9.999E+003 -9.999E+003 -9.999E+003
 -9.999E+003 -9.999E+003 -9.999E+003 -9.999E+003 -9.999E+003 -9.999E+003 -9.999E+003 -9.999E+003 -9.999E+003 -9.999E+003 -9.999E+003 -9.999E+003 -9.999E+003 -9.999E+003 -9.999E+003 -9.999E+003 -9.999E+003 -9.999E+003 -9.999E+003 -9.999E+003 -9.999E+003 -9.999E+003 -9.999E+003 -9.999E+003 -9.999E+003 -9.999E+003 -9.999E+003 -9.999E+003 -9.999E+003 -9.999E+003 -9.999E+003 -9.999E+003 -9.999E+003 -9.999E+003 -9.999E+003 -9.999E+003 -9.999E+003 -9.999E+003 -9.999E+003 -9.999E+003 -9.999E+003 -9.999E+003 -9.999E+003 -9.999E+003 -9.999E+003 -9.999E+003 -9.999E+003 -9.999E+003 -9.999E+003 -9.999E+003 -9.999E+003 -9.999E+003 -9.999E+003 -9.999E+003 -9.999E+003 -9.999E+003 -9.999E+003 -9.999E+003 -9.999E+003 -9.999E+003 -9.999E+003 -9.999E+003 -9.999E+003 -9.999E+003 -9.999E+003 -9.999E+003 -9.999E+003 -9.999E+003 -9.999E+003 -9.999E+003 -9.999E+003  9.753E-001  1.608E+000  1.958E+000  2.113E+000  2.175E+000  2.215E+000  1.840E+000  5.268E-001 -9.999E+003 -9.999E+003 -9.999E+003 -9.999E+003 -9.999E+003 -9.999E+003 -9.999E+003 -9.999E+003 -9.999E+003 -9.999E+003 -9.999E+003 -9.999E+003 -9.999E+003 -9.999E+003 -9.999E+003 -9.999E+003 -9.999E+003 -9.999E+003 -9.999E+003 -9.999E+003 -9.999E+003 -9.999E+003 -9.999E+003 -9.999E+003 -9.999E+003 -9.999E+003 -9.999E+003 -9.999E+003 -9.999E+003 -9.999E+003 -9.999E+003 -9.999E+003 -9.999E+003 -9.999E+003 -9.999E+003 -9.999E+003 -9.999E+003 -9.999E+003 -9.999E+003 -9.999E+003 -9.999E+003 -9.999E+003 -9.999E+003 -9.999E+003 -9.999E+003 -9.999E+003 -9.999E+003 -9.999E+003 -9.999E+003 -9.999E+003 -9.999E+003 -9.999E+003 -9.999E+003 -9.999E+003 -9.999E+003 -9.999E+003 -9.999E+003 -9.999E+003 -9.999E+003 -9.999E+003 -9.999E+003 -9.999E+003 -9.999E+003 -9.999E+003 -9.999E+003 -9.999E+003 -9.999E+003 -9.999E+003 -9.999E+003 -9.999E+003 -9.999E+003
 -9.999E+003 -9.999E+003 -9.999E+003 -9.999E+003 -9.999E+003 -9.999E+003 -9.999E+003 -9.999E+003 -9.999E+003 -9.999E+003 -9.999E+003 -9.999E+003 -9.999E+003 -9.999E+003 -9.999E+003 -9.999E+003 -9.999E+003 -9.999E+003 -9.999E+003 -9.999E+003 -9.999E+003 -9.999E+003 -9.999E+003 -9.999E+003 -9.999E+003 -9.999E+003 -9.999E+003 -9.999E+003 -9.999E+003 -9.999E+003 -9.999E+003 -9.999E+003 -9.999E+003 -9.999E+003 -9.999E+003 -9.999E+003 -9.999E+003 -9.999E+003 -9.999E+003 -9.999E+003 -9.999E+003 -9.999E+003 -9.999E+003 -9.999E+003 -9.999E+003 -9.999E+003 -9.999E+003 -9.999E+003 -9.999E+003 -9.999E+003 -9.999E+003 -9.999E+003 -9.999E+003 -9.999E+003 -9.999E+003 -9.999E+003 -9.999E+003 -9.999E+003 -9.999E+003 -9.999E+003 -9.999E+003 -9.999E+003 -9.999E+003 -9.999E+003 -9.999E+003 -9.999E+003 -9.999E+003 -9.999E+003 -9.999E+003 -9.999E+003 -9.999E+003  6.166E-001  1.223E+000  1.694E+000  1.933E+000  2.062E+000  2.089E+000  1.242E+000  2.945E-001  4.884E-005 -9.999E+003 -9.999E+003 -9.999E+003 -9.999E+003 -9.999E+003 -9.999E+003 -9.999E+003 -9.999E+003 -9.999E+003 -9.999E+003 -9.999E+003 -9.999E+003 -9.999E+003 -9.999E+003 -9.999E+003 -9.999E+003 -9.999E+003 -9.999E+003 -9.999E+003 -9.999E+003 -9.999E+003 -9.999E+003 -9.999E+003 -9.999E+003 -9.999E+003 -9.999E+003 -9.999E+003 -9.999E+003 -9.999E+003 -9.999E+003 -9.999E+003 -9.999E+003 -9.999E+003 -9.999E+003 -9.999E+003 -9.999E+003 -9.999E+003 -9.999E+003 -9.999E+003 -9.999E+003 -9.999E+003 -9.999E+003 -9.999E+003 -9.999E+003 -9.999E+003 -9.999E+003 -9.999E+003 -9.999E+003 -9.999E+003 -9.999E+003 -9.999E+003 -9.999E+003 -9.999E+003 -9.999E+003 -9.999E+003 -9.999E+003 -9.999E+003 -9.999E+003 -9.999E+003 -9.999E+003 -9.999E+003 -9.999E+003 -9.999E+003 -9.999E+003 -9.999E+003 -9.999E+003 -9.999E+003 -9.999E+003 -9.999E+003 -9.999E+003
 -9.999E+003 -9.999E+003 -9.999E+003 -9.999E+003 -9.999E+003 -9.999E+003 -9.999E+003 -9.999E+003 -9.999E+003 -9.999E+003 -9.999E+003 -9.999E+003 -9.999E+003 -9.999E+003 -9.999E+003 -9.999E+003 -9.999E+003 -9.999E+003 -9.999E+003 -9.999E+003 -9.999E+003 -9.999E+003 -9.999E+003 -9.999E+003 -9.999E+003 -9.999E+003 -9.999E+003 -9.999E+003 -9.999E+003 -9.999E+003 -9.999E+003 -9.999E+003 -9.999E+003 -9.999E+003 -9.999E+003 -9.999E+003 -9.999E+003 -9.999E+003 -9.999E+003 -9.999E+003 -9.999E+003 -9.999E+003 -9.999E+003 -9.999E+003 -9.999E+003 -9.999E+003 -9.999E+003 -9.999E+003 -9.999E+003 -9.999E+003 -9.999E+003 -9.999E+003 -9.999E+003 -9.999E+003 -9.999E+003 -9.999E+003 -9.999E+003 -9.999E+003 -9.999E+003 -9.999E+003 -9.999E+003 -9.999E+003 -9.999E+003 -9.999E+003 -9.999E+003 -9.999E+003 -9.999E+003 -9.999E+003 -9.999E+003 -9.999E+003 -9.999E+003  5.534E-001  9.107E-001  1.248E+000  1.478E+000  1.586E+000  1.602E+000  4.509E-001  1.907E-004 -9.999E+003 -9.999E+003 -9.999E+003 -9.999E+003 -9.999E+003 -9.999E+003 -9.999E+003 -9.999E+003 -9.999E+003 -9.999E+003 -9.999E+003 -9.999E+003 -9.999E+003 -9.999E+003 -9.999E+003 -9.999E+003 -9.999E+003 -9.999E+003 -9.999E+003 -9.999E+003 -9.999E+003 -9.999E+003 -9.999E+003 -9.999E+003 -9.999E+003 -9.999E+003 -9.999E+003 -9.999E+003 -9.999E+003 -9.999E+003 -9.999E+003 -9.999E+003 -9.999E+003 -9.999E+003 -9.999E+003 -9.999E+003 -9.999E+003 -9.999E+003 -9.999E+003 -9.999E+003 -9.999E+003 -9.999E+003 -9.999E+003 -9.999E+003 -9.999E+003 -9.999E+003 -9.999E+003 -9.999E+003 -9.999E+003 -9.999E+003 -9.999E+003 -9.999E+003 -9.999E+003 -9.999E+003 -9.999E+003 -9.999E+003 -9.999E+003 -9.999E+003 -9.999E+003 -9.999E+003 -9.999E+003 -9.999E+003 -9.999E+003 -9.999E+003 -9.999E+003 -9.999E+003 -9.999E+003 -9.999E+003 -9.999E+003 -9.999E+003 -9.999E+003
 -9.999E+003 -9.999E+003 -9.999E+003 -9.999E+003 -9.999E+003 -9.999E+003 -9.999E+003 -9.999E+003 -9.999E+003 -9.999E+003 -9.999E+003 -9.999E+003 -9.999E+003 -9.999E+003 -9.999E+003 -9.999E+003 -9.999E+003 -9.999E+003 -9.999E+003 -9.999E+003 -9.999E+003 -9.999E+003 -9.999E+003 -9.999E+003 -9.999E+003 -9.999E+003 -9.999E+003 -9.999E+003 -9.999E+003 -9.999E+003 -9.999E+003 -9.999E+003 -9.999E+003 -9.999E+003 -9.999E+003 -9.999E+003 -9.999E+003 -9.999E+003 -9.999E+003 -9.999E+003 -9.999E+003 -9.999E+003 -9.999E+003 -9.999E+003 -9.999E+003 -9.999E+003 -9.999E+003 -9.999E+003 -9.999E+003 -9.999E+003 -9.999E+003 -9.999E+003 -9.999E+003 -9.999E+003 -9.999E+003 -9.999E+003 -9.999E+003 -9.999E+003 -9.999E+003 -9.999E+003 -9.999E+003 -9.999E+003 -9.999E+003 -9.999E+003 -9.999E+003 -9.999E+003 -9.999E+003 -9.999E+003 -9.999E+003 -9.999E+003  5.954E-001  7.410E-001  8.724E-001  9.128E-001  9.052E-001  8.420E-001  3.255E-001 -9.999E+003 -9.999E+003 -9.999E+003 -9.999E+003 -9.999E+003 -9.999E+003 -9.999E+003 -9.999E+003 -9.999E+003 -9.999E+003 -9.999E+003 -9.999E+003 -9.999E+003 -9.999E+003 -9.999E+003 -9.999E+003 -9.999E+003 -9.999E+003 -9.999E+003 -9.999E+003 -9.999E+003 -9.999E+003 -9.999E+003 -9.999E+003 -9.999E+003 -9.999E+003 -9.999E+003 -9.999E+003 -9.999E+003 -9.999E+003 -9.999E+003 -9.999E+003 -9.999E+003 -9.999E+003 -9.999E+003 -9.999E+003 -9.999E+003 -9.999E+003 -9.999E+003 -9.999E+003 -9.999E+003 -9.999E+003 -9.999E+003 -9.999E+003 -9.999E+003 -9.999E+003 -9.999E+003 -9.999E+003 -9.999E+003 -9.999E+003 -9.999E+003 -9.999E+003 -9.999E+003 -9.999E+003 -9.999E+003 -9.999E+003 -9.999E+003 -9.999E+003 -9.999E+003 -9.999E+003 -9.999E+003 -9.999E+003 -9.999E+003 -9.999E+003 -9.999E+003 -9.999E+003 -9.999E+003 -9.999E+003 -9.999E+003 -9.999E+003 -9.999E+003 -9.999E+003 -9.999E+003
 -9.999E+003 -9.999E+003 -9.999E+003 -9.999E+003 -9.999E+003 -9.999E+003 -9.999E+003 -9.999E+003 -9.999E+003 -9.999E+003 -9.999E+003 -9.999E+003 -9.999E+003 -9.999E+003 -9.999E+003 -9.999E+003 -9.999E+003 -9.999E+003 -9.999E+003 -9.999E+003 -9.999E+003 -9.999E+003 -9.999E+003 -9.999E+003 -9.999E+003 -9.999E+003 -9.999E+003 -9.999E+003 -9.999E+003 -9.999E+003 -9.999E+003 -9.999E+003 -9.999E+003 -9.999E+003 -9.999E+003 -9.999E+003 -9.999E+003 -9.999E+003 -9.999E+003 -9.999E+003 -9.999E+003 -9.999E+003 -9.999E+003 -9.999E+003 -9.999E+003 -9.999E+003 -9.999E+003 -9.999E+003 -9.999E+003 -9.999E+003 -9.999E+003 -9.999E+003 -9.999E+003 -9.999E+003 -9.999E+003 -9.999E+003 -9.999E+003 -9.999E+003 -9.999E+003 -9.999E+003 -9.999E+003 -9.999E+003 -9.999E+003 -9.999E+003 -9.999E+003 -9.999E+003 -9.999E+003 -9.999E+003 -9.999E+003  3.736E-001  6.586E-001  8.502E-001  9.014E-001  7.481E-001  4.740E-001  1.048E-003 -9.999E+003 -9.999E+003 -9.999E+003 -9.999E+003 -9.999E+003 -9.999E+003 -9.999E+003 -9.999E+003 -9.999E+003 -9.999E+003 -9.999E+003 -9.999E+003 -9.999E+003 -9.999E+003 -9.999E+003 -9.999E+003 -9.999E+003 -9.999E+003 -9.999E+003 -9.999E+003 -9.999E+003 -9.999E+003 -9.999E+003 -9.999E+003 -9.999E+003 -9.999E+003 -9.999E+003 -9.999E+003 -9.999E+003 -9.999E+003 -9.999E+003 -9.999E+003 -9.999E+003 -9.999E+003 -9.999E+003 -9.999E+003 -9.999E+003 -9.999E+003 -9.999E+003 -9.999E+003 -9.999E+003 -9.999E+003 -9.999E+003 -9.999E+003 -9.999E+003 -9.999E+003 -9.999E+003 -9.999E+003 -9.999E+003 -9.999E+003 -9.999E+003 -9.999E+003 -9.999E+003 -9.999E+003 -9.999E+003 -9.999E+003 -9.999E+003 -9.999E+003 -9.999E+003 -9.999E+003 -9.999E+003 -9.999E+003 -9.999E+003 -9.999E+003 -9.999E+003 -9.999E+003 -9.999E+003 -9.999E+003 -9.999E+003 -9.999E+003 -9.999E+003 -9.999E+003 -9.999E+003 -9.999E+003
 -9.999E+003 -9.999E+003 -9.999E+003 -9.999E+003 -9.999E+003 -9.999E+003 -9.999E+003 -9.999E+003 -9.999E+003 -9.999E+003 -9.999E+003 -9.999E+003 -9.999E+003 -9.999E+003 -9.999E+003 -9.999E+003 -9.999E+003 -9.999E+003 -9.999E+003 -9.999E+003 -9.999E+003 -9.999E+003 -9.999E+003 -9.999E+003 -9.999E+003 -9.999E+003 -9.999E+003 -9.999E+003 -9.999E+003 -9.999E+003 -9.999E+003 -9.999E+003 -9.999E+003 -9.999E+003 -9.999E+003 -9.999E+003 -9.999E+003 -9.999E+003 -9.999E+003 -9.999E+003 -9.999E+003 -9.999E+003 -9.999E+003 -9.999E+003 -9.999E+003 -9.999E+003 -9.999E+003 -9.999E+003 -9.999E+003 -9.999E+003 -9.999E+003 -9.999E+003 -9.999E+003 -9.999E+003 -9.999E+003 -9.999E+003 -9.999E+003 -9.999E+003 -9.999E+003 -9.999E+003 -9.999E+003 -9.999E+003 -9.999E+003 -9.999E+003 -9.999E+003 -9.999E+003 -9.999E+003 -9.999E+003  3.321E-004  4.982E-001  6.576E-001  7.218E-001  6.798E-001  5.345E-001  8.006E-004 -9.999E+003 -9.999E+003 -9.999E+003 -9.999E+003 -9.999E+003 -9.999E+003 -9.999E+003 -9.999E+003 -9.999E+003 -9.999E+003 -9.999E+003 -9.999E+003 -9.999E+003 -9.999E+003 -9.999E+003 -9.999E+003 -9.999E+003 -9.999E+003 -9.999E+003 -9.999E+003 -9.999E+003 -9.999E+003 -9.999E+003 -9.999E+003 -9.999E+003 -9.999E+003 -9.999E+003 -9.999E+003 -9.999E+003 -9.999E+003 -9.999E+003 -9.999E+003 -9.999E+003 -9.999E+003 -9.999E+003 -9.999E+003 -9.999E+003 -9.999E+003 -9.999E+003 -9.999E+003 -9.999E+003 -9.999E+003 -9.999E+003 -9.999E+003 -9.999E+003 -9.999E+003 -9.999E+003 -9.999E+003 -9.999E+003 -9.999E+003 -9.999E+003 -9.999E+003 -9.999E+003 -9.999E+003 -9.999E+003 -9.999E+003 -9.999E+003 -9.999E+003 -9.999E+003 -9.999E+003 -9.999E+003 -9.999E+003 -9.999E+003 -9.999E+003 -9.999E+003 -9.999E+003 -9.999E+003 -9.999E+003 -9.999E+003 -9.999E+003 -9.999E+003 -9.999E+003 -9.999E+003 -9.999E+003 -9.999E+003
 -9.999E+003 -9.999E+003 -9.999E+003 -9.999E+003 -9.999E+003 -9.999E+003 -9.999E+003 -9.999E+003 -9.999E+003 -9.999E+003 -9.999E+003 -9.999E+003 -9.999E+003 -9.999E+003 -9.999E+003 -9.999E+003 -9.999E+003 -9.999E+003 -9.999E+003 -9.999E+003 -9.999E+003 -9.999E+003 -9.999E+003 -9.999E+003 -9.999E+003 -9.999E+003 -9.999E+003 -9.999E+003 -9.999E+003 -9.999E+003 -9.999E+003 -9.999E+003 -9.999E+003 -9.999E+003 -9.999E+003 -9.999E+003 -9.999E+003 -9.999E+003 -9.999E+003 -9.999E+003 -9.999E+003 -9.999E+003 -9.999E+003 -9.999E+003 -9.999E+003 -9.999E+003 -9.999E+003 -9.999E+003 -9.999E+003 -9.999E+003 -9.999E+003 -9.999E+003 -9.999E+003 -9.999E+003 -9.999E+003 -9.999E+003 -9.999E+003 -9.999E+003 -9.999E+003 -9.999E+003 -9.999E+003 -9.999E+003 -9.999E+003 -9.999E+003 -9.999E+003 -9.999E+003 -9.999E+003 -9.999E+003  2.460E-001  4.312E-001  5.380E-001  4.708E-001  3.542E-001  3.167E-004 -9.999E+003 -9.999E+003 -9.999E+003 -9.999E+003 -9.999E+003 -9.999E+003 -9.999E+003 -9.999E+003 -9.999E+003 -9.999E+003 -9.999E+003 -9.999E+003 -9.999E+003 -9.999E+003 -9.999E+003 -9.999E+003 -9.999E+003 -9.999E+003 -9.999E+003 -9.999E+003 -9.999E+003 -9.999E+003 -9.999E+003 -9.999E+003 -9.999E+003 -9.999E+003 -9.999E+003 -9.999E+003 -9.999E+003 -9.999E+003 -9.999E+003 -9.999E+003 -9.999E+003 -9.999E+003 -9.999E+003 -9.999E+003 -9.999E+003 -9.999E+003 -9.999E+003 -9.999E+003 -9.999E+003 -9.999E+003 -9.999E+003 -9.999E+003 -9.999E+003 -9.999E+003 -9.999E+003 -9.999E+003 -9.999E+003 -9.999E+003 -9.999E+003 -9.999E+003 -9.999E+003 -9.999E+003 -9.999E+003 -9.999E+003 -9.999E+003 -9.999E+003 -9.999E+003 -9.999E+003 -9.999E+003 -9.999E+003 -9.999E+003 -9.999E+003 -9.999E+003 -9.999E+003 -9.999E+003 -9.999E+003 -9.999E+003 -9.999E+003 -9.999E+003 -9.999E+003 -9.999E+003 -9.999E+003 -9.999E+003 -9.999E+003
 -9.999E+003 -9.999E+003 -9.999E+003 -9.999E+003 -9.999E+003 -9.999E+003 -9.999E+003 -9.999E+003 -9.999E+003 -9.999E+003 -9.999E+003 -9.999E+003 -9.999E+003 -9.999E+003 -9.999E+003 -9.999E+003 -9.999E+003 -9.999E+003 -9.999E+003 -9.999E+003 -9.999E+003 -9.999E+003 -9.999E+003 -9.999E+003 -9.999E+003 -9.999E+003 -9.999E+003 -9.999E+003 -9.999E+003 -9.999E+003 -9.999E+003 -9.999E+003 -9.999E+003 -9.999E+003 -9.999E+003 -9.999E+003 -9.999E+003 -9.999E+003 -9.999E+003 -9.999E+003 -9.999E+003 -9.999E+003 -9.999E+003 -9.999E+003 -9.999E+003 -9.999E+003 -9.999E+003 -9.999E+003 -9.999E+003 -9.999E+003 -9.999E+003 -9.999E+003 -9.999E+003 -9.999E+003 -9.999E+003 -9.999E+003 -9.999E+003 -9.999E+003 -9.999E+003 -9.999E+003 -9.999E+003 -9.999E+003 -9.999E+003 -9.999E+003 -9.999E+003 -9.999E+003 -9.999E+003 -9.999E+003  2.038E-001  2.521E-001  2.693E-001  2.396E-001  1.077E-004 -9.999E+003 -9.999E+003 -9.999E+003 -9.999E+003 -9.999E+003 -9.999E+003 -9.999E+003 -9.999E+003 -9.999E+003 -9.999E+003 -9.999E+003 -9.999E+003 -9.999E+003 -9.999E+003 -9.999E+003 -9.999E+003 -9.999E+003 -9.999E+003 -9.999E+003 -9.999E+003 -9.999E+003 -9.999E+003 -9.999E+003 -9.999E+003 -9.999E+003 -9.999E+003 -9.999E+003 -9.999E+003 -9.999E+003 -9.999E+003 -9.999E+003 -9.999E+003 -9.999E+003 -9.999E+003 -9.999E+003 -9.999E+003 -9.999E+003 -9.999E+003 -9.999E+003 -9.999E+003 -9.999E+003 -9.999E+003 -9.999E+003 -9.999E+003 -9.999E+003 -9.999E+003 -9.999E+003 -9.999E+003 -9.999E+003 -9.999E+003 -9.999E+003 -9.999E+003 -9.999E+003 -9.999E+003 -9.999E+003 -9.999E+003 -9.999E+003 -9.999E+003 -9.999E+003 -9.999E+003 -9.999E+003 -9.999E+003 -9.999E+003 -9.999E+003 -9.999E+003 -9.999E+003 -9.999E+003 -9.999E+003 -9.999E+003 -9.999E+003 -9.999E+003 -9.999E+003 -9.999E+003 -9.999E+003 -9.999E+003 -9.999E+003 -9.999E+003
 -9.999E+003 -9.999E+003 -9.999E+003 -9.999E+003 -9.999E+003 -9.999E+003 -9.999E+003 -9.999E+003 -9.999E+003 -9.999E+003 -9.999E+003 -9.999E+003 -9.999E+003 -9.999E+003 -9.999E+003 -9.999E+003 -9.999E+003 -9.999E+003 -9.999E+003 -9.999E+003 -9.999E+003 -9.999E+003 -9.999E+003 -9.999E+003 -9.999E+003 -9.999E+003 -9.999E+003 -9.999E+003 -9.999E+003 -9.999E+003 -9.999E+003 -9.999E+003 -9.999E+003 -9.999E+003 -9.999E+003 -9.999E+003 -9.999E+003 -9.999E+003 -9.999E+003 -9.999E+003 -9.999E+003 -9.999E+003 -9.999E+003 -9.999E+003 -9.999E+003 -9.999E+003 -9.999E+003 -9.999E+003 -9.999E+003 -9.999E+003 -9.999E+003 -9.999E+003 -9.999E+003 -9.999E+003 -9.999E+003 -9.999E+003 -9.999E+003 -9.999E+003 -9.999E+003 -9.999E+003 -9.999E+003 -9.999E+003 -9.999E+003 -9.999E+003 -9.999E+003 -9.999E+003 -9.999E+003 -9.999E+003 -9.999E+003  9.957E-002  9.427E-002 -9.999E+003 -9.999E+003 -9.999E+003 -9.999E+003 -9.999E+003 -9.999E+003 -9.999E+003 -9.999E+003 -9.999E+003 -9.999E+003 -9.999E+003 -9.999E+003 -9.999E+003 -9.999E+003 -9.999E+003 -9.999E+003 -9.999E+003 -9.999E+003 -9.999E+003 -9.999E+003 -9.999E+003 -9.999E+003 -9.999E+003 -9.999E+003 -9.999E+003 -9.999E+003 -9.999E+003 -9.999E+003 -9.999E+003 -9.999E+003 -9.999E+003 -9.999E+003 -9.999E+003 -9.999E+003 -9.999E+003 -9.999E+003 -9.999E+003 -9.999E+003 -9.999E+003 -9.999E+003 -9.999E+003 -9.999E+003 -9.999E+003 -9.999E+003 -9.999E+003 -9.999E+003 -9.999E+003 -9.999E+003 -9.999E+003 -9.999E+003 -9.999E+003 -9.999E+003 -9.999E+003 -9.999E+003 -9.999E+003 -9.999E+003 -9.999E+003 -9.999E+003 -9.999E+003 -9.999E+003 -9.999E+003 -9.999E+003 -9.999E+003 -9.999E+003 -9.999E+003 -9.999E+003 -9.999E+003 -9.999E+003 -9.999E+003 -9.999E+003 -9.999E+003 -9.999E+003 -9.999E+003 -9.999E+003 -9.999E+003 -9.999E+003 -9.999E+003 -9.999E+003 -9.999E+003
 -9.999E+003 -9.999E+003 -9.999E+003 -9.999E+003 -9.999E+003 -9.999E+003 -9.999E+003 -9.999E+003 -9.999E+003 -9.999E+003 -9.999E+003 -9.999E+003 -9.999E+003 -9.999E+003 -9.999E+003 -9.999E+003 -9.999E+003 -9.999E+003 -9.999E+003 -9.999E+003 -9.999E+003 -9.999E+003 -9.999E+003 -9.999E+003 -9.999E+003 -9.999E+003 -9.999E+003 -9.999E+003 -9.999E+003 -9.999E+003 -9.999E+003 -9.999E+003 -9.999E+003 -9.999E+003 -9.999E+003 -9.999E+003 -9.999E+003 -9.999E+003 -9.999E+003 -9.999E+003 -9.999E+003 -9.999E+003 -9.999E+003 -9.999E+003 -9.999E+003 -9.999E+003 -9.999E+003 -9.999E+003 -9.999E+003 -9.999E+003 -9.999E+003 -9.999E+003 -9.999E+003 -9.999E+003 -9.999E+003 -9.999E+003 -9.999E+003 -9.999E+003 -9.999E+003 -9.999E+003 -9.999E+003 -9.999E+003 -9.999E+003 -9.999E+003 -9.999E+003 -9.999E+003 -9.999E+003 -9.999E+003 -9.999E+003 -9.999E+003 -9.999E+003 -9.999E+003 -9.999E+003 -9.999E+003 -9.999E+003 -9.999E+003 -9.999E+003 -9.999E+003 -9.999E+003 -9.999E+003 -9.999E+003 -9.999E+003 -9.999E+003 -9.999E+003 -9.999E+003 -9.999E+003 -9.999E+003 -9.999E+003 -9.999E+003 -9.999E+003 -9.999E+003 -9.999E+003 -9.999E+003 -9.999E+003 -9.999E+003 -9.999E+003 -9.999E+003 -9.999E+003 -9.999E+003 -9.999E+003 -9.999E+003 -9.999E+003 -9.999E+003 -9.999E+003 -9.999E+003 -9.999E+003 -9.999E+003 -9.999E+003 -9.999E+003 -9.999E+003 -9.999E+003 -9.999E+003 -9.999E+003 -9.999E+003 -9.999E+003 -9.999E+003 -9.999E+003 -9.999E+003 -9.999E+003 -9.999E+003 -9.999E+003 -9.999E+003 -9.999E+003 -9.999E+003 -9.999E+003 -9.999E+003 -9.999E+003 -9.999E+003 -9.999E+003 -9.999E+003 -9.999E+003 -9.999E+003 -9.999E+003 -9.999E+003 -9.999E+003 -9.999E+003 -9.999E+003 -9.999E+003 -9.999E+003 -9.999E+003 -9.999E+003 -9.999E+003 -9.999E+003 -9.999E+003 -9.999E+003 -9.999E+003 -9.999E+003 -9.999E+003 -9.999E+003 -9.999E+003
 -9.999E+003 -9.999E+003 -9.999E+003 -9.999E+003 -9.999E+003 -9.999E+003 -9.999E+003 -9.999E+003 -9.999E+003 -9.999E+003 -9.999E+003 -9.999E+003 -9.999E+003 -9.999E+003 -9.999E+003 -9.999E+003 -9.999E+003 -9.999E+003 -9.999E+003 -9.999E+003 -9.999E+003 -9.999E+003 -9.999E+003 -9.999E+003 -9.999E+003 -9.999E+003 -9.999E+003 -9.999E+003 -9.999E+003 -9.999E+003 -9.999E+003 -9.999E+003 -9.999E+003 -9.999E+003 -9.999E+003 -9.999E+003 -9.999E+003 -9.999E+003 -9.999E+003 -9.999E+003 -9.999E+003 -9.999E+003 -9.999E+003 -9.999E+003 -9.999E+003 -9.999E+003 -9.999E+003 -9.999E+003 -9.999E+003 -9.999E+003 -9.999E+003 -9.999E+003 -9.999E+003 -9.999E+003 -9.999E+003 -9.999E+003 -9.999E+003 -9.999E+003 -9.999E+003 -9.999E+003 -9.999E+003 -9.999E+003 -9.999E+003 -9.999E+003 -9.999E+003 -9.999E+003 -9.999E+003 -9.999E+003 -9.999E+003 -9.999E+003 -9.999E+003 -9.999E+003 -9.999E+003 -9.999E+003 -9.999E+003 -9.999E+003 -9.999E+003 -9.999E+003 -9.999E+003 -9.999E+003 -9.999E+003 -9.999E+003 -9.999E+003 -9.999E+003 -9.999E+003 -9.999E+003 -9.999E+003 -9.999E+003 -9.999E+003 -9.999E+003 -9.999E+003 -9.999E+003 -9.999E+003 -9.999E+003 -9.999E+003 -9.999E+003 -9.999E+003 -9.999E+003 -9.999E+003 -9.999E+003 -9.999E+003 -9.999E+003 -9.999E+003 -9.999E+003 -9.999E+003 -9.999E+003 -9.999E+003 -9.999E+003 -9.999E+003 -9.999E+003 -9.999E+003 -9.999E+003 -9.999E+003 -9.999E+003 -9.999E+003 -9.999E+003 -9.999E+003 -9.999E+003 -9.999E+003 -9.999E+003 -9.999E+003 -9.999E+003 -9.999E+003 -9.999E+003 -9.999E+003 -9.999E+003 -9.999E+003 -9.999E+003 -9.999E+003 -9.999E+003 -9.999E+003 -9.999E+003 -9.999E+003 -9.999E+003 -9.999E+003 -9.999E+003 -9.999E+003 -9.999E+003 -9.999E+003 -9.999E+003 -9.999E+003 -9.999E+003 -9.999E+003 -9.999E+003 -9.999E+003 -9.999E+003 -9.999E+003 -9.999E+003 -9.999E+003 -9.999E+003
 -9.999E+003 -9.999E+003 -9.999E+003 -9.999E+003 -9.999E+003 -9.999E+003 -9.999E+003 -9.999E+003 -9.999E+003 -9.999E+003 -9.999E+003 -9.999E+003 -9.999E+003 -9.999E+003 -9.999E+003 -9.999E+003 -9.999E+003 -9.999E+003 -9.999E+003 -9.999E+003 -9.999E+003 -9.999E+003 -9.999E+003 -9.999E+003 -9.999E+003 -9.999E+003 -9.999E+003 -9.999E+003 -9.999E+003 -9.999E+003 -9.999E+003 -9.999E+003 -9.999E+003 -9.999E+003 -9.999E+003 -9.999E+003 -9.999E+003 -9.999E+003 -9.999E+003 -9.999E+003 -9.999E+003 -9.999E+003 -9.999E+003 -9.999E+003 -9.999E+003 -9.999E+003 -9.999E+003 -9.999E+003 -9.999E+003 -9.999E+003 -9.999E+003 -9.999E+003 -9.999E+003 -9.999E+003 -9.999E+003 -9.999E+003 -9.999E+003 -9.999E+003 -9.999E+003 -9.999E+003 -9.999E+003 -9.999E+003 -9.999E+003 -9.999E+003 -9.999E+003 -9.999E+003 -9.999E+003 -9.999E+003 -9.999E+003 -9.999E+003 -9.999E+003 -9.999E+003 -9.999E+003 -9.999E+003 -9.999E+003 -9.999E+003 -9.999E+003 -9.999E+003 -9.999E+003 -9.999E+003 -9.999E+003 -9.999E+003 -9.999E+003 -9.999E+003 -9.999E+003 -9.999E+003 -9.999E+003 -9.999E+003 -9.999E+003 -9.999E+003 -9.999E+003 -9.999E+003 -9.999E+003 -9.999E+003 -9.999E+003 -9.999E+003 -9.999E+003 -9.999E+003 -9.999E+003 -9.999E+003 -9.999E+003 -9.999E+003 -9.999E+003 -9.999E+003 -9.999E+003 -9.999E+003 -9.999E+003 -9.999E+003 -9.999E+003 -9.999E+003 -9.999E+003 -9.999E+003 -9.999E+003 -9.999E+003 -9.999E+003 -9.999E+003 -9.999E+003 -9.999E+003 -9.999E+003 -9.999E+003 -9.999E+003 -9.999E+003 -9.999E+003 -9.999E+003 -9.999E+003 -9.999E+003 -9.999E+003 -9.999E+003 -9.999E+003 -9.999E+003 -9.999E+003 -9.999E+003 -9.999E+003 -9.999E+003 -9.999E+003 -9.999E+003 -9.999E+003 -9.999E+003 -9.999E+003 -9.999E+003 -9.999E+003 -9.999E+003 -9.999E+003 -9.999E+003 -9.999E+003 -9.999E+003 -9.999E+003 -9.999E+003 -9.999E+003 -9.999E+003
 -9.999E+003 -9.999E+003 -9.999E+003 -9.999E+003 -9.999E+003 -9.999E+003 -9.999E+003 -9.999E+003 -9.999E+003 -9.999E+003 -9.999E+003 -9.999E+003 -9.999E+003 -9.999E+003 -9.999E+003 -9.999E+003 -9.999E+003 -9.999E+003 -9.999E+003 -9.999E+003 -9.999E+003 -9.999E+003 -9.999E+003 -9.999E+003 -9.999E+003 -9.999E+003 -9.999E+003 -9.999E+003 -9.999E+003 -9.999E+003 -9.999E+003 -9.999E+003 -9.999E+003 -9.999E+003 -9.999E+003 -9.999E+003 -9.999E+003 -9.999E+003 -9.999E+003 -9.999E+003 -9.999E+003 -9.999E+003 -9.999E+003 -9.999E+003 -9.999E+003 -9.999E+003 -9.999E+003 -9.999E+003 -9.999E+003 -9.999E+003 -9.999E+003 -9.999E+003 -9.999E+003 -9.999E+003 -9.999E+003 -9.999E+003 -9.999E+003 -9.999E+003 -9.999E+003 -9.999E+003 -9.999E+003 -9.999E+003 -9.999E+003 -9.999E+003 -9.999E+003 -9.999E+003 -9.999E+003 -9.999E+003 -9.999E+003 -9.999E+003 -9.999E+003 -9.999E+003 -9.999E+003 -9.999E+003 -9.999E+003 -9.999E+003 -9.999E+003 -9.999E+003 -9.999E+003 -9.999E+003 -9.999E+003 -9.999E+003 -9.999E+003 -9.999E+003 -9.999E+003 -9.999E+003 -9.999E+003 -9.999E+003 -9.999E+003 -9.999E+003 -9.999E+003 -9.999E+003 -9.999E+003 -9.999E+003 -9.999E+003 -9.999E+003 -9.999E+003 -9.999E+003 -9.999E+003 -9.999E+003 -9.999E+003 -9.999E+003 -9.999E+003 -9.999E+003 -9.999E+003 -9.999E+003 -9.999E+003 -9.999E+003 -9.999E+003 -9.999E+003 -9.999E+003 -9.999E+003 -9.999E+003 -9.999E+003 -9.999E+003 -9.999E+003 -9.999E+003 -9.999E+003 -9.999E+003 -9.999E+003 -9.999E+003 -9.999E+003 -9.999E+003 -9.999E+003 -9.999E+003 -9.999E+003 -9.999E+003 -9.999E+003 -9.999E+003 -9.999E+003 -9.999E+003 -9.999E+003 -9.999E+003 -9.999E+003 -9.999E+003 -9.999E+003 -9.999E+003 -9.999E+003 -9.999E+003 -9.999E+003 -9.999E+003 -9.999E+003 -9.999E+003 -9.999E+003 -9.999E+003 -9.999E+003 -9.999E+003 -9.999E+003 -9.999E+003 -9.999E+003
 -9.999E+003 -9.999E+003 -9.999E+003 -9.999E+003 -9.999E+003 -9.999E+003 -9.999E+003 -9.999E+003 -9.999E+003 -9.999E+003 -9.999E+003 -9.999E+003 -9.999E+003 -9.999E+003 -9.999E+003 -9.999E+003 -9.999E+003 -9.999E+003 -9.999E+003 -9.999E+003 -9.999E+003 -9.999E+003 -9.999E+003 -9.999E+003 -9.999E+003 -9.999E+003 -9.999E+003 -9.999E+003 -9.999E+003 -9.999E+003 -9.999E+003 -9.999E+003 -9.999E+003 -9.999E+003 -9.999E+003 -9.999E+003 -9.999E+003 -9.999E+003 -9.999E+003 -9.999E+003 -9.999E+003 -9.999E+003 -9.999E+003 -9.999E+003 -9.999E+003 -9.999E+003 -9.999E+003 -9.999E+003 -9.999E+003 -9.999E+003 -9.999E+003 -9.999E+003 -9.999E+003 -9.999E+003 -9.999E+003 -9.999E+003 -9.999E+003 -9.999E+003 -9.999E+003 -9.999E+003 -9.999E+003 -9.999E+003 -9.999E+003 -9.999E+003 -9.999E+003 -9.999E+003 -9.999E+003 -9.999E+003 -9.999E+003 -9.999E+003 -9.999E+003 -9.999E+003 -9.999E+003 -9.999E+003 -9.999E+003 -9.999E+003 -9.999E+003 -9.999E+003 -9.999E+003 -9.999E+003 -9.999E+003 -9.999E+003 -9.999E+003 -9.999E+003 -9.999E+003 -9.999E+003 -9.999E+003 -9.999E+003 -9.999E+003 -9.999E+003 -9.999E+003 -9.999E+003 -9.999E+003 -9.999E+003 -9.999E+003 -9.999E+003 -9.999E+003 -9.999E+003 -9.999E+003 -9.999E+003 -9.999E+003 -9.999E+003 -9.999E+003 -9.999E+003 -9.999E+003 -9.999E+003 -9.999E+003 -9.999E+003 -9.999E+003 -9.999E+003 -9.999E+003 -9.999E+003 -9.999E+003 -9.999E+003 -9.999E+003 -9.999E+003 -9.999E+003 -9.999E+003 -9.999E+003 -9.999E+003 -9.999E+003 -9.999E+003 -9.999E+003 -9.999E+003 -9.999E+003 -9.999E+003 -9.999E+003 -9.999E+003 -9.999E+003 -9.999E+003 -9.999E+003 -9.999E+003 -9.999E+003 -9.999E+003 -9.999E+003 -9.999E+003 -9.999E+003 -9.999E+003 -9.999E+003 -9.999E+003 -9.999E+003 -9.999E+003 -9.999E+003 -9.999E+003 -9.999E+003 -9.999E+003 -9.999E+003 -9.999E+003 -9.999E+003 -9.999E+003
 -9.999E+003 -9.999E+003 -9.999E+003 -9.999E+003 -9.999E+003 -9.999E+003 -9.999E+003 -9.999E+003 -9.999E+003 -9.999E+003 -9.999E+003 -9.999E+003 -9.999E+003 -9.999E+003 -9.999E+003 -9.999E+003 -9.999E+003 -9.999E+003 -9.999E+003 -9.999E+003 -9.999E+003 -9.999E+003 -9.999E+003 -9.999E+003 -9.999E+003 -9.999E+003 -9.999E+003 -9.999E+003 -9.999E+003 -9.999E+003 -9.999E+003 -9.999E+003 -9.999E+003 -9.999E+003 -9.999E+003 -9.999E+003 -9.999E+003 -9.999E+003 -9.999E+003 -9.999E+003 -9.999E+003 -9.999E+003 -9.999E+003 -9.999E+003 -9.999E+003 -9.999E+003 -9.999E+003 -9.999E+003 -9.999E+003 -9.999E+003 -9.999E+003 -9.999E+003 -9.999E+003 -9.999E+003 -9.999E+003 -9.999E+003 -9.999E+003 -9.999E+003 -9.999E+003 -9.999E+003 -9.999E+003 -9.999E+003 -9.999E+003 -9.999E+003 -9.999E+003 -9.999E+003 -9.999E+003 -9.999E+003 -9.999E+003 -9.999E+003 -9.999E+003 -9.999E+003 -9.999E+003 -9.999E+003 -9.999E+003 -9.999E+003 -9.999E+003 -9.999E+003 -9.999E+003 -9.999E+003 -9.999E+003 -9.999E+003 -9.999E+003 -9.999E+003 -9.999E+003 -9.999E+003 -9.999E+003 -9.999E+003 -9.999E+003 -9.999E+003 -9.999E+003 -9.999E+003 -9.999E+003 -9.999E+003 -9.999E+003 -9.999E+003 -9.999E+003 -9.999E+003 -9.999E+003 -9.999E+003 -9.999E+003 -9.999E+003 -9.999E+003 -9.999E+003 -9.999E+003 -9.999E+003 -9.999E+003 -9.999E+003 -9.999E+003 -9.999E+003 -9.999E+003 -9.999E+003 -9.999E+003 -9.999E+003 -9.999E+003 -9.999E+003 -9.999E+003 -9.999E+003 -9.999E+003 -9.999E+003 -9.999E+003 -9.999E+003 -9.999E+003 -9.999E+003 -9.999E+003 -9.999E+003 -9.999E+003 -9.999E+003 -9.999E+003 -9.999E+003 -9.999E+003 -9.999E+003 -9.999E+003 -9.999E+003 -9.999E+003 -9.999E+003 -9.999E+003 -9.999E+003 -9.999E+003 -9.999E+003 -9.999E+003 -9.999E+003 -9.999E+003 -9.999E+003 -9.999E+003 -9.999E+003 -9.999E+003 -9.999E+003 -9.999E+003 -9.999E+003
 -9.999E+003 -9.999E+003 -9.999E+003 -9.999E+003 -9.999E+003 -9.999E+003 -9.999E+003 -9.999E+003 -9.999E+003 -9.999E+003 -9.999E+003 -9.999E+003 -9.999E+003 -9.999E+003 -9.999E+003 -9.999E+003 -9.999E+003 -9.999E+003 -9.999E+003 -9.999E+003 -9.999E+003 -9.999E+003 -9.999E+003 -9.999E+003 -9.999E+003 -9.999E+003 -9.999E+003 -9.999E+003 -9.999E+003 -9.999E+003 -9.999E+003 -9.999E+003 -9.999E+003 -9.999E+003 -9.999E+003 -9.999E+003 -9.999E+003 -9.999E+003 -9.999E+003 -9.999E+003 -9.999E+003 -9.999E+003 -9.999E+003 -9.999E+003 -9.999E+003 -9.999E+003 -9.999E+003 -9.999E+003 -9.999E+003 -9.999E+003 -9.999E+003 -9.999E+003 -9.999E+003 -9.999E+003 -9.999E+003 -9.999E+003 -9.999E+003 -9.999E+003 -9.999E+003 -9.999E+003 -9.999E+003 -9.999E+003 -9.999E+003 -9.999E+003 -9.999E+003 -9.999E+003 -9.999E+003 -9.999E+003 -9.999E+003 -9.999E+003 -9.999E+003 -9.999E+003 -9.999E+003 -9.999E+003 -9.999E+003 -9.999E+003 -9.999E+003 -9.999E+003 -9.999E+003 -9.999E+003 -9.999E+003 -9.999E+003 -9.999E+003 -9.999E+003 -9.999E+003 -9.999E+003 -9.999E+003 -9.999E+003 -9.999E+003 -9.999E+003 -9.999E+003 -9.999E+003 -9.999E+003 -9.999E+003 -9.999E+003 -9.999E+003 -9.999E+003 -9.999E+003 -9.999E+003 -9.999E+003 -9.999E+003 -9.999E+003 -9.999E+003 -9.999E+003 -9.999E+003 -9.999E+003 -9.999E+003 -9.999E+003 -9.999E+003 -9.999E+003 -9.999E+003 -9.999E+003 -9.999E+003 -9.999E+003 -9.999E+003 -9.999E+003 -9.999E+003 -9.999E+003 -9.999E+003 -9.999E+003 -9.999E+003 -9.999E+003 -9.999E+003 -9.999E+003 -9.999E+003 -9.999E+003 -9.999E+003 -9.999E+003 -9.999E+003 -9.999E+003 -9.999E+003 -9.999E+003 -9.999E+003 -9.999E+003 -9.999E+003 -9.999E+003 -9.999E+003 -9.999E+003 -9.999E+003 -9.999E+003 -9.999E+003 -9.999E+003 -9.999E+003 -9.999E+003 -9.999E+003 -9.999E+003 -9.999E+003 -9.999E+003 -9.999E+003 -9.999E+003
 -9.999E+003 -9.999E+003 -9.999E+003 -9.999E+003 -9.999E+003 -9.999E+003 -9.999E+003 -9.999E+003 -9.999E+003 -9.999E+003 -9.999E+003 -9.999E+003 -9.999E+003 -9.999E+003 -9.999E+003 -9.999E+003 -9.999E+003 -9.999E+003 -9.999E+003 -9.999E+003 -9.999E+003 -9.999E+003 -9.999E+003 -9.999E+003 -9.999E+003 -9.999E+003 -9.999E+003 -9.999E+003 -9.999E+003 -9.999E+003 -9.999E+003 -9.999E+003 -9.999E+003 -9.999E+003 -9.999E+003 -9.999E+003 -9.999E+003 -9.999E+003 -9.999E+003 -9.999E+003 -9.999E+003 -9.999E+003 -9.999E+003 -9.999E+003 -9.999E+003 -9.999E+003 -9.999E+003 -9.999E+003 -9.999E+003 -9.999E+003 -9.999E+003 -9.999E+003 -9.999E+003 -9.999E+003 -9.999E+003 -9.999E+003 -9.999E+003 -9.999E+003 -9.999E+003 -9.999E+003 -9.999E+003 -9.999E+003 -9.999E+003 -9.999E+003 -9.999E+003 -9.999E+003 -9.999E+003 -9.999E+003 -9.999E+003 -9.999E+003 -9.999E+003 -9.999E+003 -9.999E+003 -9.999E+003 -9.999E+003 -9.999E+003 -9.999E+003 -9.999E+003 -9.999E+003 -9.999E+003 -9.999E+003 -9.999E+003 -9.999E+003 -9.999E+003 -9.999E+003 -9.999E+003 -9.999E+003 -9.999E+003 -9.999E+003 -9.999E+003 -9.999E+003 -9.999E+003 -9.999E+003 -9.999E+003 -9.999E+003 -9.999E+003 -9.999E+003 -9.999E+003 -9.999E+003 -9.999E+003 -9.999E+003 -9.999E+003 -9.999E+003 -9.999E+003 -9.999E+003 -9.999E+003 -9.999E+003 -9.999E+003 -9.999E+003 -9.999E+003 -9.999E+003 -9.999E+003 -9.999E+003 -9.999E+003 -9.999E+003 -9.999E+003 -9.999E+003 -9.999E+003 -9.999E+003 -9.999E+003 -9.999E+003 -9.999E+003 -9.999E+003 -9.999E+003 -9.999E+003 -9.999E+003 -9.999E+003 -9.999E+003 -9.999E+003 -9.999E+003 -9.999E+003 -9.999E+003 -9.999E+003 -9.999E+003 -9.999E+003 -9.999E+003 -9.999E+003 -9.999E+003 -9.999E+003 -9.999E+003 -9.999E+003 -9.999E+003 -9.999E+003 -9.999E+003 -9.999E+003 -9.999E+003 -9.999E+003 -9.999E+003 -9.999E+003 -9.999E+003
 -9.999E+003 -9.999E+003 -9.999E+003 -9.999E+003 -9.999E+003 -9.999E+003 -9.999E+003 -9.999E+003 -9.999E+003 -9.999E+003 -9.999E+003 -9.999E+003 -9.999E+003 -9.999E+003 -9.999E+003 -9.999E+003 -9.999E+003 -9.999E+003 -9.999E+003 -9.999E+003 -9.999E+003 -9.999E+003 -9.999E+003 -9.999E+003 -9.999E+003 -9.999E+003 -9.999E+003 -9.999E+003 -9.999E+003 -9.999E+003 -9.999E+003 -9.999E+003 -9.999E+003 -9.999E+003 -9.999E+003 -9.999E+003 -9.999E+003 -9.999E+003 -9.999E+003 -9.999E+003 -9.999E+003 -9.999E+003 -9.999E+003 -9.999E+003 -9.999E+003 -9.999E+003 -9.999E+003 -9.999E+003 -9.999E+003 -9.999E+003 -9.999E+003 -9.999E+003 -9.999E+003 -9.999E+003 -9.999E+003 -9.999E+003 -9.999E+003 -9.999E+003 -9.999E+003 -9.999E+003 -9.999E+003 -9.999E+003 -9.999E+003 -9.999E+003 -9.999E+003 -9.999E+003 -9.999E+003 -9.999E+003 -9.999E+003 -9.999E+003 -9.999E+003 -9.999E+003 -9.999E+003 -9.999E+003 -9.999E+003 -9.999E+003 -9.999E+003 -9.999E+003 -9.999E+003 -9.999E+003 -9.999E+003 -9.999E+003 -9.999E+003 -9.999E+003 -9.999E+003 -9.999E+003 -9.999E+003 -9.999E+003 -9.999E+003 -9.999E+003 -9.999E+003 -9.999E+003 -9.999E+003 -9.999E+003 -9.999E+003 -9.999E+003 -9.999E+003 -9.999E+003 -9.999E+003 -9.999E+003 -9.999E+003 -9.999E+003 -9.999E+003 -9.999E+003 -9.999E+003 -9.999E+003 -9.999E+003 -9.999E+003 -9.999E+003 -9.999E+003 -9.999E+003 -9.999E+003 -9.999E+003 -9.999E+003 -9.999E+003 -9.999E+003 -9.999E+003 -9.999E+003 -9.999E+003 -9.999E+003 -9.999E+003 -9.999E+003 -9.999E+003 -9.999E+003 -9.999E+003 -9.999E+003 -9.999E+003 -9.999E+003 -9.999E+003 -9.999E+003 -9.999E+003 -9.999E+003 -9.999E+003 -9.999E+003 -9.999E+003 -9.999E+003 -9.999E+003 -9.999E+003 -9.999E+003 -9.999E+003 -9.999E+003 -9.999E+003 -9.999E+003 -9.999E+003 -9.999E+003 -9.999E+003 -9.999E+003 -9.999E+003 -9.999E+003 -9.999E+003
 -9.999E+003 -9.999E+003 -9.999E+003 -9.999E+003 -9.999E+003 -9.999E+003 -9.999E+003 -9.999E+003 -9.999E+003 -9.999E+003 -9.999E+003 -9.999E+003 -9.999E+003 -9.999E+003 -9.999E+003 -9.999E+003 -9.999E+003 -9.999E+003 -9.999E+003 -9.999E+003 -9.999E+003 -9.999E+003 -9.999E+003 -9.999E+003 -9.999E+003 -9.999E+003 -9.999E+003 -9.999E+003 -9.999E+003 -9.999E+003 -9.999E+003 -9.999E+003 -9.999E+003 -9.999E+003 -9.999E+003 -9.999E+003 -9.999E+003 -9.999E+003 -9.999E+003 -9.999E+003 -9.999E+003 -9.999E+003 -9.999E+003 -9.999E+003 -9.999E+003 -9.999E+003 -9.999E+003 -9.999E+003 -9.999E+003 -9.999E+003 -9.999E+003 -9.999E+003 -9.999E+003 -9.999E+003 -9.999E+003 -9.999E+003 -9.999E+003 -9.999E+003 -9.999E+003 -9.999E+003 -9.999E+003 -9.999E+003 -9.999E+003 -9.999E+003 -9.999E+003 -9.999E+003 -9.999E+003 -9.999E+003 -9.999E+003 -9.999E+003 -9.999E+003 -9.999E+003 -9.999E+003 -9.999E+003 -9.999E+003 -9.999E+003 -9.999E+003 -9.999E+003 -9.999E+003 -9.999E+003 -9.999E+003 -9.999E+003 -9.999E+003 -9.999E+003 -9.999E+003 -9.999E+003 -9.999E+003 -9.999E+003 -9.999E+003 -9.999E+003 -9.999E+003 -9.999E+003 -9.999E+003 -9.999E+003 -9.999E+003 -9.999E+003 -9.999E+003 -9.999E+003 -9.999E+003 -9.999E+003 -9.999E+003 -9.999E+003 -9.999E+003 -9.999E+003 -9.999E+003 -9.999E+003 -9.999E+003 -9.999E+003 -9.999E+003 -9.999E+003 -9.999E+003 -9.999E+003 -9.999E+003 -9.999E+003 -9.999E+003 -9.999E+003 -9.999E+003 -9.999E+003 -9.999E+003 -9.999E+003 -9.999E+003 -9.999E+003 -9.999E+003 -9.999E+003 -9.999E+003 -9.999E+003 -9.999E+003 -9.999E+003 -9.999E+003 -9.999E+003 -9.999E+003 -9.999E+003 -9.999E+003 -9.999E+003 -9.999E+003 -9.999E+003 -9.999E+003 -9.999E+003 -9.999E+003 -9.999E+003 -9.999E+003 -9.999E+003 -9.999E+003 -9.999E+003 -9.999E+003 -9.999E+003 -9.999E+003 -9.999E+003 -9.999E+003 -9.999E+003
 -9.999E+003 -9.999E+003 -9.999E+003 -9.999E+003 -9.999E+003 -9.999E+003 -9.999E+003 -9.999E+003 -9.999E+003 -9.999E+003 -9.999E+003 -9.999E+003 -9.999E+003 -9.999E+003 -9.999E+003 -9.999E+003 -9.999E+003 -9.999E+003 -9.999E+003 -9.999E+003 -9.999E+003 -9.999E+003 -9.999E+003 -9.999E+003 -9.999E+003 -9.999E+003 -9.999E+003 -9.999E+003 -9.999E+003 -9.999E+003 -9.999E+003 -9.999E+003 -9.999E+003 -9.999E+003 -9.999E+003 -9.999E+003 -9.999E+003 -9.999E+003 -9.999E+003 -9.999E+003 -9.999E+003 -9.999E+003 -9.999E+003 -9.999E+003 -9.999E+003 -9.999E+003 -9.999E+003 -9.999E+003 -9.999E+003 -9.999E+003 -9.999E+003 -9.999E+003 -9.999E+003 -9.999E+003 -9.999E+003 -9.999E+003 -9.999E+003 -9.999E+003 -9.999E+003 -9.999E+003 -9.999E+003 -9.999E+003 -9.999E+003 -9.999E+003 -9.999E+003 -9.999E+003 -9.999E+003 -9.999E+003 -9.999E+003 -9.999E+003 -9.999E+003 -9.999E+003 -9.999E+003 -9.999E+003 -9.999E+003 -9.999E+003 -9.999E+003 -9.999E+003 -9.999E+003 -9.999E+003 -9.999E+003 -9.999E+003 -9.999E+003 -9.999E+003 -9.999E+003 -9.999E+003 -9.999E+003 -9.999E+003 -9.999E+003 -9.999E+003 -9.999E+003 -9.999E+003 -9.999E+003 -9.999E+003 -9.999E+003 -9.999E+003 -9.999E+003 -9.999E+003 -9.999E+003 -9.999E+003 -9.999E+003 -9.999E+003 -9.999E+003 -9.999E+003 -9.999E+003 -9.999E+003 -9.999E+003 -9.999E+003 -9.999E+003 -9.999E+003 -9.999E+003 -9.999E+003 -9.999E+003 -9.999E+003 -9.999E+003 -9.999E+003 -9.999E+003 -9.999E+003 -9.999E+003 -9.999E+003 -9.999E+003 -9.999E+003 -9.999E+003 -9.999E+003 -9.999E+003 -9.999E+003 -9.999E+003 -9.999E+003 -9.999E+003 -9.999E+003 -9.999E+003 -9.999E+003 -9.999E+003 -9.999E+003 -9.999E+003 -9.999E+003 -9.999E+003 -9.999E+003 -9.999E+003 -9.999E+003 -9.999E+003 -9.999E+003 -9.999E+003 -9.999E+003 -9.999E+003 -9.999E+003 -9.999E+003 -9.999E+003 -9.999E+003 -9.999E+003
 -9.999E+003 -9.999E+003 -9.999E+003 -9.999E+003 -9.999E+003 -9.999E+003 -9.999E+003 -9.999E+003 -9.999E+003 -9.999E+003 -9.999E+003 -9.999E+003 -9.999E+003 -9.999E+003 -9.999E+003 -9.999E+003 -9.999E+003 -9.999E+003 -9.999E+003 -9.999E+003 -9.999E+003 -9.999E+003 -9.999E+003 -9.999E+003 -9.999E+003 -9.999E+003 -9.999E+003 -9.999E+003 -9.999E+003 -9.999E+003 -9.999E+003 -9.999E+003 -9.999E+003 -9.999E+003 -9.999E+003 -9.999E+003 -9.999E+003 -9.999E+003 -9.999E+003 -9.999E+003 -9.999E+003 -9.999E+003 -9.999E+003 -9.999E+003 -9.999E+003 -9.999E+003 -9.999E+003 -9.999E+003 -9.999E+003 -9.999E+003 -9.999E+003 -9.999E+003 -9.999E+003 -9.999E+003 -9.999E+003 -9.999E+003 -9.999E+003 -9.999E+003 -9.999E+003 -9.999E+003 -9.999E+003 -9.999E+003 -9.999E+003 -9.999E+003 -9.999E+003 -9.999E+003 -9.999E+003 -9.999E+003 -9.999E+003 -9.999E+003 -9.999E+003 -9.999E+003 -9.999E+003 -9.999E+003 -9.999E+003 -9.999E+003 -9.999E+003 -9.999E+003 -9.999E+003 -9.999E+003 -9.999E+003 -9.999E+003 -9.999E+003 -9.999E+003 -9.999E+003 -9.999E+003 -9.999E+003 -9.999E+003 -9.999E+003 -9.999E+003 -9.999E+003 -9.999E+003 -9.999E+003 -9.999E+003 -9.999E+003 -9.999E+003 -9.999E+003 -9.999E+003 -9.999E+003 -9.999E+003 -9.999E+003 -9.999E+003 -9.999E+003 -9.999E+003 -9.999E+003 -9.999E+003 -9.999E+003 -9.999E+003 -9.999E+003 -9.999E+003 -9.999E+003 -9.999E+003 -9.999E+003 -9.999E+003 -9.999E+003 -9.999E+003 -9.999E+003 -9.999E+003 -9.999E+003 -9.999E+003 -9.999E+003 -9.999E+003 -9.999E+003 -9.999E+003 -9.999E+003 -9.999E+003 -9.999E+003 -9.999E+003 -9.999E+003 -9.999E+003 -9.999E+003 -9.999E+003 -9.999E+003 -9.999E+003 -9.999E+003 -9.999E+003 -9.999E+003 -9.999E+003 -9.999E+003 -9.999E+003 -9.999E+003 -9.999E+003 -9.999E+003 -9.999E+003 -9.999E+003 -9.999E+003 -9.999E+003 -9.999E+003 -9.999E+003 -9.999E+003
 -9.999E+003 -9.999E+003 -9.999E+003 -9.999E+003 -9.999E+003 -9.999E+003 -9.999E+003 -9.999E+003 -9.999E+003 -9.999E+003 -9.999E+003 -9.999E+003 -9.999E+003 -9.999E+003 -9.999E+003 -9.999E+003 -9.999E+003 -9.999E+003 -9.999E+003 -9.999E+003 -9.999E+003 -9.999E+003 -9.999E+003 -9.999E+003 -9.999E+003 -9.999E+003 -9.999E+003 -9.999E+003 -9.999E+003 -9.999E+003 -9.999E+003 -9.999E+003 -9.999E+003 -9.999E+003 -9.999E+003 -9.999E+003 -9.999E+003 -9.999E+003 -9.999E+003 -9.999E+003 -9.999E+003 -9.999E+003 -9.999E+003 -9.999E+003 -9.999E+003 -9.999E+003 -9.999E+003 -9.999E+003 -9.999E+003 -9.999E+003 -9.999E+003 -9.999E+003 -9.999E+003 -9.999E+003 -9.999E+003 -9.999E+003 -9.999E+003 -9.999E+003 -9.999E+003 -9.999E+003 -9.999E+003 -9.999E+003 -9.999E+003 -9.999E+003 -9.999E+003 -9.999E+003 -9.999E+003 -9.999E+003 -9.999E+003 -9.999E+003 -9.999E+003 -9.999E+003 -9.999E+003 -9.999E+003 -9.999E+003 -9.999E+003 -9.999E+003 -9.999E+003 -9.999E+003 -9.999E+003 -9.999E+003 -9.999E+003 -9.999E+003 -9.999E+003 -9.999E+003 -9.999E+003 -9.999E+003 -9.999E+003 -9.999E+003 -9.999E+003 -9.999E+003 -9.999E+003 -9.999E+003 -9.999E+003 -9.999E+003 -9.999E+003 -9.999E+003 -9.999E+003 -9.999E+003 -9.999E+003 -9.999E+003 -9.999E+003 -9.999E+003 -9.999E+003 -9.999E+003 -9.999E+003 -9.999E+003 -9.999E+003 -9.999E+003 -9.999E+003 -9.999E+003 -9.999E+003 -9.999E+003 -9.999E+003 -9.999E+003 -9.999E+003 -9.999E+003 -9.999E+003 -9.999E+003 -9.999E+003 -9.999E+003 -9.999E+003 -9.999E+003 -9.999E+003 -9.999E+003 -9.999E+003 -9.999E+003 -9.999E+003 -9.999E+003 -9.999E+003 -9.999E+003 -9.999E+003 -9.999E+003 -9.999E+003 -9.999E+003 -9.999E+003 -9.999E+003 -9.999E+003 -9.999E+003 -9.999E+003 -9.999E+003 -9.999E+003 -9.999E+003 -9.999E+003 -9.999E+003 -9.999E+003 -9.999E+003 -9.999E+003 -9.999E+003 -9.999E+003
