ncols   150
nrows   200
xllcorner      445700.000
yllcorner     3916450.000
cellsize          40.000
NODATA_value -9999
 -9.999E+003 -9.999E+003 -9.999E+003 -9.999E+003 -9.999E+003 -9.999E+003 -9.999E+003 -9.999E+003 -9.999E+003 -9.999E+003 -9.999E+003 -9.999E+003 -9.999E+003 -9.999E+003 -9.999E+003 -9.999E+003 -9.999E+003 -9.999E+003 -9.999E+003 -9.999E+003 -9.999E+003 -9.999E+003 -9.999E+003 -9.999E+003 -9.999E+003 -9.999E+003 -9.999E+003 -9.999E+003 -9.999E+003 -9.999E+003 -9.999E+003 -9.999E+003 -9.999E+003 -9.999E+003 -9.999E+003 -9.999E+003 -9.999E+003 -9.999E+003 -9.999E+003 -9.999E+003 -9.999E+003 -9.999E+003 -9.999E+003 -9.999E+003 -9.999E+003 -9.999E+003 -9.999E+003 -9.999E+003 -9.999E+003 -9.999E+003 -9.999E+003 -9.999E+003 -9.999E+003 -9.999E+003 -9.999E+003 -9.999E+003 -9.999E+003 -9.999E+003 -9.999E+003 -9.999E+003 -9.999E+003 -9.999E+003 -9.999E+003 -9.999E+003 -9.999E+003 -9.999E+003 -9.999E+003 -9.999E+003 -9.999E+003 -9.999E+003 -9.999E+003 -9.999E+003 -9.999E+003 -9.999E+003 -9.999E+003 -9.999E+003 -9.999E+003 -9.999E+003 -9.999E+003 -9.999E+003 -9.999E+003 -9.999E+003 -9.999E+003 -9.999E+003 -9.999E+003 -9.999E+003 -9.999E+003 -9.999E+003 -9.999E+003 -9.999E+003 -9.999E+003 -9.999E+003 -9.999E+003 -9.999E+003 -9.999E+003 -9.999E+003 -9.999E+003 -9.999E+003 -9.999E+003 -9.999E+003 -9.999E+003 -9.999E+003 -9.999E+003 -9.999E+003 -9.999E+003 -9.999E+003 -9.999E+003 -9.999E+003 -9.999E+003 -9.999E+003 -9.999E+003 -9.999E+003 -9.999E+003 -9.999E+003 -9.999E+003 -9.999E+003 -9.999E+003 -9.999E+003 -9.999E+003 -9.999E+003 -9.999E+003 -9.999E+003 -9.999E+003 -9.999E+003 -9.999E+003 -9.999E+003 -9.999E+003 -9.999E+003 -9.999E+003 -9.999E+003 -9.999E+003 -9.999E+003 -9.999E+003 -9.999E+003 -9.999E+003 -9.999E+003 -9.999E+003 -9.999E+003 -9.999E+003 -9.999E+003 -9.999E+003 -9.999E+003 -9.999E+003 -9.999E+003 -9.999E+003 -9.999E+003 -9.999E+003 -9.999E+003 -9.999E+003 -9.999E+003
 -9.999E+003 -9.999E+003 -9.999E+003 -9.999E+003 -9.999E+003 -9.999E+003 -9.999E+003 -9.999E+003 -9.999E+003 -9.999E+003 -9.999E+003 -9.999E+003 -9.999E+003 -9.999E+003 -9.999E+003 -9.999E+003 -9.999E+003 -9.999E+003 -9.999E+003 -9.999E+003 -9.999E+003 -9.999E+003 -9.999E+003 -9.999E+003 -9.999E+003 -9.999E+003 -9.999E+003 -9.999E+003 -9.999E+003 -9.999E+003 -9.999E+003 -9.999E+003 -9.999E+003 -9.999E+003 -9.999E+003 -9.999E+003 -9.999E+003 -9.999E+003 -9.999E+003 -9.999E+003 -9.999E+003 -9.999E+003 -9.999E+003 -9.999E+003 -9.999E+003 -9.999E+003 -9.999E+003 -9.999E+003 -9.999E+003 -9.999E+003 -9.999E+003 -9.999E+003 -9.999E+003 -9.999E+003 -9.999E+003 -9.999E+003 -9.999E+003 -9.999E+003 -9.999E+003 -9.999E+003 -9.999E+003 -9.999E+003 -9.999E+003 -9.999E+003 -9.999E+003 -9.999E+003 -9.999E+003 -9.999E+003 -9.999E+003 -9.999E+003 -9.999E+003 -9.999E+003 -9.999E+003 -9.999E+003 -9.999E+003 -9.999E+003 -9.999E+003 -9.999E+003 -9.999E+003 -9.999E+003 -9.999E+003 -9.999E+003 -9.999E+003 -9.999E+003 -9.999E+003 -9.999E+003 -9.999E+003 -9.999E+003 -9.999E+003 -9.999E+003 -9.999E+003 -9.999E+003 -9.999E+003 -9.999E+003 -9.999E+003 -9.999E+003 -9.999E+003 -9.999E+003 -9.999E+003 -9.999E+003 -9.999E+003 -9.999E+003 -9.999E+003 -9.999E+003 -9.999E+003 -9.999E+003 -9.999E+003 -9.999E+003 -9.999E+003 -9.999E+003 -9.999E+003 -9.999E+003 -9.999E+003 -9.999E+003 -9.999E+003 -9.999E+003 -9.999E+003 -9.999E+003 -9.999E+003 -9.999E+003 -9.999E+003 -9.999E+003 -9.999E+003 -9.999E+003 -9.999E+003 -9.999E+003 -9.999E+003 -9.999E+003 -9.999E+003 -9.999E+003 -9.999E+003 -9.999E+003 -9.999E+003 -9.999E+003 -9.999E+003 -9.999E+003 -9.999E+003 -9.999E+003 -9.999E+003 -9.999E+003 -9.999E+003 -9.999E+003 -9.999E+003 -9.999E+003 -9.999E+003 -9.999E+003 -9.999E+003 -9.999E+003 -9.999E+003 -9.999E+003
 -9.999E+003 -9.999E+003 -9.999E+003 -9.999E+003 -9.999E+003 -9.999E+003 -9.999E+003 -9.999E+003 -9.999E+003 -9.999E+003 -9.999E+003 -9.999E+003 -9.999E+003 -9.999E+003 -9.999E+003 -9.999E+003 -9.999E+003 -9.999E+003 -9.999E+003 -9.999E+003 -9.999E+003 -9.999E+003 -9.999E+003 -9.999E+003 -9.999E+003 -9.999E+003 -9.999E+003 -9.999E+003 -9.999E+003 -9.999E+003 -9.999E+003 -9.999E+003 -9.999E+003 -9.999E+003 -9.999E+003 -9.999E+003 -9.999E+003 -9.999E+003 -9.999E+003 -9.999E+003 -9.999E+003 -9.999E+003 -9.999E+003 -9.999E+003 -9.999E+003 -9.999E+003 -9.999E+003 -9.999E+003 -9.999E+003 -9.999E+003 -9.999E+003 -9.999E+003 -9.999E+003 -9.999E+003 -9.999E+003 -9.999E+003 -9.999E+003 -9.999E+003 -9.999E+003 -9.999E+003 -9.999E+003 -9.999E+003 -9.999E+003 -9.999E+003 -9.999E+003 -9.999E+003 -9.999E+003 -9.999E+003 -9.999E+003 -9.999E+003 -9.999E+003 -9.999E+003 -9.999E+003 -9.999E+003 -9.999E+003 -9.999E+003 -9.999E+003 -9.999E+003 -9.999E+003 -9.999E+003 -9.999E+003 -9.999E+003 -9.999E+003 -9.999E+003 -9.999E+003 -9.999E+003 -9.999E+003 -9.999E+003 -9.999E+003 -9.999E+003 -9.999E+003 -9.999E+003 -9.999E+003 -9.999E+003 -9.999E+003 -9.999E+003 -9.999E+003 -9.999E+003 -9.999E+003 -9.999E+003 -9.999E+003 -9.999E+003 -9.999E+003 -9.999E+003 -9.999E+003 -9.999E+003 -9.999E+003 -9.999E+003 -9.999E+003 -9.999E+003 -9.999E+003 -9.999E+003 -9.999E+003 -9.999E+003 -9.999E+003 -9.999E+003 -9.999E+003 -9.999E+003 -9.999E+003 -9.999E+003 -9.999E+003 -9.999E+003 -9.999E+003 -9.999E+003 -9.999E+003 -9.999E+003 -9.999E+003 -9.999E+003 -9.999E+003 -9.999E+003 -9.999E+003 -9.999E+003 -9.999E+003 -9.999E+003 -9.999E+003 -9.999E+003 -9.999E+003 -9.999E+003 -9.999E+003 -9.999E+003 -9.999E+003 -9.999E+003 -9.999E+003 -9.999E+003 -9.999E+003 -9.999E+003 -9.999E+003 -9.999E+003 -9.999E+003 -9.999E+003
 -9.999E+003 -9.999E+003 -9.999E+003 -9.999E+003 -9.999E+003 -9.999E+003 -9.999E+003 -9.999E+003 -9.999E+003 -9.999E+003 -9.999E+003 -9.999E+003 -9.999E+003 -9.999E+003 -9.999E+003 -9.999E+003 -9.999E+003 -9.999E+003 -9.999E+003 -9.999E+003 -9.999E+003 -9.999E+003 -9.999E+003 -9.999E+003 -9.999E+003 -9.999E+003 -9.999E+003 -9.999E+003 -9.999E+003 -9.999E+003 -9.999E+003 -9.999E+003 -9.999E+003 -9.999E+003 -9.999E+003 -9.999E+003 -9.999E+003 -9.999E+003 -9.999E+003 -9.999E+003 -9.999E+003 -9.999E+003 -9.999E+003 -9.999E+003 -9.999E+003 -9.999E+003 -9.999E+003 -9.999E+003 -9.999E+003 -9.999E+003 -9.999E+003 -9.999E+003 -9.999E+003 -9.999E+003 -9.999E+003 -9.999E+003 -9.999E+003 -9.999E+003 -9.999E+003 -9.999E+003 -9.999E+003 -9.999E+003 -9.999E+003 -9.999E+003 -9.999E+003 -9.999E+003 -9.999E+003 -9.999E+003 -9.999E+003 -9.999E+003 -9.999E+003 -9.999E+003 -9.999E+003 -9.999E+003 -9.999E+003 -9.999E+003 -9.999E+003 -9.999E+003 -9.999E+003 -9.999E+003 -9.999E+003 -9.999E+003 -9.999E+003 -9.999E+003 -9.999E+003 -9.999E+003 -9.999E+003 -9.999E+003 -9.999E+003 -9.999E+003 -9.999E+003 -9.999E+003 -9.999E+003 -9.999E+003 -9.999E+003 -9.999E+003 -9.999E+003 -9.999E+003 -9.999E+003 -9.999E+003 -9.999E+003 -9.999E+003 -9.999E+003 -9.999E+003 -9.999E+003 -9.999E+003 -9.999E+003 -9.999E+003 -9.999E+003 -9.999E+003 -9.999E+003 -9.999E+003 -9.999E+003 -9.999E+003 -9.999E+003 -9.999E+003 -9.999E+003 -9.999E+003 -9.999E+003 -9.999E+003 -9.999E+003 -9.999E+003 -9.999E+003 -9.999E+003 -9.999E+003 -9.999E+003 -9.999E+003 -9.999E+003 -9.999E+003 -9.999E+003 -9.999E+003 -9.999E+003 -9.999E+003 -9.999E+003 -9.999E+003 -9.999E+003 -9.999E+003 -9.999E+003 -9.999E+003 -9.999E+003 -9.999E+003 -9.999E+003 -9.999E+003 -9.999E+003 -9.999E+003 -9.999E+003 -9.999E+003 -9.999E+003 -9.999E+003 -9.999E+003
 -9.999E+003 -9.999E+003 -9.999E+003 -9.999E+003 -9.999E+003 -9.999E+003 -9.999E+003 -9.999E+003 -9.999E+003 -9.999E+003 -9.999E+003 -9.999E+003 -9.999E+003 -9.999E+003 -9.999E+003 -9.999E+003 -9.999E+003 -9.999E+003 -9.999E+003 -9.999E+003 -9.999E+003 -9.999E+003 -9.999E+003 -9.999E+003 -9.999E+003 -9.999E+003 -9.999E+003 -9.999E+003 -9.999E+003 -9.999E+003 -9.999E+003 -9.999E+003 -9.999E+003 -9.999E+003 -9.999E+003 -9.999E+003 -9.999E+003 -9.999E+003 -9.999E+003 -9.999E+003 -9.999E+003 -9.999E+003 -9.999E+003 -9.999E+003 -9.999E+003 -9.999E+003 -9.999E+003 -9.999E+003 -9.999E+003 -9.999E+003 -9.999E+003 -9.999E+003 -9.999E+003 -9.999E+003 -9.999E+003 -9.999E+003 -9.999E+003 -9.999E+003 -9.999E+003 -9.999E+003 -9.999E+003 -9.999E+003 -9.999E+003 -9.999E+003 -9.999E+003 -9.999E+003 -9.999E+003 -9.999E+003 -9.999E+003 -9.999E+003 -9.999E+003 -9.999E+003 -9.999E+003 -9.999E+003 -9.999E+003 -9.999E+003 -9.999E+003 -9.999E+003 -9.999E+003 -9.999E+003 -9.999E+003 -9.999E+003 -9.999E+003 -9.999E+003 -9.999E+003 -9.999E+003 -9.999E+003 -9.999E+003 -9.999E+003 -9.999E+003 -9.999E+003 -9.999E+003 -9.999E+003 -9.999E+003 -9.999E+003 -9.999E+003 -9.999E+003 -9.999E+003 -9.999E+003 -9.999E+003 -9.999E+003 -9.999E+003 -9.999E+003 -9.999E+003 -9.999E+003 -9.999E+003 -9.999E+003 -9.999E+003 -9.999E+003 -9.999E+003 -9.999E+003 -9.999E+003 -9.999E+003 -9.999E+003 -9.999E+003 -9.999E+003 -9.999E+003 -9.999E+003 -9.999E+003 -9.999E+003 -9.999E+003 -9.999E+003 -9.999E+003 -9.999E+003 -9.999E+003 -9.999E+003 -9.999E+003 -9.999E+003 -9.999E+003 -9.999E+003 -9.999E+003 -9.999E+003 -9.999E+003 -9.999E+003 -9.999E+003 -9.999E+003 -9.999E+003 -9.999E+003 -9.999E+003 -9.999E+003 -9.999E+003 -9.999E+003 -9.999E+003 -9.999E+003 -9.999E+003 -9.999E+003 -9.999E+003 -9.999E+003 -9.999E+003 -9.999E+003
 -9.999E+003 -9.999E+003 -9.999E+003 -9.999E+003 -9.999E+003 -9.999E+003 -9.999E+003 -9.999E+003 -9.999E+003 -9.999E+003 -9.999E+003 -9.999E+003 -9.999E+003 -9.999E+003 -9.999E+003 -9.999E+003 -9.999E+003 -9.999E+003 -9.999E+003 -9.999E+003 -9.999E+003 -9.999E+003 -9.999E+003 -9.999E+003 -9.999E+003 -9.999E+003 -9.999E+003 -9.999E+003 -9.999E+003 -9.999E+003 -9.999E+003 -9.999E+003 -9.999E+003 -9.999E+003 -9.999E+003 -9.999E+003 -9.999E+003 -9.999E+003 -9.999E+003 -9.999E+003 -9.999E+003 -9.999E+003 -9.999E+003 -9.999E+003 -9.999E+003 -9.999E+003 -9.999E+003 -9.999E+003 -9.999E+003 -9.999E+003 -9.999E+003 -9.999E+003 -9.999E+003 -9.999E+003 -9.999E+003 -9.999E+003 -9.999E+003 -9.999E+003 -9.999E+003 -9.999E+003 -9.999E+003 -9.999E+003 -9.999E+003 -9.999E+003 -9.999E+003 -9.999E+003 -9.999E+003 -9.999E+003 -9.999E+003 -9.999E+003 -9.999E+003 -9.999E+003 -9.999E+003 -9.999E+003 -9.999E+003 -9.999E+003 -9.999E+003 -9.999E+003 -9.999E+003 -9.999E+003 -9.999E+003 -9.999E+003 -9.999E+003 -9.999E+003 -9.999E+003 -9.999E+003 -9.999E+003 -9.999E+003 -9.999E+003 -9.999E+003 -9.999E+003 -9.999E+003 -9.999E+003 -9.999E+003 -9.999E+003 -9.999E+003 -9.999E+003 -9.999E+003 -9.999E+003 -9.999E+003 -9.999E+003 -9.999E+003 -9.999E+003 -9.999E+003 -9.999E+003 -9.999E+003 -9.999E+003 -9.999E+003 -9.999E+003 -9.999E+003 -9.999E+003 -9.999E+003 -9.999E+003 -9.999E+003 -9.999E+003 -9.999E+003 -9.999E+003 -9.999E+003 -9.999E+003 -9.999E+003 -9.999E+003 -9.999E+003 -9.999E+003 -9.999E+003 -9.999E+003 -9.999E+003 -9.999E+003 -9.999E+003 -9.999E+003 -9.999E+003 -9.999E+003 -9.999E+003 -9.999E+003 -9.999E+003 -9.999E+003 -9.999E+003 -9.999E+003 -9.999E+003 -9.999E+003 -9.999E+003 -9.999E+003 -9.999E+003 -9.999E+003 -9.999E+003 -9.999E+003 -9.999E+003 -9.999E+003 -9.999E+003 -9.999E+003 -9.999E+003
 -9.999E+003 -9.999E+003 -9.999E+003 -9.999E+003 -9.999E+003 -9.999E+003 -9.999E+003 -9.999E+003 -9.999E+003 -9.999E+003 -9.999E+003 -9.999E+003 -9.999E+003 -9.999E+003 -9.999E+003 -9.999E+003 -9.999E+003 -9.999E+003 -9.999E+003 -9.999E+003 -9.999E+003 -9.999E+003 -9.999E+003 -9.999E+003 -9.999E+003 -9.999E+003 -9.999E+003 -9.999E+003 -9.999E+003 -9.999E+003 -9.999E+003 -9.999E+003 -9.999E+003 -9.999E+003 -9.999E+003 -9.999E+003 -9.999E+003 -9.999E+003 -9.999E+003 -9.999E+003 -9.999E+003 -9.999E+003 -9.999E+003 -9.999E+003 -9.999E+003 -9.999E+003 -9.999E+003 -9.999E+003 -9.999E+003 -9.999E+003 -9.999E+003 -9.999E+003 -9.999E+003 -9.999E+003 -9.999E+003 -9.999E+003 -9.999E+003 -9.999E+003 -9.999E+003 -9.999E+003 -9.999E+003 -9.999E+003 -9.999E+003 -9.999E+003 -9.999E+003 -9.999E+003 -9.999E+003 -9.999E+003 -9.999E+003 -9.999E+003 -9.999E+003 -9.999E+003 -9.999E+003 -9.999E+003 -9.999E+003 -9.999E+003 -9.999E+003 -9.999E+003 -9.999E+003 -9.999E+003 -9.999E+003 -9.999E+003 -9.999E+003 -9.999E+003 -9.999E+003 -9.999E+003 -9.999E+003 -9.999E+003 -9.999E+003 -9.999E+003 -9.999E+003 -9.999E+003 -9.999E+003 -9.999E+003 -9.999E+003 -9.999E+003 -9.999E+003 -9.999E+003 -9.999E+003 -9.999E+003 -9.999E+003 -9.999E+003 -9.999E+003 -9.999E+003 -9.999E+003 -9.999E+003 -9.999E+003 -9.999E+003 -9.999E+003 -9.999E+003 -9.999E+003 -9.999E+003 -9.999E+003 -9.999E+003 -9.999E+003 -9.999E+003 -9.999E+003 -9.999E+003 -9.999E+003 -9.999E+003 -9.999E+003 -9.999E+003 -9.999E+003 -9.999E+003 -9.999E+003 -9.999E+003 -9.999E+003 -9.999E+003 -9.999E+003 -9.999E+003 -9.999E+003 -9.999E+003 -9.999E+003 -9.999E+003 -9.999E+003 -9.999E+003 -9.999E+003 -9.999E+003 -9.999E+003 -9.999E+003 -9.999E+003 -9.999E+003 -9.999E+003 -9.999E+003 -9.999E+003 -9.999E+003 -9.999E+003 -9.999E+003 -9.999E+003 -9.999E+003
 -9.999E+003 -9.999E+003 -9.999E+003 -9.999E+003 -9.999E+003 -9.999E+003 -9.999E+003 -9.999E+003 -9.999E+003 -9.999E+003 -9.999E+003 -9.999E+003 -9.999E+003 -9.999E+003 -9.999E+003 -9.999E+003 -9.999E+003 -9.999E+003 -9.999E+003 -9.999E+003 -9.999E+003 -9.999E+003 -9.999E+003 -9.999E+003 -9.999E+003 -9.999E+003 -9.999E+003 -9.999E+003 -9.999E+003 -9.999E+003 -9.999E+003 -9.999E+003 -9.999E+003 -9.999E+003 -9.999E+003 -9.999E+003 -9.999E+003 -9.999E+003 -9.999E+003 -9.999E+003 -9.999E+003 -9.999E+003 -9.999E+003 -9.999E+003 -9.999E+003 -9.999E+003 -9.999E+003 -9.999E+003 -9.999E+003 -9.999E+003 -9.999E+003 -9.999E+003 -9.999E+003 -9.999E+003 -9.999E+003 -9.999E+003 -9.999E+003 -9.999E+003 -9.999E+003 -9.999E+003 -9.999E+003 -9.999E+003 -9.999E+003 -9.999E+003 -9.999E+003 -9.999E+003 -9.999E+003 -9.999E+003 -9.999E+003 -9.999E+003 -9.999E+003 -9.999E+003 -9.999E+003 -9.999E+003 -9.999E+003 -9.999E+003 -9.999E+003 -9.999E+003 -9.999E+003 -9.999E+003 -9.999E+003 -9.999E+003 -9.999E+003 -9.999E+003 -9.999E+003 -9.999E+003 -9.999E+003 -9.999E+003 -9.999E+003 -9.999E+003 -9.999E+003 -9.999E+003 -9.999E+003 -9.999E+003 -9.999E+003 -9.999E+003 -9.999E+003 -9.999E+003 -9.999E+003 -9.999E+003 -9.999E+003 -9.999E+003 -9.999E+003 -9.999E+003 -9.999E+003 -9.999E+003 -9.999E+003 -9.999E+003 -9.999E+003 -9.999E+003 -9.999E+003 -9.999E+003 -9.999E+003 -9.999E+003 -9.999E+003 -9.999E+003 -9.999E+003 -9.999E+003 -9.999E+003 -9.999E+003 -9.999E+003 -9.999E+003 -9.999E+003 -9.999E+003 -9.999E+003 -9.999E+003 -9.999E+003 -9.999E+003 -9.999E+003 -9.999E+003 -9.999E+003 -9.999E+003 -9.999E+003 -9.999E+003 -9.999E+003 -9.999E+003 -9.999E+003 -9.999E+003 -9.999E+003 -9.999E+003 -9.999E+003 -9.999E+003 -9.999E+003 -9.999E+003 -9.999E+003 -9.999E+003 -9.999E+003 -9.999E+003 -9.999E+003 -9.999E+003
 -9.999E+003 -9.999E+003 -9.999E+003 -9.999E+003 -9.999E+003 -9.999E+003 -9.999E+003 -9.999E+003 -9.999E+003 -9.999E+003 -9.999E+003 -9.999E+003 -9.999E+003 -9.999E+003 -9.999E+003 -9.999E+003 -9.999E+003 -9.999E+003 -9.999E+003 -9.999E+003 -9.999E+003 -9.999E+003 -9.999E+003 -9.999E+003 -9.999E+003 -9.999E+003 -9.999E+003 -9.999E+003 -9.999E+003 -9.999E+003 -9.999E+003 -9.999E+003 -9.999E+003 -9.999E+003 -9.999E+003 -9.999E+003 -9.999E+003 -9.999E+003 -9.999E+003 -9.999E+003 -9.999E+003 -9.999E+003 -9.999E+003 -9.999E+003 -9.999E+003 -9.999E+003 -9.999E+003 -9.999E+003 -9.999E+003 -9.999E+003 -9.999E+003 -9.999E+003 -9.999E+003 -9.999E+003 -9.999E+003 -9.999E+003 -9.999E+003 -9.999E+003 -9.999E+003 -9.999E+003 -9.999E+003 -9.999E+003 -9.999E+003 -9.999E+003 -9.999E+003 -9.999E+003 -9.999E+003 -9.999E+003 -9.999E+003 -9.999E+003 -9.999E+003 -9.999E+003 -9.999E+003 -9.999E+003 -9.999E+003 -9.999E+003 -9.999E+003 -9.999E+003 -9.999E+003 -9.999E+003 -9.999E+003 -9.999E+003 -9.999E+003 -9.999E+003 -9.999E+003 -9.999E+003 -9.999E+003 -9.999E+003 -9.999E+003 -9.999E+003 -9.999E+003 -9.999E+003 -9.999E+003 -9.999E+003 -9.999E+003 -9.999E+003 -9.999E+003 -9.999E+003 -9.999E+003 -9.999E+003 -9.999E+003 -9.999E+003 -9.999E+003 -9.999E+003 -9.999E+003 -9.999E+003 -9.999E+003 -9.999E+003 -9.999E+003 -9.999E+003 -9.999E+003 -9.999E+003 -9.999E+003 -9.999E+003 -9.999E+003 -9.999E+003 -9.999E+003 -9.999E+003 -9.999E+003 -9.999E+003 -9.999E+003 -9.999E+003 -9.999E+003 -9.999E+003 -9.999E+003 -9.999E+003 -9.999E+003 -9.999E+003 -9.999E+003 -9.999E+003 -9.999E+003 -9.999E+003 -9.999E+003 -9.999E+003 -9.999E+003 -9.999E+003 -9.999E+003 -9.999E+003 -9.999E+003 -9.999E+003 -9.999E+003 -9.999E+003 -9.999E+003 -9.999E+003 -9.999E+003 -9.999E+003 -9.999E+003 -9.999E+003 -9.999E+003 -9.999E+003
 -9.999E+003 -9.999E+003 -9.999E+003 -9.999E+003 -9.999E+003 -9.999E+003 -9.999E+003 -9.999E+003 -9.999E+003 -9.999E+003 -9.999E+003 -9.999E+003 -9.999E+003 -9.999E+003 -9.999E+003 -9.999E+003 -9.999E+003 -9.999E+003 -9.999E+003 -9.999E+003 -9.999E+003 -9.999E+003 -9.999E+003 -9.999E+003 -9.999E+003 -9.999E+003 -9.999E+003 -9.999E+003 -9.999E+003 -9.999E+003 -9.999E+003 -9.999E+003 -9.999E+003 -9.999E+003 -9.999E+003 -9.999E+003 -9.999E+003 -9.999E+003 -9.999E+003 -9.999E+003 -9.999E+003 -9.999E+003 -9.999E+003 -9.999E+003 -9.999E+003 -9.999E+003 -9.999E+003 -9.999E+003 -9.999E+003 -9.999E+003 -9.999E+003 -9.999E+003 -9.999E+003 -9.999E+003 -9.999E+003 -9.999E+003 -9.999E+003 -9.999E+003 -9.999E+003 -9.999E+003 -9.999E+003 -9.999E+003 -9.999E+003 -9.999E+003 -9.999E+003 -9.999E+003 -9.999E+003 -9.999E+003 -9.999E+003 -9.999E+003 -9.999E+003 -9.999E+003 -9.999E+003 -9.999E+003 -9.999E+003 -9.999E+003 -9.999E+003 -9.999E+003 -9.999E+003 -9.999E+003 -9.999E+003 -9.999E+003 -9.999E+003 -9.999E+003 -9.999E+003 -9.999E+003 -9.999E+003 -9.999E+003 -9.999E+003 -9.999E+003 -9.999E+003 -9.999E+003 -9.999E+003 -9.999E+003 -9.999E+003 -9.999E+003 -9.999E+003 -9.999E+003 -9.999E+003 -9.999E+003 -9.999E+003 -9.999E+003 -9.999E+003 -9.999E+003 -9.999E+003 -9.999E+003 -9.999E+003 -9.999E+003 -9.999E+003 -9.999E+003 -9.999E+003 -9.999E+003 -9.999E+003 -9.999E+003 -9.999E+003 -9.999E+003 -9.999E+003 -9.999E+003 -9.999E+003 -9.999E+003 -9.999E+003 -9.999E+003 -9.999E+003 -9.999E+003 -9.999E+003 -9.999E+003 -9.999E+003 -9.999E+003 -9.999E+003 -9.999E+003 -9.999E+003 -9.999E+003 -9.999E+003 -9.999E+003 -9.999E+003 -9.999E+003 -9.999E+003 -9.999E+003 -9.999E+003 -9.999E+003 -9.999E+003 -9.999E+003 -9.999E+003 -9.999E+003 -9.999E+003 -9.999E+003 -9.999E+003 -9.999E+003 -9.999E+003 -9.999E+003
 -9.999E+003 -9.999E+003 -9.999E+003 -9.999E+003 -9.999E+003 -9.999E+003 -9.999E+003 -9.999E+003 -9.999E+003 -9.999E+003 -9.999E+003 -9.999E+003 -9.999E+003 -9.999E+003 -9.999E+003 -9.999E+003 -9.999E+003 -9.999E+003 -9.999E+003 -9.999E+003 -9.999E+003 -9.999E+003 -9.999E+003 -9.999E+003 -9.999E+003 -9.999E+003 -9.999E+003 -9.999E+003 -9.999E+003 -9.999E+003 -9.999E+003 -9.999E+003 -9.999E+003 -9.999E+003 -9.999E+003 -9.999E+003 -9.999E+003 -9.999E+003 -9.999E+003 -9.999E+003 -9.999E+003 -9.999E+003 -9.999E+003 -9.999E+003 -9.999E+003 -9.999E+003 -9.999E+003 -9.999E+003 -9.999E+003 -9.999E+003 -9.999E+003 -9.999E+003 -9.999E+003 -9.999E+003 -9.999E+003 -9.999E+003 -9.999E+003 -9.999E+003 -9.999E+003 -9.999E+003 -9.999E+003 -9.999E+003 -9.999E+003 -9.999E+003 -9.999E+003 -9.999E+003 -9.999E+003 -9.999E+003 -9.999E+003 -9.999E+003 -9.999E+003 -9.999E+003 -9.999E+003 -9.999E+003 -9.999E+003 -9.999E+003 -9.999E+003 -9.999E+003 -9.999E+003 -9.999E+003 -9.999E+003 -9.999E+003 -9.999E+003 -9.999E+003 -9.999E+003 -9.999E+003 -9.999E+003 -9.999E+003 -9.999E+003 -9.999E+003 -9.999E+003 -9.999E+003 -9.999E+003 -9.999E+003 -9.999E+003 -9.999E+003 -9.999E+003 -9.999E+003 -9.999E+003 -9.999E+003 -9.999E+003 -9.999E+003 -9.999E+003 -9.999E+003 -9.999E+003 -9.999E+003 -9.999E+003 -9.999E+003 -9.999E+003 -9.999E+003 -9.999E+003 -9.999E+003 -9.999E+003 -9.999E+003 -9.999E+003 -9.999E+003 -9.999E+003 -9.999E+003 -9.999E+003 -9.999E+003 -9.999E+003 -9.999E+003 -9.999E+003 -9.999E+003 -9.999E+003 -9.999E+003 -9.999E+003 -9.999E+003 -9.999E+003 -9.999E+003 -9.999E+003 -9.999E+003 -9.999E+003 -9.999E+003 -9.999E+003 -9.999E+003 -9.999E+003 -9.999E+003 -9.999E+003 -9.999E+003 -9.999E+003 -9.999E+003 -9.999E+003 -9.999E+003 -9.999E+003 -9.999E+003 -9.999E+003 -9.999E+003 -9.999E+003 -9.999E+003
 -9.999E+003 -9.999E+003 -9.999E+003 -9.999E+003 -9.999E+003 -9.999E+003 -9.999E+003 -9.999E+003 -9.999E+003 -9.999E+003 -9.999E+003 -9.999E+003 -9.999E+003 -9.999E+003 -9.999E+003 -9.999E+003 -9.999E+003 -9.999E+003 -9.999E+003 -9.999E+003 -9.999E+003 -9.999E+003 -9.999E+003 -9.999E+003 -9.999E+003 -9.999E+003 -9.999E+003 -9.999E+003 -9.999E+003 -9.999E+003 -9.999E+003 -9.999E+003 -9.999E+003 -9.999E+003 -9.999E+003 -9.999E+003 -9.999E+003 -9.999E+003 -9.999E+003 -9.999E+003 -9.999E+003 -9.999E+003 -9.999E+003 -9.999E+003 -9.999E+003 -9.999E+003 -9.999E+003 -9.999E+003 -9.999E+003 -9.999E+003 -9.999E+003 -9.999E+003 -9.999E+003 -9.999E+003 -9.999E+003 -9.999E+003 -9.999E+003 -9.999E+003 -9.999E+003 -9.999E+003 -9.999E+003 -9.999E+003 -9.999E+003 -9.999E+003 -9.999E+003 -9.999E+003 -9.999E+003 -9.999E+003 -9.999E+003 -9.999E+003 -9.999E+003 -9.999E+003 -9.999E+003 -9.999E+003 -9.999E+003 -9.999E+003 -9.999E+003 -9.999E+003 -9.999E+003 -9.999E+003 -9.999E+003 -9.999E+003 -9.999E+003 -9.999E+003 -9.999E+003 -9.999E+003 -9.999E+003 -9.999E+003 -9.999E+003 -9.999E+003 -9.999E+003 -9.999E+003 -9.999E+003 -9.999E+003 -9.999E+003 -9.999E+003 -9.999E+003 -9.999E+003 -9.999E+003 -9.999E+003 -9.999E+003 -9.999E+003 -9.999E+003 -9.999E+003 -9.999E+003 -9.999E+003 -9.999E+003 -9.999E+003 -9.999E+003 -9.999E+003 -9.999E+003 -9.999E+003 -9.999E+003 -9.999E+003 -9.999E+003 -9.999E+003 -9.999E+003 -9.999E+003 -9.999E+003 -9.999E+003 -9.999E+003 -9.999E+003 -9.999E+003 -9.999E+003 -9.999E+003 -9.999E+003 -9.999E+003 -9.999E+003 -9.999E+003 -9.999E+003 -9.999E+003 -9.999E+003 -9.999E+003 -9.999E+003 -9.999E+003 -9.999E+003 -9.999E+003 -9.999E+003 -9.999E+003 -9.999E+003 -9.999E+003 -9.999E+003 -9.999E+003 -9.999E+003 -9.999E+003 -9.999E+003 -9.999E+003 -9.999E+003 -9.999E+003 -9.999E+003
 -9.999E+003 -9.999E+003 -9.999E+003 -9.999E+003 -9.999E+003 -9.999E+003 -9.999E+003 -9.999E+003 -9.999E+003 -9.999E+003 -9.999E+003 -9.999E+003 -9.999E+003 -9.999E+003 -9.999E+003 -9.999E+003 -9.999E+003 -9.999E+003 -9.999E+003 -9.999E+003 -9.999E+003 -9.999E+003 -9.999E+003 -9.999E+003 -9.999E+003 -9.999E+003 -9.999E+003 -9.999E+003 -9.999E+003 -9.999E+003 -9.999E+003 -9.999E+003 -9.999E+003 -9.999E+003 -9.999E+003 -9.999E+003 -9.999E+003 -9.999E+003 -9.999E+003 -9.999E+003 -9.999E+003 -9.999E+003 -9.999E+003 -9.999E+003 -9.999E+003 -9.999E+003 -9.999E+003 -9.999E+003 -9.999E+003 -9.999E+003 -9.999E+003 -9.999E+003 -9.999E+003 -9.999E+003 -9.999E+003 -9.999E+003 -9.999E+003 -9.999E+003 -9.999E+003 -9.999E+003 -9.999E+003 -9.999E+003 -9.999E+003 -9.999E+003 -9.999E+003 -9.999E+003 -9.999E+003 -9.999E+003 -9.999E+003 -9.999E+003 -9.999E+003 -9.999E+003 -9.999E+003 -9.999E+003 -9.999E+003 -9.999E+003 -9.999E+003 -9.999E+003 -9.999E+003 -9.999E+003 -9.999E+003 -9.999E+003 -9.999E+003 -9.999E+003 -9.999E+003 -9.999E+003 -9.999E+003 -9.999E+003 -9.999E+003 -9.999E+003 -9.999E+003 -9.999E+003 -9.999E+003 -9.999E+003 -9.999E+003 -9.999E+003 -9.999E+003 -9.999E+003 -9.999E+003 -9.999E+003 -9.999E+003 -9.999E+003 -9.999E+003 -9.999E+003 -9.999E+003 -9.999E+003 -9.999E+003 -9.999E+003 -9.999E+003 -9.999E+003 -9.999E+003 -9.999E+003 -9.999E+003 -9.999E+003 -9.999E+003 -9.999E+003 -9.999E+003 -9.999E+003 -9.999E+003 -9.999E+003 -9.999E+003 -9.999E+003 -9.999E+003 -9.999E+003 -9.999E+003 -9.999E+003 -9.999E+003 -9.999E+003 -9.999E+003 -9.999E+003 -9.999E+003 -9.999E+003 -9.999E+003 -9.999E+003 -9.999E+003 -9.999E+003 -9.999E+003 -9.999E+003 -9.999E+003 -9.999E+003 -9.999E+003 -9.999E+003 -9.999E+003 -9.999E+003 -9.999E+003 -9.999E+003 -9.999E+003 -9.999E+003 -9.999E+003 -9.999E+003
 -9.999E+003 -9.999E+003 -9.999E+003 -9.999E+003 -9.999E+003 -9.999E+003 -9.999E+003 -9.999E+003 -9.999E+003 -9.999E+003 -9.999E+003 -9.999E+003 -9.999E+003 -9.999E+003 -9.999E+003 -9.999E+003 -9.999E+003 -9.999E+003 -9.999E+003 -9.999E+003 -9.999E+003 -9.999E+003 -9.999E+003 -9.999E+003 -9.999E+003 -9.999E+003 -9.999E+003 -9.999E+003 -9.999E+003 -9.999E+003 -9.999E+003 -9.999E+003 -9.999E+003 -9.999E+003 -9.999E+003 -9.999E+003 -9.999E+003 -9.999E+003 -9.999E+003 -9.999E+003 -9.999E+003 -9.999E+003 -9.999E+003 -9.999E+003 -9.999E+003 -9.999E+003 -9.999E+003 -9.999E+003 -9.999E+003 -9.999E+003 -9.999E+003 -9.999E+003 -9.999E+003 -9.999E+003 -9.999E+003 -9.999E+003 -9.999E+003 -9.999E+003 -9.999E+003 -9.999E+003 -9.999E+003 -9.999E+003 -9.999E+003 -9.999E+003 -9.999E+003 -9.999E+003 -9.999E+003 -9.999E+003 -9.999E+003 -9.999E+003 -9.999E+003 -9.999E+003 -9.999E+003 -9.999E+003 -9.999E+003 -9.999E+003 -9.999E+003 -9.999E+003 -9.999E+003 -9.999E+003 -9.999E+003 -9.999E+003 -9.999E+003 -9.999E+003 -9.999E+003 -9.999E+003 -9.999E+003 -9.999E+003 -9.999E+003 -9.999E+003 -9.999E+003 -9.999E+003 -9.999E+003 -9.999E+003 -9.999E+003 -9.999E+003 -9.999E+003 -9.999E+003 -9.999E+003 -9.999E+003 -9.999E+003 -9.999E+003 -9.999E+003 -9.999E+003 -9.999E+003 -9.999E+003 -9.999E+003 -9.999E+003 -9.999E+003 -9.999E+003 -9.999E+003 -9.999E+003 -9.999E+003 -9.999E+003 -9.999E+003 -9.999E+003 -9.999E+003 -9.999E+003 -9.999E+003 -9.999E+003 -9.999E+003 -9.999E+003 -9.999E+003 -9.999E+003 -9.999E+003 -9.999E+003 -9.999E+003 -9.999E+003 -9.999E+003 -9.999E+003 -9.999E+003 -9.999E+003 -9.999E+003 -9.999E+003 -9.999E+003 -9.999E+003 -9.999E+003 -9.999E+003 -9.999E+003 -9.999E+003 -9.999E+003 -9.999E+003 -9.999E+003 -9.999E+003 -9.999E+003 -9.999E+003 -9.999E+003 -9.999E+003 -9.999E+003 -9.999E+003
 -9.999E+003 -9.999E+003 -9.999E+003 -9.999E+003 -9.999E+003 -9.999E+003 -9.999E+003 -9.999E+003 -9.999E+003 -9.999E+003 -9.999E+003 -9.999E+003 -9.999E+003 -9.999E+003 -9.999E+003 -9.999E+003 -9.999E+003 -9.999E+003 -9.999E+003 -9.999E+003 -9.999E+003 -9.999E+003 -9.999E+003 -9.999E+003 -9.999E+003 -9.999E+003 -9.999E+003 -9.999E+003 -9.999E+003 -9.999E+003 -9.999E+003 -9.999E+003 -9.999E+003 -9.999E+003 -9.999E+003 -9.999E+003 -9.999E+003 -9.999E+003 -9.999E+003 -9.999E+003 -9.999E+003 -9.999E+003 -9.999E+003 -9.999E+003 -9.999E+003 -9.999E+003 -9.999E+003 -9.999E+003 -9.999E+003 -9.999E+003 -9.999E+003 -9.999E+003 -9.999E+003 -9.999E+003 -9.999E+003 -9.999E+003 -9.999E+003 -9.999E+003 -9.999E+003 -9.999E+003 -9.999E+003 -9.999E+003 -9.999E+003 -9.999E+003 -9.999E+003 -9.999E+003 -9.999E+003 -9.999E+003 -9.999E+003 -9.999E+003 -9.999E+003 -9.999E+003 -9.999E+003 -9.999E+003 -9.999E+003 -9.999E+003 -9.999E+003 -9.999E+003 -9.999E+003 -9.999E+003 -9.999E+003 -9.999E+003 -9.999E+003 -9.999E+003 -9.999E+003 -9.999E+003 -9.999E+003 -9.999E+003 -9.999E+003 -9.999E+003 -9.999E+003 -9.999E+003 -9.999E+003 -9.999E+003 -9.999E+003 -9.999E+003 -9.999E+003 -9.999E+003 -9.999E+003 -9.999E+003 -9.999E+003 -9.999E+003 -9.999E+003 -9.999E+003 -9.999E+003 -9.999E+003 -9.999E+003 -9.999E+003 -9.999E+003 -9.999E+003 -9.999E+003 -9.999E+003 -9.999E+003 -9.999E+003 -9.999E+003 -9.999E+003 -9.999E+003 -9.999E+003 -9.999E+003 -9.999E+003 -9.999E+003 -9.999E+003 -9.999E+003 -9.999E+003 -9.999E+003 -9.999E+003 -9.999E+003 -9.999E+003 -9.999E+003 -9.999E+003 -9.999E+003 -9.999E+003 -9.999E+003 -9.999E+003 -9.999E+003 -9.999E+003 -9.999E+003 -9.999E+003 -9.999E+003 -9.999E+003 -9.999E+003 -9.999E+003 -9.999E+003 -9.999E+003 -9.999E+003 -9.999E+003 -9.999E+003 -9.999E+003 -9.999E+003 -9.999E+003
 -9.999E+003 -9.999E+003 -9.999E+003 -9.999E+003 -9.999E+003 -9.999E+003 -9.999E+003 -9.999E+003 -9.999E+003 -9.999E+003 -9.999E+003 -9.999E+003 -9.999E+003 -9.999E+003 -9.999E+003 -9.999E+003 -9.999E+003 -9.999E+003 -9.999E+003 -9.999E+003 -9.999E+003 -9.999E+003 -9.999E+003 -9.999E+003 -9.999E+003 -9.999E+003 -9.999E+003 -9.999E+003 -9.999E+003 -9.999E+003 -9.999E+003 -9.999E+003 -9.999E+003 -9.999E+003 -9.999E+003 -9.999E+003 -9.999E+003 -9.999E+003 -9.999E+003 -9.999E+003 -9.999E+003 -9.999E+003 -9.999E+003 -9.999E+003 -9.999E+003 -9.999E+003 -9.999E+003 -9.999E+003 -9.999E+003 -9.999E+003 -9.999E+003 -9.999E+003 -9.999E+003 -9.999E+003 -9.999E+003 -9.999E+003 -9.999E+003 -9.999E+003 -9.999E+003 -9.999E+003 -9.999E+003 -9.999E+003 -9.999E+003 -9.999E+003 -9.999E+003 -9.999E+003 -9.999E+003 -9.999E+003 -9.999E+003 -9.999E+003 -9.999E+003 -9.999E+003 -9.999E+003 -9.999E+003 -9.999E+003 -9.999E+003 -9.999E+003 -9.999E+003 -9.999E+003 -9.999E+003 -9.999E+003 -9.999E+003 -9.999E+003 -9.999E+003 -9.999E+003 -9.999E+003 -9.999E+003 -9.999E+003 -9.999E+003 -9.999E+003 -9.999E+003 -9.999E+003 -9.999E+003 -9.999E+003 -9.999E+003 -9.999E+003 -9.999E+003 -9.999E+003 -9.999E+003 -9.999E+003 -9.999E+003 -9.999E+003 -9.999E+003 -9.999E+003 -9.999E+003 -9.999E+003 -9.999E+003 -9.999E+003 -9.999E+003 -9.999E+003 -9.999E+003 -9.999E+003 -9.999E+003 -9.999E+003 -9.999E+003 -9.999E+003 -9.999E+003 -9.999E+003 -9.999E+003 -9.999E+003 -9.999E+003 -9.999E+003 -9.999E+003 -9.999E+003 -9.999E+003 -9.999E+003 -9.999E+003 -9.999E+003 -9.999E+003 -9.999E+003 -9.999E+003 -9.999E+003 -9.999E+003 -9.999E+003 -9.999E+003 -9.999E+003 -9.999E+003 -9.999E+003 -9.999E+003 -9.999E+003 -9.999E+003 -9.999E+003 -9.999E+003 -9.999E+003 -9.999E+003 -9.999E+003 -9.999E+003 -9.999E+003 -9.999E+003 -9.999E+003
 -9.999E+003 -9.999E+003 -9.999E+003 -9.999E+003 -9.999E+003 -9.999E+003 -9.999E+003 -9.999E+003 -9.999E+003 -9.999E+003 -9.999E+003 -9.999E+003 -9.999E+003 -9.999E+003 -9.999E+003 -9.999E+003 -9.999E+003 -9.999E+003 -9.999E+003 -9.999E+003 -9.999E+003 -9.999E+003 -9.999E+003 -9.999E+003 -9.999E+003 -9.999E+003 -9.999E+003 -9.999E+003 -9.999E+003 -9.999E+003 -9.999E+003 -9.999E+003 -9.999E+003 -9.999E+003 -9.999E+003 -9.999E+003 -9.999E+003 -9.999E+003 -9.999E+003 -9.999E+003 -9.999E+003 -9.999E+003 -9.999E+003 -9.999E+003 -9.999E+003 -9.999E+003 -9.999E+003 -9.999E+003 -9.999E+003 -9.999E+003 -9.999E+003 -9.999E+003 -9.999E+003 -9.999E+003 -9.999E+003 -9.999E+003 -9.999E+003 -9.999E+003 -9.999E+003 -9.999E+003 -9.999E+003 -9.999E+003 -9.999E+003 -9.999E+003 -9.999E+003 -9.999E+003 -9.999E+003 -9.999E+003 -9.999E+003 -9.999E+003 -9.999E+003 -9.999E+003 -9.999E+003 -9.999E+003 -9.999E+003 -9.999E+003 -9.999E+003 -9.999E+003 -9.999E+003 -9.999E+003 -9.999E+003 -9.999E+003 -9.999E+003 -9.999E+003 -9.999E+003 -9.999E+003 -9.999E+003 -9.999E+003 -9.999E+003 -9.999E+003 -9.999E+003 -9.999E+003 -9.999E+003 -9.999E+003 -9.999E+003 -9.999E+003 -9.999E+003 -9.999E+003 -9.999E+003 -9.999E+003 -9.999E+003 -9.999E+003 -9.999E+003 -9.999E+003 -9.999E+003 -9.999E+003 -9.999E+003 -9.999E+003 -9.999E+003 -9.999E+003 -9.999E+003 -9.999E+003 -9.999E+003 -9.999E+003 -9.999E+003 -9.999E+003 -9.999E+003 -9.999E+003 -9.999E+003 -9.999E+003 -9.999E+003 -9.999E+003 -9.999E+003 -9.999E+003 -9.999E+003 -9.999E+003 -9.999E+003 -9.999E+003 -9.999E+003 -9.999E+003 -9.999E+003 -9.999E+003 -9.999E+003 -9.999E+003 -9.999E+003 -9.999E+003 -9.999E+003 -9.999E+003 -9.999E+003 -9.999E+003 -9.999E+003 -9.999E+003 -9.999E+003 -9.999E+003 -9.999E+003 -9.999E+003 -9.999E+003 -9.999E+003 -9.999E+003 -9.999E+003
 -9.999E+003 -9.999E+003 -9.999E+003 -9.999E+003 -9.999E+003 -9.999E+003 -9.999E+003 -9.999E+003 -9.999E+003 -9.999E+003 -9.999E+003 -9.999E+003 -9.999E+003 -9.999E+003 -9.999E+003 -9.999E+003 -9.999E+003 -9.999E+003 -9.999E+003 -9.999E+003 -9.999E+003 -9.999E+003 -9.999E+003 -9.999E+003 -9.999E+003 -9.999E+003 -9.999E+003 -9.999E+003 -9.999E+003 -9.999E+003 -9.999E+003 -9.999E+003 -9.999E+003 -9.999E+003 -9.999E+003 -9.999E+003 -9.999E+003 -9.999E+003 -9.999E+003 -9.999E+003 -9.999E+003 -9.999E+003 -9.999E+003 -9.999E+003 -9.999E+003 -9.999E+003 -9.999E+003 -9.999E+003 -9.999E+003 -9.999E+003 -9.999E+003 -9.999E+003 -9.999E+003 -9.999E+003 -9.999E+003 -9.999E+003 -9.999E+003 -9.999E+003 -9.999E+003 -9.999E+003 -9.999E+003 -9.999E+003 -9.999E+003 -9.999E+003 -9.999E+003 -9.999E+003 -9.999E+003 -9.999E+003 -9.999E+003 -9.999E+003 -9.999E+003 -9.999E+003 -9.999E+003 -9.999E+003 -9.999E+003 -9.999E+003 -9.999E+003 -9.999E+003 -9.999E+003 -9.999E+003 -9.999E+003 -9.999E+003 -9.999E+003 -9.999E+003 -9.999E+003 -9.999E+003 -9.999E+003 -9.999E+003 -9.999E+003 -9.999E+003 -9.999E+003 -9.999E+003 -9.999E+003 -9.999E+003 -9.999E+003 -9.999E+003 -9.999E+003 -9.999E+003 -9.999E+003 -9.999E+003 -9.999E+003 -9.999E+003 -9.999E+003 -9.999E+003 -9.999E+003 -9.999E+003 -9.999E+003 -9.999E+003 -9.999E+003 -9.999E+003 -9.999E+003 -9.999E+003 -9.999E+003 -9.999E+003 -9.999E+003 -9.999E+003 -9.999E+003 -9.999E+003 -9.999E+003 -9.999E+003 -9.999E+003 -9.999E+003 -9.999E+003 -9.999E+003 -9.999E+003 -9.999E+003 -9.999E+003 -9.999E+003 -9.999E+003 -9.999E+003 -9.999E+003 -9.999E+003 -9.999E+003 -9.999E+003 -9.999E+003 -9.999E+003 -9.999E+003 -9.999E+003 -9.999E+003 -9.999E+003 -9.999E+003 -9.999E+003 -9.999E+003 -9.999E+003 -9.999E+003 -9.999E+003 -9.999E+003 -9.999E+003 -9.999E+003 -9.999E+003
 -9.999E+003 -9.999E+003 -9.999E+003 -9.999E+003 -9.999E+003 -9.999E+003 -9.999E+003 -9.999E+003 -9.999E+003 -9.999E+003 -9.999E+003 -9.999E+003 -9.999E+003 -9.999E+003 -9.999E+003 -9.999E+003 -9.999E+003 -9.999E+003 -9.999E+003 -9.999E+003 -9.999E+003 -9.999E+003 -9.999E+003 -9.999E+003 -9.999E+003 -9.999E+003 -9.999E+003 -9.999E+003 -9.999E+003 -9.999E+003 -9.999E+003 -9.999E+003 -9.999E+003 -9.999E+003 -9.999E+003 -9.999E+003 -9.999E+003 -9.999E+003 -9.999E+003 -9.999E+003 -9.999E+003 -9.999E+003 -9.999E+003 -9.999E+003 -9.999E+003 -9.999E+003 -9.999E+003 -9.999E+003 -9.999E+003 -9.999E+003 -9.999E+003 -9.999E+003 -9.999E+003 -9.999E+003 -9.999E+003 -9.999E+003 -9.999E+003 -9.999E+003 -9.999E+003 -9.999E+003 -9.999E+003 -9.999E+003 -9.999E+003 -9.999E+003 -9.999E+003 -9.999E+003 -9.999E+003 -9.999E+003 -9.999E+003 -9.999E+003 -9.999E+003 -9.999E+003 -9.999E+003 -9.999E+003 -9.999E+003 -9.999E+003 -9.999E+003 -9.999E+003 -9.999E+003 -9.999E+003 -9.999E+003 -9.999E+003 -9.999E+003 -9.999E+003 -9.999E+003 -9.999E+003 -9.999E+003 -9.999E+003 -9.999E+003 -9.999E+003 -9.999E+003 -9.999E+003 -9.999E+003 -9.999E+003 -9.999E+003 -9.999E+003 -9.999E+003 -9.999E+003 -9.999E+003 -9.999E+003 -9.999E+003 -9.999E+003 -9.999E+003 -9.999E+003 -9.999E+003 -9.999E+003 -9.999E+003 -9.999E+003 -9.999E+003 -9.999E+003 -9.999E+003 -9.999E+003 -9.999E+003 -9.999E+003 -9.999E+003 -9.999E+003 -9.999E+003 -9.999E+003 -9.999E+003 -9.999E+003 -9.999E+003 -9.999E+003 -9.999E+003 -9.999E+003 -9.999E+003 -9.999E+003 -9.999E+003 -9.999E+003 -9.999E+003 -9.999E+003 -9.999E+003 -9.999E+003 -9.999E+003 -9.999E+003 -9.999E+003 -9.999E+003 -9.999E+003 -9.999E+003 -9.999E+003 -9.999E+003 -9.999E+003 -9.999E+003 -9.999E+003 -9.999E+003 -9.999E+003 -9.999E+003 -9.999E+003 -9.999E+003 -9.999E+003 -9.999E+003
 -9.999E+003 -9.999E+003 -9.999E+003 -9.999E+003 -9.999E+003 -9.999E+003 -9.999E+003 -9.999E+003 -9.999E+003 -9.999E+003 -9.999E+003 -9.999E+003 -9.999E+003 -9.999E+003 -9.999E+003 -9.999E+003 -9.999E+003 -9.999E+003 -9.999E+003 -9.999E+003 -9.999E+003 -9.999E+003 -9.999E+003 -9.999E+003 -9.999E+003 -9.999E+003 -9.999E+003 -9.999E+003 -9.999E+003 -9.999E+003 -9.999E+003 -9.999E+003 -9.999E+003 -9.999E+003 -9.999E+003 -9.999E+003 -9.999E+003 -9.999E+003 -9.999E+003 -9.999E+003 -9.999E+003 -9.999E+003 -9.999E+003 -9.999E+003 -9.999E+003 -9.999E+003 -9.999E+003 -9.999E+003 -9.999E+003 -9.999E+003 -9.999E+003 -9.999E+003 -9.999E+003 -9.999E+003 -9.999E+003 -9.999E+003 -9.999E+003 -9.999E+003 -9.999E+003 -9.999E+003 -9.999E+003 -9.999E+003 -9.999E+003 -9.999E+003 -9.999E+003 -9.999E+003 -9.999E+003 -9.999E+003 -9.999E+003 -9.999E+003 -9.999E+003 -9.999E+003 -9.999E+003 -9.999E+003 -9.999E+003 -9.999E+003 -9.999E+003 -9.999E+003 -9.999E+003 -9.999E+003 -9.999E+003 -9.999E+003 -9.999E+003 -9.999E+003 -9.999E+003 -9.999E+003 -9.999E+003 -9.999E+003 -9.999E+003 -9.999E+003 -9.999E+003 -9.999E+003 -9.999E+003 -9.999E+003 -9.999E+003 -9.999E+003 -9.999E+003 -9.999E+003 -9.999E+003 -9.999E+003 -9.999E+003 -9.999E+003 -9.999E+003 -9.999E+003 -9.999E+003 -9.999E+003 -9.999E+003 -9.999E+003 -9.999E+003 -9.999E+003 -9.999E+003 -9.999E+003 -9.999E+003 -9.999E+003 -9.999E+003 -9.999E+003 -9.999E+003 -9.999E+003 -9.999E+003 -9.999E+003 -9.999E+003 -9.999E+003 -9.999E+003 -9.999E+003 -9.999E+003 -9.999E+003 -9.999E+003 -9.999E+003 -9.999E+003 -9.999E+003 -9.999E+003 -9.999E+003 -9.999E+003 -9.999E+003 -9.999E+003 -9.999E+003 -9.999E+003 -9.999E+003 -9.999E+003 -9.999E+003 -9.999E+003 -9.999E+003 -9.999E+003 -9.999E+003 -9.999E+003 -9.999E+003 -9.999E+003 -9.999E+003 -9.999E+003 -9.999E+003
 -9.999E+003 -9.999E+003 -9.999E+003 -9.999E+003 -9.999E+003 -9.999E+003 -9.999E+003 -9.999E+003 -9.999E+003 -9.999E+003 -9.999E+003 -9.999E+003 -9.999E+003 -9.999E+003 -9.999E+003 -9.999E+003 -9.999E+003 -9.999E+003 -9.999E+003 -9.999E+003 -9.999E+003 -9.999E+003 -9.999E+003 -9.999E+003 -9.999E+003 -9.999E+003 -9.999E+003 -9.999E+003 -9.999E+003 -9.999E+003 -9.999E+003 -9.999E+003 -9.999E+003 -9.999E+003 -9.999E+003 -9.999E+003 -9.999E+003 -9.999E+003 -9.999E+003 -9.999E+003 -9.999E+003 -9.999E+003 -9.999E+003 -9.999E+003 -9.999E+003 -9.999E+003 -9.999E+003 -9.999E+003 -9.999E+003 -9.999E+003 -9.999E+003 -9.999E+003 -9.999E+003 -9.999E+003 -9.999E+003 -9.999E+003 -9.999E+003 -9.999E+003 -9.999E+003 -9.999E+003 -9.999E+003 -9.999E+003 -9.999E+003 -9.999E+003 -9.999E+003 -9.999E+003 -9.999E+003 -9.999E+003 -9.999E+003 -9.999E+003 -9.999E+003 -9.999E+003 -9.999E+003 -9.999E+003 -9.999E+003 -9.999E+003 -9.999E+003 -9.999E+003 -9.999E+003 -9.999E+003 -9.999E+003 -9.999E+003 -9.999E+003 -9.999E+003 -9.999E+003 -9.999E+003 -9.999E+003 -9.999E+003 -9.999E+003 -9.999E+003 -9.999E+003 -9.999E+003 -9.999E+003 -9.999E+003 -9.999E+003 -9.999E+003 -9.999E+003 -9.999E+003 -9.999E+003 -9.999E+003 -9.999E+003 -9.999E+003 -9.999E+003 -9.999E+003 -9.999E+003 -9.999E+003 -9.999E+003 -9.999E+003 -9.999E+003 -9.999E+003 -9.999E+003 -9.999E+003 -9.999E+003 -9.999E+003 -9.999E+003 -9.999E+003 -9.999E+003 -9.999E+003 -9.999E+003 -9.999E+003 -9.999E+003 -9.999E+003 -9.999E+003 -9.999E+003 -9.999E+003 -9.999E+003 -9.999E+003 -9.999E+003 -9.999E+003 -9.999E+003 -9.999E+003 -9.999E+003 -9.999E+003 -9.999E+003 -9.999E+003 -9.999E+003 -9.999E+003 -9.999E+003 -9.999E+003 -9.999E+003 -9.999E+003 -9.999E+003 -9.999E+003 -9.999E+003 -9.999E+003 -9.999E+003 -9.999E+003 -9.999E+003 -9.999E+003 -9.999E+003
 -9.999E+003 -9.999E+003 -9.999E+003 -9.999E+003 -9.999E+003 -9.999E+003 -9.999E+003 -9.999E+003 -9.999E+003 -9.999E+003 -9.999E+003 -9.999E+003 -9.999E+003 -9.999E+003 -9.999E+003 -9.999E+003 -9.999E+003 -9.999E+003 -9.999E+003 -9.999E+003 -9.999E+003 -9.999E+003 -9.999E+003 -9.999E+003 -9.999E+003 -9.999E+003 -9.999E+003 -9.999E+003 -9.999E+003 -9.999E+003 -9.999E+003 -9.999E+003 -9.999E+003 -9.999E+003 -9.999E+003 -9.999E+003 -9.999E+003 -9.999E+003 -9.999E+003 -9.999E+003 -9.999E+003 -9.999E+003 -9.999E+003 -9.999E+003 -9.999E+003 -9.999E+003 -9.999E+003 -9.999E+003 -9.999E+003 -9.999E+003 -9.999E+003 -9.999E+003 -9.999E+003 -9.999E+003 -9.999E+003 -9.999E+003 -9.999E+003 -9.999E+003 -9.999E+003 -9.999E+003 -9.999E+003 -9.999E+003 -9.999E+003 -9.999E+003 -9.999E+003 -9.999E+003 -9.999E+003 -9.999E+003 -9.999E+003 -9.999E+003 -9.999E+003 -9.999E+003 -9.999E+003 -9.999E+003 -9.999E+003 -9.999E+003 -9.999E+003 -9.999E+003 -9.999E+003 -9.999E+003 -9.999E+003 -9.999E+003 -9.999E+003 -9.999E+003 -9.999E+003 -9.999E+003 -9.999E+003 -9.999E+003 -9.999E+003 -9.999E+003 -9.999E+003 -9.999E+003 -9.999E+003 -9.999E+003 -9.999E+003 -9.999E+003 -9.999E+003 -9.999E+003 -9.999E+003 -9.999E+003 -9.999E+003 -9.999E+003 -9.999E+003 -9.999E+003 -9.999E+003 -9.999E+003 -9.999E+003 -9.999E+003 -9.999E+003 -9.999E+003 -9.999E+003 -9.999E+003 -9.999E+003 -9.999E+003 -9.999E+003 -9.999E+003 -9.999E+003 -9.999E+003 -9.999E+003 -9.999E+003 -9.999E+003 -9.999E+003 -9.999E+003 -9.999E+003 -9.999E+003 -9.999E+003 -9.999E+003 -9.999E+003 -9.999E+003 -9.999E+003 -9.999E+003 -9.999E+003 -9.999E+003 -9.999E+003 -9.999E+003 -9.999E+003 -9.999E+003 -9.999E+003 -9.999E+003 -9.999E+003 -9.999E+003 -9.999E+003 -9.999E+003 -9.999E+003 -9.999E+003 -9.999E+003 -9.999E+003 -9.999E+003 -9.999E+003 -9.999E+003
 -9.999E+003 -9.999E+003 -9.999E+003 -9.999E+003 -9.999E+003 -9.999E+003 -9.999E+003 -9.999E+003 -9.999E+003 -9.999E+003 -9.999E+003 -9.999E+003 -9.999E+003 -9.999E+003 -9.999E+003 -9.999E+003 -9.999E+003 -9.999E+003 -9.999E+003 -9.999E+003 -9.999E+003 -9.999E+003 -9.999E+003 -9.999E+003 -9.999E+003 -9.999E+003 -9.999E+003 -9.999E+003 -9.999E+003 -9.999E+003 -9.999E+003 -9.999E+003 -9.999E+003 -9.999E+003 -9.999E+003 -9.999E+003 -9.999E+003 -9.999E+003 -9.999E+003 -9.999E+003 -9.999E+003 -9.999E+003 -9.999E+003 -9.999E+003 -9.999E+003 -9.999E+003 -9.999E+003 -9.999E+003 -9.999E+003 -9.999E+003 -9.999E+003 -9.999E+003 -9.999E+003 -9.999E+003 -9.999E+003 -9.999E+003 -9.999E+003 -9.999E+003 -9.999E+003 -9.999E+003 -9.999E+003 -9.999E+003 -9.999E+003 -9.999E+003 -9.999E+003 -9.999E+003 -9.999E+003 -9.999E+003 -9.999E+003 -9.999E+003 -9.999E+003 -9.999E+003 -9.999E+003 -9.999E+003 -9.999E+003 -9.999E+003 -9.999E+003 -9.999E+003 -9.999E+003 -9.999E+003 -9.999E+003 -9.999E+003 -9.999E+003 -9.999E+003 -9.999E+003 -9.999E+003 -9.999E+003 -9.999E+003 -9.999E+003 -9.999E+003 -9.999E+003 -9.999E+003 -9.999E+003 -9.999E+003 -9.999E+003 -9.999E+003 -9.999E+003 -9.999E+003 -9.999E+003 -9.999E+003 -9.999E+003 -9.999E+003 -9.999E+003 -9.999E+003 -9.999E+003 -9.999E+003 -9.999E+003 -9.999E+003 -9.999E+003 -9.999E+003 -9.999E+003 -9.999E+003 -9.999E+003 -9.999E+003 -9.999E+003 -9.999E+003 -9.999E+003 -9.999E+003 -9.999E+003 -9.999E+003 -9.999E+003 -9.999E+003 -9.999E+003 -9.999E+003 -9.999E+003 -9.999E+003 -9.999E+003 -9.999E+003 -9.999E+003 -9.999E+003 -9.999E+003 -9.999E+003 -9.999E+003 -9.999E+003 -9.999E+003 -9.999E+003 -9.999E+003 -9.999E+003 -9.999E+003 -9.999E+003 -9.999E+003 -9.999E+003 -9.999E+003 -9.999E+003 -9.999E+003 -9.999E+003 -9.999E+003 -9.999E+003 -9.999E+003 -9.999E+003
 -9.999E+003 -9.999E+003 -9.999E+003 -9.999E+003 -9.999E+003 -9.999E+003 -9.999E+003 -9.999E+003 -9.999E+003 -9.999E+003 -9.999E+003 -9.999E+003 -9.999E+003 -9.999E+003 -9.999E+003 -9.999E+003 -9.999E+003 -9.999E+003 -9.999E+003 -9.999E+003 -9.999E+003 -9.999E+003 -9.999E+003 -9.999E+003 -9.999E+003 -9.999E+003 -9.999E+003 -9.999E+003 -9.999E+003 -9.999E+003 -9.999E+003 -9.999E+003 -9.999E+003 -9.999E+003 -9.999E+003 -9.999E+003 -9.999E+003 -9.999E+003 -9.999E+003 -9.999E+003 -9.999E+003 -9.999E+003 -9.999E+003 -9.999E+003 -9.999E+003 -9.999E+003 -9.999E+003 -9.999E+003 -9.999E+003 -9.999E+003 -9.999E+003 -9.999E+003 -9.999E+003 -9.999E+003 -9.999E+003 -9.999E+003 -9.999E+003 -9.999E+003 -9.999E+003 -9.999E+003 -9.999E+003 -9.999E+003 -9.999E+003 -9.999E+003 -9.999E+003 -9.999E+003 -9.999E+003 -9.999E+003 -9.999E+003 -9.999E+003 -9.999E+003 -9.999E+003 -9.999E+003 -9.999E+003 -9.999E+003 -9.999E+003 -9.999E+003 -9.999E+003 -9.999E+003 -9.999E+003 -9.999E+003 -9.999E+003 -9.999E+003 -9.999E+003 -9.999E+003 -9.999E+003 -9.999E+003 -9.999E+003 -9.999E+003 -9.999E+003 -9.999E+003 -9.999E+003 -9.999E+003 -9.999E+003 -9.999E+003 -9.999E+003 -9.999E+003 -9.999E+003 -9.999E+003 -9.999E+003 -9.999E+003 -9.999E+003 -9.999E+003 -9.999E+003 -9.999E+003 -9.999E+003 -9.999E+003 -9.999E+003 -9.999E+003 -9.999E+003 -9.999E+003 -9.999E+003 -9.999E+003 -9.999E+003 -9.999E+003 -9.999E+003 -9.999E+003 -9.999E+003 -9.999E+003 -9.999E+003 -9.999E+003 -9.999E+003 -9.999E+003 -9.999E+003 -9.999E+003 -9.999E+003 -9.999E+003 -9.999E+003 -9.999E+003 -9.999E+003 -9.999E+003 -9.999E+003 -9.999E+003 -9.999E+003 -9.999E+003 -9.999E+003 -9.999E+003 -9.999E+003 -9.999E+003 -9.999E+003 -9.999E+003 -9.999E+003 -9.999E+003 -9.999E+003 -9.999E+003 -9.999E+003 -9.999E+003 -9.999E+003 -9.999E+003 -9.999E+003
 -9.999E+003 -9.999E+003 -9.999E+003 -9.999E+003 -9.999E+003 -9.999E+003 -9.999E+003 -9.999E+003 -9.999E+003 -9.999E+003 -9.999E+003 -9.999E+003 -9.999E+003 -9.999E+003 -9.999E+003 -9.999E+003 -9.999E+003 -9.999E+003 -9.999E+003 -9.999E+003 -9.999E+003 -9.999E+003 -9.999E+003 -9.999E+003 -9.999E+003 -9.999E+003 -9.999E+003 -9.999E+003 -9.999E+003 -9.999E+003 -9.999E+003 -9.999E+003 -9.999E+003 -9.999E+003 -9.999E+003 -9.999E+003 -9.999E+003 -9.999E+003 -9.999E+003 -9.999E+003 -9.999E+003 -9.999E+003 -9.999E+003 -9.999E+003 -9.999E+003 -9.999E+003 -9.999E+003 -9.999E+003 -9.999E+003 -9.999E+003 -9.999E+003 -9.999E+003 -9.999E+003 -9.999E+003 -9.999E+003 -9.999E+003 -9.999E+003 -9.999E+003 -9.999E+003 -9.999E+003 -9.999E+003 -9.999E+003 -9.999E+003 -9.999E+003 -9.999E+003 -9.999E+003 -9.999E+003 -9.999E+003 -9.999E+003 -9.999E+003 -9.999E+003 -9.999E+003 -9.999E+003 -9.999E+003 -9.999E+003 -9.999E+003 -9.999E+003 -9.999E+003 -9.999E+003 -9.999E+003 -9.999E+003 -9.999E+003 -9.999E+003 -9.999E+003 -9.999E+003 -9.999E+003 -9.999E+003 -9.999E+003 -9.999E+003 -9.999E+003 -9.999E+003 -9.999E+003 -9.999E+003 -9.999E+003 -9.999E+003 -9.999E+003 -9.999E+003 -9.999E+003 -9.999E+003 -9.999E+003 -9.999E+003 -9.999E+003 -9.999E+003 -9.999E+003 -9.999E+003 -9.999E+003 -9.999E+003 -9.999E+003 -9.999E+003 -9.999E+003 -9.999E+003 -9.999E+003 -9.999E+003 -9.999E+003 -9.999E+003 -9.999E+003 -9.999E+003 -9.999E+003 -9.999E+003 -9.999E+003 -9.999E+003 -9.999E+003 -9.999E+003 -9.999E+003 -9.999E+003 -9.999E+003 -9.999E+003 -9.999E+003 -9.999E+003 -9.999E+003 -9.999E+003 -9.999E+003 -9.999E+003 -9.999E+003 -9.999E+003 -9.999E+003 -9.999E+003 -9.999E+003 -9.999E+003 -9.999E+003 -9.999E+003 -9.999E+003 -9.999E+003 -9.999E+003 -9.999E+003 -9.999E+003 -9.999E+003 -9.999E+003 -9.999E+003 -9.999E+003
 -9.999E+003 -9.999E+003 -9.999E+003 -9.999E+003 -9.999E+003 -9.999E+003 -9.999E+003 -9.999E+003 -9.999E+003 -9.999E+003 -9.999E+003 -9.999E+003 -9.999E+003 -9.999E+003 -9.999E+003 -9.999E+003 -9.999E+003 -9.999E+003 -9.999E+003 -9.999E+003 -9.999E+003 -9.999E+003 -9.999E+003 -9.999E+003 -9.999E+003 -9.999E+003 -9.999E+003 -9.999E+003 -9.999E+003 -9.999E+003 -9.999E+003 -9.999E+003 -9.999E+003 -9.999E+003 -9.999E+003 -9.999E+003 -9.999E+003 -9.999E+003 -9.999E+003 -9.999E+003 -9.999E+003 -9.999E+003 -9.999E+003 -9.999E+003 -9.999E+003 -9.999E+003 -9.999E+003 -9.999E+003 -9.999E+003 -9.999E+003 -9.999E+003 -9.999E+003 -9.999E+003 -9.999E+003 -9.999E+003 -9.999E+003 -9.999E+003 -9.999E+003 -9.999E+003 -9.999E+003 -9.999E+003 -9.999E+003 -9.999E+003 -9.999E+003 -9.999E+003 -9.999E+003 -9.999E+003 -9.999E+003 -9.999E+003 -9.999E+003 -9.999E+003 -9.999E+003 -9.999E+003 -9.999E+003 -9.999E+003 -9.999E+003 -9.999E+003 -9.999E+003 -9.999E+003 -9.999E+003 -9.999E+003 -9.999E+003 -9.999E+003 -9.999E+003 -9.999E+003 -9.999E+003 -9.999E+003 -9.999E+003 -9.999E+003 -9.999E+003 -9.999E+003 -9.999E+003 -9.999E+003 -9.999E+003 -9.999E+003 -9.999E+003 -9.999E+003 -9.999E+003 -9.999E+003 -9.999E+003 -9.999E+003 -9.999E+003 -9.999E+003 -9.999E+003 -9.999E+003 -9.999E+003 -9.999E+003 -9.999E+003 -9.999E+003 -9.999E+003 -9.999E+003 -9.999E+003 -9.999E+003 -9.999E+003 -9.999E+003 -9.999E+003 -9.999E+003 -9.999E+003 -9.999E+003 -9.999E+003 -9.999E+003 -9.999E+003 -9.999E+003 -9.999E+003 -9.999E+003 -9.999E+003 -9.999E+003 -9.999E+003 -9.999E+003 -9.999E+003 -9.999E+003 -9.999E+003 -9.999E+003 -9.999E+003 -9.999E+003 -9.999E+003 -9.999E+003 -9.999E+003 -9.999E+003 -9.999E+003 -9.999E+003 -9.999E+003 -9.999E+003 -9.999E+003 -9.999E+003 -9.999E+003 -9.999E+003 -9.999E+003 -9.999E+003 -9.999E+003
 -9.999E+003 -9.999E+003 -9.999E+003 -9.999E+003 -9.999E+003 -9.999E+003 -9.999E+003 -9.999E+003 -9.999E+003 -9.999E+003 -9.999E+003 -9.999E+003 -9.999E+003 -9.999E+003 -9.999E+003 -9.999E+003 -9.999E+003 -9.999E+003 -9.999E+003 -9.999E+003 -9.999E+003 -9.999E+003 -9.999E+003 -9.999E+003 -9.999E+003 -9.999E+003 -9.999E+003 -9.999E+003 -9.999E+003 -9.999E+003 -9.999E+003 -9.999E+003 -9.999E+003 -9.999E+003 -9.999E+003 -9.999E+003 -9.999E+003 -9.999E+003 -9.999E+003 -9.999E+003 -9.999E+003 -9.999E+003 -9.999E+003 -9.999E+003 -9.999E+003 -9.999E+003 -9.999E+003 -9.999E+003 -9.999E+003 -9.999E+003 -9.999E+003 -9.999E+003 -9.999E+003 -9.999E+003 -9.999E+003 -9.999E+003 -9.999E+003 -9.999E+003 -9.999E+003 -9.999E+003 -9.999E+003 -9.999E+003 -9.999E+003 -9.999E+003 -9.999E+003 -9.999E+003 -9.999E+003 -9.999E+003 -9.999E+003 -9.999E+003 -9.999E+003 -9.999E+003 -9.999E+003 -9.999E+003 -9.999E+003 -9.999E+003 -9.999E+003 -9.999E+003 -9.999E+003 -9.999E+003 -9.999E+003 -9.999E+003 -9.999E+003 -9.999E+003 -9.999E+003 -9.999E+003 -9.999E+003 -9.999E+003 -9.999E+003 -9.999E+003 -9.999E+003 -9.999E+003 -9.999E+003 -9.999E+003 -9.999E+003 -9.999E+003 -9.999E+003 -9.999E+003 -9.999E+003 -9.999E+003 -9.999E+003 -9.999E+003 -9.999E+003 -9.999E+003 -9.999E+003 -9.999E+003 -9.999E+003 -9.999E+003 -9.999E+003 -9.999E+003 -9.999E+003 -9.999E+003 -9.999E+003 -9.999E+003 -9.999E+003 -9.999E+003 -9.999E+003 -9.999E+003 -9.999E+003 -9.999E+003 -9.999E+003 -9.999E+003 -9.999E+003 -9.999E+003 -9.999E+003 -9.999E+003 -9.999E+003 -9.999E+003 -9.999E+003 -9.999E+003 -9.999E+003 -9.999E+003 -9.999E+003 -9.999E+003 -9.999E+003 -9.999E+003 -9.999E+003 -9.999E+003 -9.999E+003 -9.999E+003 -9.999E+003 -9.999E+003 -9.999E+003 -9.999E+003 -9.999E+003 -9.999E+003 -9.999E+003 -9.999E+003 -9.999E+003 -9.999E+003
 -9.999E+003 -9.999E+003 -9.999E+003 -9.999E+003 -9.999E+003 -9.999E+003 -9.999E+003 -9.999E+003 -9.999E+003 -9.999E+003 -9.999E+003 -9.999E+003 -9.999E+003 -9.999E+003 -9.999E+003 -9.999E+003 -9.999E+003 -9.999E+003 -9.999E+003 -9.999E+003 -9.999E+003 -9.999E+003 -9.999E+003 -9.999E+003 -9.999E+003 -9.999E+003 -9.999E+003 -9.999E+003 -9.999E+003 -9.999E+003 -9.999E+003 -9.999E+003 -9.999E+003 -9.999E+003 -9.999E+003 -9.999E+003 -9.999E+003 -9.999E+003 -9.999E+003 -9.999E+003 -9.999E+003 -9.999E+003 -9.999E+003 -9.999E+003 -9.999E+003 -9.999E+003 -9.999E+003 -9.999E+003 -9.999E+003 -9.999E+003 -9.999E+003 -9.999E+003 -9.999E+003 -9.999E+003 -9.999E+003 -9.999E+003 -9.999E+003 -9.999E+003 -9.999E+003 -9.999E+003 -9.999E+003 -9.999E+003 -9.999E+003 -9.999E+003 -9.999E+003 -9.999E+003 -9.999E+003 -9.999E+003 -9.999E+003 -9.999E+003 -9.999E+003 -9.999E+003 -9.999E+003 -9.999E+003 -9.999E+003 -9.999E+003 -9.999E+003 -9.999E+003 -9.999E+003 -9.999E+003 -9.999E+003 -9.999E+003 -9.999E+003 -9.999E+003 -9.999E+003 -9.999E+003 -9.999E+003 -9.999E+003 -9.999E+003 -9.999E+003 -9.999E+003 -9.999E+003 -9.999E+003 -9.999E+003 -9.999E+003 -9.999E+003 -9.999E+003 -9.999E+003 -9.999E+003 -9.999E+003 -9.999E+003 -9.999E+003 -9.999E+003 -9.999E+003 -9.999E+003 -9.999E+003 -9.999E+003 -9.999E+003 -9.999E+003 -9.999E+003 -9.999E+003 -9.999E+003 -9.999E+003 -9.999E+003 -9.999E+003 -9.999E+003 -9.999E+003 -9.999E+003 -9.999E+003 -9.999E+003 -9.999E+003 -9.999E+003 -9.999E+003 -9.999E+003 -9.999E+003 -9.999E+003 -9.999E+003 -9.999E+003 -9.999E+003 -9.999E+003 -9.999E+003 -9.999E+003 -9.999E+003 -9.999E+003 -9.999E+003 -9.999E+003 -9.999E+003 -9.999E+003 -9.999E+003 -9.999E+003 -9.999E+003 -9.999E+003 -9.999E+003 -9.999E+003 -9.999E+003 -9.999E+003 -9.999E+003 -9.999E+003 -9.999E+003 -9.999E+003
 -9.999E+003 -9.999E+003 -9.999E+003 -9.999E+003 -9.999E+003 -9.999E+003 -9.999E+003 -9.999E+003 -9.999E+003 -9.999E+003 -9.999E+003 -9.999E+003 -9.999E+003 -9.999E+003 -9.999E+003 -9.999E+003 -9.999E+003 -9.999E+003 -9.999E+003 -9.999E+003 -9.999E+003 -9.999E+003 -9.999E+003 -9.999E+003 -9.999E+003 -9.999E+003 -9.999E+003 -9.999E+003 -9.999E+003 -9.999E+003 -9.999E+003 -9.999E+003 -9.999E+003 -9.999E+003 -9.999E+003 -9.999E+003 -9.999E+003 -9.999E+003 -9.999E+003 -9.999E+003 -9.999E+003 -9.999E+003 -9.999E+003 -9.999E+003 -9.999E+003 -9.999E+003 -9.999E+003 -9.999E+003 -9.999E+003 -9.999E+003 -9.999E+003 -9.999E+003 -9.999E+003 -9.999E+003 -9.999E+003 -9.999E+003 -9.999E+003 -9.999E+003 -9.999E+003 -9.999E+003 -9.999E+003 -9.999E+003 -9.999E+003 -9.999E+003 -9.999E+003 -9.999E+003 -9.999E+003 -9.999E+003 -9.999E+003 -9.999E+003 -9.999E+003 -9.999E+003 -9.999E+003 -9.999E+003 -9.999E+003 -9.999E+003 -9.999E+003 -9.999E+003 -9.999E+003 -9.999E+003 -9.999E+003 -9.999E+003 -9.999E+003 -9.999E+003 -9.999E+003 -9.999E+003 -9.999E+003 -9.999E+003 -9.999E+003 -9.999E+003 -9.999E+003 -9.999E+003 -9.999E+003 -9.999E+003 -9.999E+003 -9.999E+003 -9.999E+003 -9.999E+003 -9.999E+003 -9.999E+003 -9.999E+003 -9.999E+003 -9.999E+003 -9.999E+003 -9.999E+003 -9.999E+003 -9.999E+003 -9.999E+003 -9.999E+003 -9.999E+003 -9.999E+003 -9.999E+003 -9.999E+003 -9.999E+003 -9.999E+003 -9.999E+003 -9.999E+003 -9.999E+003 -9.999E+003 -9.999E+003 -9.999E+003 -9.999E+003 -9.999E+003 -9.999E+003 -9.999E+003 -9.999E+003 -9.999E+003 -9.999E+003 -9.999E+003 -9.999E+003 -9.999E+003 -9.999E+003 -9.999E+003 -9.999E+003 -9.999E+003 -9.999E+003 -9.999E+003 -9.999E+003 -9.999E+003 -9.999E+003 -9.999E+003 -9.999E+003 -9.999E+003 -9.999E+003 -9.999E+003 -9.999E+003 -9.999E+003 -9.999E+003 -9.999E+003 -9.999E+003
 -9.999E+003 -9.999E+003 -9.999E+003 -9.999E+003 -9.999E+003 -9.999E+003 -9.999E+003 -9.999E+003 -9.999E+003 -9.999E+003 -9.999E+003 -9.999E+003 -9.999E+003 -9.999E+003 -9.999E+003 -9.999E+003 -9.999E+003 -9.999E+003 -9.999E+003 -9.999E+003 -9.999E+003 -9.999E+003 -9.999E+003 -9.999E+003 -9.999E+003 -9.999E+003 -9.999E+003 -9.999E+003 -9.999E+003 -9.999E+003 -9.999E+003 -9.999E+003 -9.999E+003 -9.999E+003 -9.999E+003 -9.999E+003 -9.999E+003 -9.999E+003 -9.999E+003 -9.999E+003 -9.999E+003 -9.999E+003 -9.999E+003 -9.999E+003 -9.999E+003 -9.999E+003 -9.999E+003 -9.999E+003 -9.999E+003 -9.999E+003 -9.999E+003 -9.999E+003 -9.999E+003 -9.999E+003 -9.999E+003 -9.999E+003 -9.999E+003 -9.999E+003 -9.999E+003 -9.999E+003 -9.999E+003 -9.999E+003 -9.999E+003 -9.999E+003 -9.999E+003 -9.999E+003 -9.999E+003 -9.999E+003 -9.999E+003 -9.999E+003 -9.999E+003 -9.999E+003 -9.999E+003 -9.999E+003 -9.999E+003 -9.999E+003 -9.999E+003 -9.999E+003 -9.999E+003 -9.999E+003 -9.999E+003 -9.999E+003 -9.999E+003 -9.999E+003 -9.999E+003 -9.999E+003 -9.999E+003 -9.999E+003 -9.999E+003 -9.999E+003 -9.999E+003 -9.999E+003 -9.999E+003 -9.999E+003 -9.999E+003 -9.999E+003 -9.999E+003 -9.999E+003 -9.999E+003 -9.999E+003 -9.999E+003 -9.999E+003 -9.999E+003 -9.999E+003 -9.999E+003 -9.999E+003 -9.999E+003 -9.999E+003 -9.999E+003 -9.999E+003 -9.999E+003 -9.999E+003 -9.999E+003 -9.999E+003 -9.999E+003 -9.999E+003 -9.999E+003 -9.999E+003 -9.999E+003 -9.999E+003 -9.999E+003 -9.999E+003 -9.999E+003 -9.999E+003 -9.999E+003 -9.999E+003 -9.999E+003 -9.999E+003 -9.999E+003 -9.999E+003 -9.999E+003 -9.999E+003 -9.999E+003 -9.999E+003 -9.999E+003 -9.999E+003 -9.999E+003 -9.999E+003 -9.999E+003 -9.999E+003 -9.999E+003 -9.999E+003 -9.999E+003 -9.999E+003 -9.999E+003 -9.999E+003 -9.999E+003 -9.999E+003 -9.999E+003 -9.999E+003
 -9.999E+003 -9.999E+003 -9.999E+003 -9.999E+003 -9.999E+003 -9.999E+003 -9.999E+003 -9.999E+003 -9.999E+003 -9.999E+003 -9.999E+003 -9.999E+003 -9.999E+003 -9.999E+003 -9.999E+003 -9.999E+003 -9.999E+003 -9.999E+003 -9.999E+003 -9.999E+003 -9.999E+003 -9.999E+003 -9.999E+003 -9.999E+003 -9.999E+003 -9.999E+003 -9.999E+003 -9.999E+003 -9.999E+003 -9.999E+003 -9.999E+003 -9.999E+003 -9.999E+003 -9.999E+003 -9.999E+003 -9.999E+003 -9.999E+003 -9.999E+003 -9.999E+003 -9.999E+003 -9.999E+003 -9.999E+003 -9.999E+003 -9.999E+003 -9.999E+003 -9.999E+003 -9.999E+003 -9.999E+003 -9.999E+003 -9.999E+003 -9.999E+003 -9.999E+003 -9.999E+003 -9.999E+003 -9.999E+003 -9.999E+003 -9.999E+003 -9.999E+003 -9.999E+003 -9.999E+003 -9.999E+003 -9.999E+003 -9.999E+003 -9.999E+003 -9.999E+003 -9.999E+003 -9.999E+003 -9.999E+003 -9.999E+003 -9.999E+003 -9.999E+003 -9.999E+003 -9.999E+003 -9.999E+003 -9.999E+003 -9.999E+003 -9.999E+003 -9.999E+003 -9.999E+003 -9.999E+003 -9.999E+003 -9.999E+003 -9.999E+003 -9.999E+003 -9.999E+003 -9.999E+003 -9.999E+003 -9.999E+003 -9.999E+003 -9.999E+003 -9.999E+003 -9.999E+003 -9.999E+003 -9.999E+003 -9.999E+003 -9.999E+003 -9.999E+003 -9.999E+003 -9.999E+003 -9.999E+003 -9.999E+003 -9.999E+003 -9.999E+003 -9.999E+003 -9.999E+003 -9.999E+003 -9.999E+003 -9.999E+003 -9.999E+003 -9.999E+003 -9.999E+003 -9.999E+003 -9.999E+003 -9.999E+003 -9.999E+003 -9.999E+003 -9.999E+003 -9.999E+003 -9.999E+003 -9.999E+003 -9.999E+003 -9.999E+003 -9.999E+003 -9.999E+003 -9.999E+003 -9.999E+003 -9.999E+003 -9.999E+003 -9.999E+003 -9.999E+003 -9.999E+003 -9.999E+003 -9.999E+003 -9.999E+003 -9.999E+003 -9.999E+003 -9.999E+003 -9.999E+003 -9.999E+003 -9.999E+003 -9.999E+003 -9.999E+003 -9.999E+003 -9.999E+003 -9.999E+003 -9.999E+003 -9.999E+003 -9.999E+003 -9.999E+003 -9.999E+003
 -9.999E+003 -9.999E+003 -9.999E+003 -9.999E+003 -9.999E+003 -9.999E+003 -9.999E+003 -9.999E+003 -9.999E+003 -9.999E+003 -9.999E+003 -9.999E+003 -9.999E+003 -9.999E+003 -9.999E+003 -9.999E+003 -9.999E+003 -9.999E+003 -9.999E+003 -9.999E+003 -9.999E+003 -9.999E+003 -9.999E+003 -9.999E+003 -9.999E+003 -9.999E+003 -9.999E+003 -9.999E+003 -9.999E+003 -9.999E+003 -9.999E+003 -9.999E+003 -9.999E+003 -9.999E+003 -9.999E+003 -9.999E+003 -9.999E+003 -9.999E+003 -9.999E+003 -9.999E+003 -9.999E+003 -9.999E+003 -9.999E+003 -9.999E+003 -9.999E+003 -9.999E+003 -9.999E+003 -9.999E+003 -9.999E+003 -9.999E+003 -9.999E+003 -9.999E+003 -9.999E+003 -9.999E+003 -9.999E+003 -9.999E+003 -9.999E+003 -9.999E+003 -9.999E+003 -9.999E+003 -9.999E+003 -9.999E+003 -9.999E+003 -9.999E+003 -9.999E+003 -9.999E+003 -9.999E+003 -9.999E+003 -9.999E+003 -9.999E+003 -9.999E+003 -9.999E+003 -9.999E+003 -9.999E+003 -9.999E+003 -9.999E+003 -9.999E+003 -9.999E+003 -9.999E+003 -9.999E+003 -9.999E+003 -9.999E+003 -9.999E+003 -9.999E+003 -9.999E+003 -9.999E+003 -9.999E+003 -9.999E+003 -9.999E+003 -9.999E+003 -9.999E+003 -9.999E+003 -9.999E+003 -9.999E+003 -9.999E+003 -9.999E+003 -9.999E+003 -9.999E+003 -9.999E+003 -9.999E+003 -9.999E+003 -9.999E+003 -9.999E+003 -9.999E+003 -9.999E+003 -9.999E+003 -9.999E+003 -9.999E+003 -9.999E+003 -9.999E+003 -9.999E+003 -9.999E+003 -9.999E+003 -9.999E+003 -9.999E+003 -9.999E+003 -9.999E+003 -9.999E+003 -9.999E+003 -9.999E+003 -9.999E+003 -9.999E+003 -9.999E+003 -9.999E+003 -9.999E+003 -9.999E+003 -9.999E+003 -9.999E+003 -9.999E+003 -9.999E+003 -9.999E+003 -9.999E+003 -9.999E+003 -9.999E+003 -9.999E+003 -9.999E+003 -9.999E+003 -9.999E+003 -9.999E+003 -9.999E+003 -9.999E+003 -9.999E+003 -9.999E+003 -9.999E+003 -9.999E+003 -9.999E+003 -9.999E+003 -9.999E+003 -9.999E+003 -9.999E+003
 -9.999E+003 -9.999E+003 -9.999E+003 -9.999E+003 -9.999E+003 -9.999E+003 -9.999E+003 -9.999E+003 -9.999E+003 -9.999E+003 -9.999E+003 -9.999E+003 -9.999E+003 -9.999E+003 -9.999E+003 -9.999E+003 -9.999E+003 -9.999E+003 -9.999E+003 -9.999E+003 -9.999E+003 -9.999E+003 -9.999E+003 -9.999E+003 -9.999E+003 -9.999E+003 -9.999E+003 -9.999E+003 -9.999E+003 -9.999E+003 -9.999E+003 -9.999E+003 -9.999E+003 -9.999E+003 -9.999E+003 -9.999E+003 -9.999E+003 -9.999E+003 -9.999E+003 -9.999E+003 -9.999E+003 -9.999E+003 -9.999E+003 -9.999E+003 -9.999E+003 -9.999E+003 -9.999E+003 -9.999E+003 -9.999E+003 -9.999E+003 -9.999E+003 -9.999E+003 -9.999E+003 -9.999E+003 -9.999E+003 -9.999E+003 -9.999E+003 -9.999E+003 -9.999E+003 -9.999E+003 -9.999E+003 -9.999E+003 -9.999E+003 -9.999E+003 -9.999E+003 -9.999E+003 -9.999E+003 -9.999E+003 -9.999E+003 -9.999E+003 -9.999E+003 -9.999E+003 -9.999E+003 -9.999E+003 -9.999E+003 -9.999E+003 -9.999E+003 -9.999E+003 -9.999E+003 -9.999E+003 -9.999E+003 -9.999E+003 -9.999E+003 -9.999E+003 -9.999E+003 -9.999E+003 -9.999E+003 -9.999E+003 -9.999E+003 -9.999E+003 -9.999E+003 -9.999E+003 -9.999E+003 -9.999E+003 -9.999E+003 -9.999E+003 -9.999E+003 -9.999E+003 -9.999E+003 -9.999E+003 -9.999E+003 -9.999E+003 -9.999E+003 -9.999E+003 -9.999E+003 -9.999E+003 -9.999E+003 -9.999E+003 -9.999E+003 -9.999E+003 -9.999E+003 -9.999E+003 -9.999E+003 -9.999E+003 -9.999E+003 -9.999E+003 -9.999E+003 -9.999E+003 -9.999E+003 -9.999E+003 -9.999E+003 -9.999E+003 -9.999E+003 -9.999E+003 -9.999E+003 -9.999E+003 -9.999E+003 -9.999E+003 -9.999E+003 -9.999E+003 -9.999E+003 -9.999E+003 -9.999E+003 -9.999E+003 -9.999E+003 -9.999E+003 -9.999E+003 -9.999E+003 -9.999E+003 -9.999E+003 -9.999E+003 -9.999E+003 -9.999E+003 -9.999E+003 -9.999E+003 -9.999E+003 -9.999E+003 -9.999E+003 -9.999E+003 -9.999E+003
 -9.999E+003 -9.999E+003 -9.999E+003 -9.999E+003 -9.999E+003 -9.999E+003 -9.999E+003 -9.999E+003 -9.999E+003 -9.999E+003 -9.999E+003 -9.999E+003 -9.999E+003 -9.999E+003 -9.999E+003 -9.999E+003 -9.999E+003 -9.999E+003 -9.999E+003 -9.999E+003 -9.999E+003 -9.999E+003 -9.999E+003 -9.999E+003 -9.999E+003 -9.999E+003 -9.999E+003 -9.999E+003 -9.999E+003 -9.999E+003 -9.999E+003 -9.999E+003 -9.999E+003 -9.999E+003 -9.999E+003 -9.999E+003 -9.999E+003 -9.999E+003 -9.999E+003 -9.999E+003 -9.999E+003 -9.999E+003 -9.999E+003 -9.999E+003 -9.999E+003 -9.999E+003 -9.999E+003 -9.999E+003 -9.999E+003 -9.999E+003 -9.999E+003 -9.999E+003 -9.999E+003 -9.999E+003 -9.999E+003 -9.999E+003 -9.999E+003 -9.999E+003 -9.999E+003 -9.999E+003 -9.999E+003 -9.999E+003 -9.999E+003 -9.999E+003 -9.999E+003 -9.999E+003 -9.999E+003 -9.999E+003 -9.999E+003 -9.999E+003 -9.999E+003 -9.999E+003 -9.999E+003 -9.999E+003 -9.999E+003 -9.999E+003 -9.999E+003 -9.999E+003 -9.999E+003 -9.999E+003 -9.999E+003 -9.999E+003 -9.999E+003 -9.999E+003 -9.999E+003 -9.999E+003 -9.999E+003 -9.999E+003 -9.999E+003 -9.999E+003 -9.999E+003 -9.999E+003 -9.999E+003 -9.999E+003 -9.999E+003 -9.999E+003 -9.999E+003 -9.999E+003 -9.999E+003 -9.999E+003 -9.999E+003 -9.999E+003 -9.999E+003 -9.999E+003 -9.999E+003 -9.999E+003 -9.999E+003 -9.999E+003 -9.999E+003 -9.999E+003 -9.999E+003 -9.999E+003 -9.999E+003 -9.999E+003 -9.999E+003 -9.999E+003 -9.999E+003 -9.999E+003 -9.999E+003 -9.999E+003 -9.999E+003 -9.999E+003 -9.999E+003 -9.999E+003 -9.999E+003 -9.999E+003 -9.999E+003 -9.999E+003 -9.999E+003 -9.999E+003 -9.999E+003 -9.999E+003 -9.999E+003 -9.999E+003 -9.999E+003 -9.999E+003 -9.999E+003 -9.999E+003 -9.999E+003 -9.999E+003 -9.999E+003 -9.999E+003 -9.999E+003 -9.999E+003 -9.999E+003 -9.999E+003 -9.999E+003 -9.999E+003 -9.999E+003 -9.999E+003
 -9.999E+003 -9.999E+003 -9.999E+003 -9.999E+003 -9.999E+003 -9.999E+003 -9.999E+003 -9.999E+003 -9.999E+003 -9.999E+003 -9.999E+003 -9.999E+003 -9.999E+003 -9.999E+003 -9.999E+003 -9.999E+003 -9.999E+003 -9.999E+003 -9.999E+003 -9.999E+003 -9.999E+003 -9.999E+003 -9.999E+003 -9.999E+003 -9.999E+003 -9.999E+003 -9.999E+003 -9.999E+003 -9.999E+003 -9.999E+003 -9.999E+003 -9.999E+003 -9.999E+003 -9.999E+003 -9.999E+003 -9.999E+003 -9.999E+003 -9.999E+003 -9.999E+003 -9.999E+003 -9.999E+003 -9.999E+003 -9.999E+003 -9.999E+003 -9.999E+003 -9.999E+003 -9.999E+003 -9.999E+003 -9.999E+003 -9.999E+003 -9.999E+003 -9.999E+003 -9.999E+003 -9.999E+003 -9.999E+003 -9.999E+003 -9.999E+003 -9.999E+003 -9.999E+003 -9.999E+003 -9.999E+003 -9.999E+003 -9.999E+003 -9.999E+003 -9.999E+003 -9.999E+003 -9.999E+003 -9.999E+003 -9.999E+003 -9.999E+003 -9.999E+003 -9.999E+003 -9.999E+003 -9.999E+003 -9.999E+003 -9.999E+003 -9.999E+003 -9.999E+003 -9.999E+003 -9.999E+003 -9.999E+003 -9.999E+003 -9.999E+003 -9.999E+003 -9.999E+003 -9.999E+003 -9.999E+003 -9.999E+003 -9.999E+003 -9.999E+003 -9.999E+003 -9.999E+003 -9.999E+003 -9.999E+003 -9.999E+003 -9.999E+003 -9.999E+003 -9.999E+003 -9.999E+003 -9.999E+003 -9.999E+003 -9.999E+003 -9.999E+003 -9.999E+003 -9.999E+003 -9.999E+003 -9.999E+003 -9.999E+003 -9.999E+003 -9.999E+003 -9.999E+003 -9.999E+003 -9.999E+003 -9.999E+003 -9.999E+003 -9.999E+003 -9.999E+003 -9.999E+003 -9.999E+003 -9.999E+003 -9.999E+003 -9.999E+003 -9.999E+003 -9.999E+003 -9.999E+003 -9.999E+003 -9.999E+003 -9.999E+003 -9.999E+003 -9.999E+003 -9.999E+003 -9.999E+003 -9.999E+003 -9.999E+003 -9.999E+003 -9.999E+003 -9.999E+003 -9.999E+003 -9.999E+003 -9.999E+003 -9.999E+003 -9.999E+003 -9.999E+003 -9.999E+003 -9.999E+003 -9.999E+003 -9.999E+003 -9.999E+003 -9.999E+003 -9.999E+003
 -9.999E+003 -9.999E+003 -9.999E+003 -9.999E+003 -9.999E+003 -9.999E+003 -9.999E+003 -9.999E+003 -9.999E+003 -9.999E+003 -9.999E+003 -9.999E+003 -9.999E+003 -9.999E+003 -9.999E+003 -9.999E+003 -9.999E+003 -9.999E+003 -9.999E+003 -9.999E+003 -9.999E+003 -9.999E+003 -9.999E+003 -9.999E+003 -9.999E+003 -9.999E+003 -9.999E+003 -9.999E+003 -9.999E+003 -9.999E+003 -9.999E+003 -9.999E+003 -9.999E+003 -9.999E+003 -9.999E+003 -9.999E+003 -9.999E+003 -9.999E+003 -9.999E+003 -9.999E+003 -9.999E+003 -9.999E+003 -9.999E+003 -9.999E+003 -9.999E+003 -9.999E+003 -9.999E+003 -9.999E+003 -9.999E+003 -9.999E+003 -9.999E+003 -9.999E+003 -9.999E+003 -9.999E+003 -9.999E+003 -9.999E+003 -9.999E+003 -9.999E+003 -9.999E+003 -9.999E+003 -9.999E+003 -9.999E+003 -9.999E+003 -9.999E+003 -9.999E+003 -9.999E+003 -9.999E+003 -9.999E+003 -9.999E+003 -9.999E+003 -9.999E+003 -9.999E+003 -9.999E+003 -9.999E+003 -9.999E+003 -9.999E+003 -9.999E+003 -9.999E+003 -9.999E+003 -9.999E+003 -9.999E+003 -9.999E+003 -9.999E+003 -9.999E+003 -9.999E+003 -9.999E+003 -9.999E+003 -9.999E+003 -9.999E+003 -9.999E+003 -9.999E+003 -9.999E+003 -9.999E+003 -9.999E+003 -9.999E+003 -9.999E+003 -9.999E+003 -9.999E+003 -9.999E+003 -9.999E+003 -9.999E+003 -9.999E+003 -9.999E+003 -9.999E+003 -9.999E+003 -9.999E+003 -9.999E+003 -9.999E+003 -9.999E+003 -9.999E+003 -9.999E+003 -9.999E+003 -9.999E+003 -9.999E+003 -9.999E+003 -9.999E+003 -9.999E+003 -9.999E+003 -9.999E+003 -9.999E+003 -9.999E+003 -9.999E+003 -9.999E+003 -9.999E+003 -9.999E+003 -9.999E+003 -9.999E+003 -9.999E+003 -9.999E+003 -9.999E+003 -9.999E+003 -9.999E+003 -9.999E+003 -9.999E+003 -9.999E+003 -9.999E+003 -9.999E+003 -9.999E+003 -9.999E+003 -9.999E+003 -9.999E+003 -9.999E+003 -9.999E+003 -9.999E+003 -9.999E+003 -9.999E+003 -9.999E+003 -9.999E+003 -9.999E+003 -9.999E+003
 -9.999E+003 -9.999E+003 -9.999E+003 -9.999E+003 -9.999E+003 -9.999E+003 -9.999E+003 -9.999E+003 -9.999E+003 -9.999E+003 -9.999E+003 -9.999E+003 -9.999E+003 -9.999E+003 -9.999E+003 -9.999E+003 -9.999E+003 -9.999E+003 -9.999E+003 -9.999E+003 -9.999E+003 -9.999E+003 -9.999E+003 -9.999E+003 -9.999E+003 -9.999E+003 -9.999E+003 -9.999E+003 -9.999E+003 -9.999E+003 -9.999E+003 -9.999E+003 -9.999E+003 -9.999E+003 -9.999E+003 -9.999E+003 -9.999E+003 -9.999E+003 -9.999E+003 -9.999E+003 -9.999E+003 -9.999E+003 -9.999E+003 -9.999E+003 -9.999E+003 -9.999E+003 -9.999E+003 -9.999E+003 -9.999E+003 -9.999E+003 -9.999E+003 -9.999E+003 -9.999E+003 -9.999E+003 -9.999E+003 -9.999E+003 -9.999E+003 -9.999E+003 -9.999E+003 -9.999E+003 -9.999E+003 -9.999E+003 -9.999E+003 -9.999E+003 -9.999E+003 -9.999E+003 -9.999E+003 -9.999E+003 -9.999E+003 -9.999E+003 -9.999E+003 -9.999E+003 -9.999E+003 -9.999E+003 -9.999E+003 -9.999E+003 -9.999E+003 -9.999E+003 -9.999E+003 -9.999E+003 -9.999E+003 -9.999E+003 -9.999E+003 -9.999E+003 -9.999E+003 -9.999E+003 -9.999E+003 -9.999E+003 -9.999E+003 -9.999E+003 -9.999E+003 -9.999E+003 -9.999E+003 -9.999E+003 -9.999E+003 -9.999E+003 -9.999E+003 -9.999E+003 -9.999E+003 -9.999E+003 -9.999E+003 -9.999E+003 -9.999E+003 -9.999E+003 -9.999E+003 -9.999E+003 -9.999E+003 -9.999E+003 -9.999E+003 -9.999E+003 -9.999E+003 -9.999E+003 -9.999E+003 -9.999E+003 -9.999E+003 -9.999E+003 -9.999E+003 -9.999E+003 -9.999E+003 -9.999E+003 -9.999E+003 -9.999E+003 -9.999E+003 -9.999E+003 -9.999E+003 -9.999E+003 -9.999E+003 -9.999E+003 -9.999E+003 -9.999E+003 -9.999E+003 -9.999E+003 -9.999E+003 -9.999E+003 -9.999E+003 -9.999E+003 -9.999E+003 -9.999E+003 -9.999E+003 -9.999E+003 -9.999E+003 -9.999E+003 -9.999E+003 -9.999E+003 -9.999E+003 -9.999E+003 -9.999E+003 -9.999E+003 -9.999E+003 -9.999E+003
 -9.999E+003 -9.999E+003 -9.999E+003 -9.999E+003 -9.999E+003 -9.999E+003 -9.999E+003 -9.999E+003 -9.999E+003 -9.999E+003 -9.999E+003 -9.999E+003 -9.999E+003 -9.999E+003 -9.999E+003 -9.999E+003 -9.999E+003 -9.999E+003 -9.999E+003 -9.999E+003 -9.999E+003 -9.999E+003 -9.999E+003 -9.999E+003 -9.999E+003 -9.999E+003 -9.999E+003 -9.999E+003 -9.999E+003 -9.999E+003 -9.999E+003 -9.999E+003 -9.999E+003 -9.999E+003 -9.999E+003 -9.999E+003 -9.999E+003 -9.999E+003 -9.999E+003 -9.999E+003 -9.999E+003 -9.999E+003 -9.999E+003 -9.999E+003 -9.999E+003 -9.999E+003 -9.999E+003 -9.999E+003 -9.999E+003 -9.999E+003 -9.999E+003 -9.999E+003 -9.999E+003 -9.999E+003 -9.999E+003 -9.999E+003 -9.999E+003 -9.999E+003 -9.999E+003 -9.999E+003 -9.999E+003 -9.999E+003 -9.999E+003 -9.999E+003 -9.999E+003 -9.999E+003 -9.999E+003 -9.999E+003 -9.999E+003 -9.999E+003 -9.999E+003 -9.999E+003 -9.999E+003 -9.999E+003 -9.999E+003 -9.999E+003 -9.999E+003 -9.999E+003 -9.999E+003 -9.999E+003 -9.999E+003 -9.999E+003 -9.999E+003 -9.999E+003 -9.999E+003 -9.999E+003 -9.999E+003 -9.999E+003 -9.999E+003 -9.999E+003 -9.999E+003 -9.999E+003 -9.999E+003 -9.999E+003 -9.999E+003 -9.999E+003 -9.999E+003 -9.999E+003 -9.999E+003 -9.999E+003 -9.999E+003 -9.999E+003 -9.999E+003 -9.999E+003 -9.999E+003 -9.999E+003 -9.999E+003 -9.999E+003 -9.999E+003 -9.999E+003 -9.999E+003 -9.999E+003 -9.999E+003 -9.999E+003 -9.999E+003 -9.999E+003 -9.999E+003 -9.999E+003 -9.999E+003 -9.999E+003 -9.999E+003 -9.999E+003 -9.999E+003 -9.999E+003 -9.999E+003 -9.999E+003 -9.999E+003 -9.999E+003 -9.999E+003 -9.999E+003 -9.999E+003 -9.999E+003 -9.999E+003 -9.999E+003 -9.999E+003 -9.999E+003 -9.999E+003 -9.999E+003 -9.999E+003 -9.999E+003 -9.999E+003 -9.999E+003 -9.999E+003 -9.999E+003 -9.999E+003 -9.999E+003 -9.999E+003 -9.999E+003 -9.999E+003 -9.999E+003
 -9.999E+003 -9.999E+003 -9.999E+003 -9.999E+003 -9.999E+003 -9.999E+003 -9.999E+003 -9.999E+003 -9.999E+003 -9.999E+003 -9.999E+003 -9.999E+003 -9.999E+003 -9.999E+003 -9.999E+003 -9.999E+003 -9.999E+003 -9.999E+003 -9.999E+003 -9.999E+003 -9.999E+003 -9.999E+003 -9.999E+003 -9.999E+003 -9.999E+003 -9.999E+003 -9.999E+003 -9.999E+003 -9.999E+003 -9.999E+003 -9.999E+003 -9.999E+003 -9.999E+003 -9.999E+003 -9.999E+003 -9.999E+003 -9.999E+003 -9.999E+003 -9.999E+003 -9.999E+003 -9.999E+003 -9.999E+003 -9.999E+003 -9.999E+003 -9.999E+003 -9.999E+003 -9.999E+003 -9.999E+003 -9.999E+003 -9.999E+003 -9.999E+003 -9.999E+003 -9.999E+003 -9.999E+003 -9.999E+003 -9.999E+003 -9.999E+003 -9.999E+003 -9.999E+003 -9.999E+003 -9.999E+003 -9.999E+003 -9.999E+003 -9.999E+003 -9.999E+003 -9.999E+003 -9.999E+003 -9.999E+003 -9.999E+003 -9.999E+003 -9.999E+003 -9.999E+003 -9.999E+003 -9.999E+003 -9.999E+003 -9.999E+003 -9.999E+003 -9.999E+003 -9.999E+003 -9.999E+003 -9.999E+003 -9.999E+003 -9.999E+003 -9.999E+003 -9.999E+003 -9.999E+003 -9.999E+003 -9.999E+003 -9.999E+003 -9.999E+003 -9.999E+003 -9.999E+003 -9.999E+003 -9.999E+003 -9.999E+003 -9.999E+003 -9.999E+003 -9.999E+003 -9.999E+003 -9.999E+003 -9.999E+003 -9.999E+003 -9.999E+003 -9.999E+003 -9.999E+003 -9.999E+003 -9.999E+003 -9.999E+003 -9.999E+003 -9.999E+003 -9.999E+003 -9.999E+003 -9.999E+003 -9.999E+003 -9.999E+003 -9.999E+003 -9.999E+003 -9.999E+003 -9.999E+003 -9.999E+003 -9.999E+003 -9.999E+003 -9.999E+003 -9.999E+003 -9.999E+003 -9.999E+003 -9.999E+003 -9.999E+003 -9.999E+003 -9.999E+003 -9.999E+003 -9.999E+003 -9.999E+003 -9.999E+003 -9.999E+003 -9.999E+003 -9.999E+003 -9.999E+003 -9.999E+003 -9.999E+003 -9.999E+003 -9.999E+003 -9.999E+003 -9.999E+003 -9.999E+003 -9.999E+003 -9.999E+003 -9.999E+003 -9.999E+003 -9.999E+003
 -9.999E+003 -9.999E+003 -9.999E+003 -9.999E+003 -9.999E+003 -9.999E+003 -9.999E+003 -9.999E+003 -9.999E+003 -9.999E+003 -9.999E+003 -9.999E+003 -9.999E+003 -9.999E+003 -9.999E+003 -9.999E+003 -9.999E+003 -9.999E+003 -9.999E+003 -9.999E+003 -9.999E+003 -9.999E+003 -9.999E+003 -9.999E+003 -9.999E+003 -9.999E+003 -9.999E+003 -9.999E+003 -9.999E+003 -9.999E+003 -9.999E+003 -9.999E+003 -9.999E+003 -9.999E+003 -9.999E+003 -9.999E+003 -9.999E+003 -9.999E+003 -9.999E+003 -9.999E+003 -9.999E+003 -9.999E+003 -9.999E+003 -9.999E+003 -9.999E+003 -9.999E+003 -9.999E+003 -9.999E+003 -9.999E+003 -9.999E+003 -9.999E+003 -9.999E+003 -9.999E+003 -9.999E+003 -9.999E+003 -9.999E+003 -9.999E+003 -9.999E+003 -9.999E+003 -9.999E+003 -9.999E+003 -9.999E+003 -9.999E+003 -9.999E+003 -9.999E+003 -9.999E+003 -9.999E+003 -9.999E+003 -9.999E+003 -9.999E+003 -9.999E+003 -9.999E+003 -9.999E+003 -9.999E+003 -9.999E+003 -9.999E+003 -9.999E+003 -9.999E+003 -9.999E+003 -9.999E+003 -9.999E+003 -9.999E+003 -9.999E+003 -9.999E+003 -9.999E+003 -9.999E+003 -9.999E+003 -9.999E+003 -9.999E+003 -9.999E+003 -9.999E+003 -9.999E+003 -9.999E+003 -9.999E+003 -9.999E+003 -9.999E+003 -9.999E+003 -9.999E+003 -9.999E+003 -9.999E+003 -9.999E+003 -9.999E+003 -9.999E+003 -9.999E+003 -9.999E+003 -9.999E+003 -9.999E+003 -9.999E+003 -9.999E+003 -9.999E+003 -9.999E+003 -9.999E+003 -9.999E+003 -9.999E+003 -9.999E+003 -9.999E+003 -9.999E+003 -9.999E+003 -9.999E+003 -9.999E+003 -9.999E+003 -9.999E+003 -9.999E+003 -9.999E+003 -9.999E+003 -9.999E+003 -9.999E+003 -9.999E+003 -9.999E+003 -9.999E+003 -9.999E+003 -9.999E+003 -9.999E+003 -9.999E+003 -9.999E+003 -9.999E+003 -9.999E+003 -9.999E+003 -9.999E+003 -9.999E+003 -9.999E+003 -9.999E+003 -9.999E+003 -9.999E+003 -9.999E+003 -9.999E+003 -9.999E+003 -9.999E+003 -9.999E+003 -9.999E+003
 -9.999E+003 -9.999E+003 -9.999E+003 -9.999E+003 -9.999E+003 -9.999E+003 -9.999E+003 -9.999E+003 -9.999E+003 -9.999E+003 -9.999E+003 -9.999E+003 -9.999E+003 -9.999E+003 -9.999E+003 -9.999E+003 -9.999E+003 -9.999E+003 -9.999E+003 -9.999E+003 -9.999E+003 -9.999E+003 -9.999E+003 -9.999E+003 -9.999E+003 -9.999E+003 -9.999E+003 -9.999E+003 -9.999E+003 -9.999E+003 -9.999E+003 -9.999E+003 -9.999E+003 -9.999E+003 -9.999E+003 -9.999E+003 -9.999E+003 -9.999E+003 -9.999E+003 -9.999E+003 -9.999E+003 -9.999E+003 -9.999E+003 -9.999E+003 -9.999E+003 -9.999E+003 -9.999E+003 -9.999E+003 -9.999E+003 -9.999E+003 -9.999E+003 -9.999E+003 -9.999E+003 -9.999E+003 -9.999E+003 -9.999E+003 -9.999E+003 -9.999E+003 -9.999E+003 -9.999E+003 -9.999E+003 -9.999E+003 -9.999E+003 -9.999E+003 -9.999E+003 -9.999E+003 -9.999E+003 -9.999E+003 -9.999E+003 -9.999E+003 -9.999E+003 -9.999E+003 -9.999E+003 -9.999E+003 -9.999E+003 -9.999E+003 -9.999E+003 -9.999E+003 -9.999E+003 -9.999E+003 -9.999E+003 -9.999E+003 -9.999E+003 -9.999E+003 -9.999E+003 -9.999E+003 -9.999E+003 -9.999E+003 -9.999E+003 -9.999E+003 -9.999E+003 -9.999E+003 -9.999E+003 -9.999E+003 -9.999E+003 -9.999E+003 -9.999E+003 -9.999E+003 -9.999E+003 -9.999E+003 -9.999E+003 -9.999E+003 -9.999E+003 -9.999E+003 -9.999E+003 -9.999E+003 -9.999E+003 -9.999E+003 -9.999E+003 -9.999E+003 -9.999E+003 -9.999E+003 -9.999E+003 -9.999E+003 -9.999E+003 -9.999E+003 -9.999E+003 -9.999E+003 -9.999E+003 -9.999E+003 -9.999E+003 -9.999E+003 -9.999E+003 -9.999E+003 -9.999E+003 -9.999E+003 -9.999E+003 -9.999E+003 -9.999E+003 -9.999E+003 -9.999E+003 -9.999E+003 -9.999E+003 -9.999E+003 -9.999E+003 -9.999E+003 -9.999E+003 -9.999E+003 -9.999E+003 -9.999E+003 -9.999E+003 -9.999E+003 -9.999E+003 -9.999E+003 -9.999E+003 -9.999E+003 -9.999E+003 -9.999E+003 -9.999E+003 -9.999E+003
 -9.999E+003 -9.999E+003 -9.999E+003 -9.999E+003 -9.999E+003 -9.999E+003 -9.999E+003 -9.999E+003 -9.999E+003 -9.999E+003 -9.999E+003 -9.999E+003 -9.999E+003 -9.999E+003 -9.999E+003 -9.999E+003 -9.999E+003 -9.999E+003 -9.999E+003 -9.999E+003 -9.999E+003 -9.999E+003 -9.999E+003 -9.999E+003 -9.999E+003 -9.999E+003 -9.999E+003 -9.999E+003 -9.999E+003 -9.999E+003 -9.999E+003 -9.999E+003 -9.999E+003 -9.999E+003 -9.999E+003 -9.999E+003 -9.999E+003 -9.999E+003 -9.999E+003 -9.999E+003 -9.999E+003 -9.999E+003 -9.999E+003 -9.999E+003 -9.999E+003 -9.999E+003 -9.999E+003 -9.999E+003 -9.999E+003 -9.999E+003 -9.999E+003 -9.999E+003 -9.999E+003 -9.999E+003 -9.999E+003 -9.999E+003 -9.999E+003 -9.999E+003 -9.999E+003 -9.999E+003 -9.999E+003 -9.999E+003 -9.999E+003 -9.999E+003 -9.999E+003 -9.999E+003 -9.999E+003 -9.999E+003 -9.999E+003 -9.999E+003 -9.999E+003 -9.999E+003 -9.999E+003 -9.999E+003 -9.999E+003 -9.999E+003 -9.999E+003 -9.999E+003 -9.999E+003 -9.999E+003 -9.999E+003 -9.999E+003 -9.999E+003 -9.999E+003 -9.999E+003 -9.999E+003 -9.999E+003 -9.999E+003 -9.999E+003 -9.999E+003 -9.999E+003 -9.999E+003 -9.999E+003 -9.999E+003 -9.999E+003 -9.999E+003 -9.999E+003 -9.999E+003 -9.999E+003 -9.999E+003 -9.999E+003 -9.999E+003 -9.999E+003 -9.999E+003 -9.999E+003 -9.999E+003 -9.999E+003 -9.999E+003 -9.999E+003 -9.999E+003 -9.999E+003 -9.999E+003 -9.999E+003 -9.999E+003 -9.999E+003 -9.999E+003 -9.999E+003 -9.999E+003 -9.999E+003 -9.999E+003 -9.999E+003 -9.999E+003 -9.999E+003 -9.999E+003 -9.999E+003 -9.999E+003 -9.999E+003 -9.999E+003 -9.999E+003 -9.999E+003 -9.999E+003 -9.999E+003 -9.999E+003 -9.999E+003 -9.999E+003 -9.999E+003 -9.999E+003 -9.999E+003 -9.999E+003 -9.999E+003 -9.999E+003 -9.999E+003 -9.999E+003 -9.999E+003 -9.999E+003 -9.999E+003 -9.999E+003 -9.999E+003 -9.999E+003 -9.999E+003
 -9.999E+003 -9.999E+003 -9.999E+003 -9.999E+003 -9.999E+003 -9.999E+003 -9.999E+003 -9.999E+003 -9.999E+003 -9.999E+003 -9.999E+003 -9.999E+003 -9.999E+003 -9.999E+003 -9.999E+003 -9.999E+003 -9.999E+003 -9.999E+003 -9.999E+003 -9.999E+003 -9.999E+003 -9.999E+003 -9.999E+003 -9.999E+003 -9.999E+003 -9.999E+003 -9.999E+003 -9.999E+003 -9.999E+003 -9.999E+003 -9.999E+003 -9.999E+003 -9.999E+003 -9.999E+003 -9.999E+003 -9.999E+003 -9.999E+003 -9.999E+003 -9.999E+003 -9.999E+003 -9.999E+003 -9.999E+003 -9.999E+003 -9.999E+003 -9.999E+003 -9.999E+003 -9.999E+003 -9.999E+003 -9.999E+003 -9.999E+003 -9.999E+003 -9.999E+003 -9.999E+003 -9.999E+003 -9.999E+003 -9.999E+003 -9.999E+003 -9.999E+003 -9.999E+003 -9.999E+003 -9.999E+003 -9.999E+003 -9.999E+003 -9.999E+003 -9.999E+003 -9.999E+003 -9.999E+003 -9.999E+003 -9.999E+003 -9.999E+003 -9.999E+003 -9.999E+003 -9.999E+003 -9.999E+003 -9.999E+003 -9.999E+003 -9.999E+003 -9.999E+003 -9.999E+003 -9.999E+003 -9.999E+003 -9.999E+003 -9.999E+003 -9.999E+003 -9.999E+003 -9.999E+003 -9.999E+003 -9.999E+003 -9.999E+003 -9.999E+003 -9.999E+003 -9.999E+003 -9.999E+003 -9.999E+003 -9.999E+003 -9.999E+003 -9.999E+003 -9.999E+003 -9.999E+003 -9.999E+003 -9.999E+003 -9.999E+003 -9.999E+003 -9.999E+003 -9.999E+003 -9.999E+003 -9.999E+003 -9.999E+003 -9.999E+003 -9.999E+003 -9.999E+003 -9.999E+003 -9.999E+003 -9.999E+003 -9.999E+003 -9.999E+003 -9.999E+003 -9.999E+003 -9.999E+003 -9.999E+003 -9.999E+003 -9.999E+003 -9.999E+003 -9.999E+003 -9.999E+003 -9.999E+003 -9.999E+003 -9.999E+003 -9.999E+003 -9.999E+003 -9.999E+003 -9.999E+003 -9.999E+003 -9.999E+003 -9.999E+003 -9.999E+003 -9.999E+003 -9.999E+003 -9.999E+003 -9.999E+003 -9.999E+003 -9.999E+003 -9.999E+003 -9.999E+003 -9.999E+003 -9.999E+003 -9.999E+003 -9.999E+003 -9.999E+003 -9.999E+003
 -9.999E+003 -9.999E+003 -9.999E+003 -9.999E+003 -9.999E+003 -9.999E+003 -9.999E+003 -9.999E+003 -9.999E+003 -9.999E+003 -9.999E+003 -9.999E+003 -9.999E+003 -9.999E+003 -9.999E+003 -9.999E+003 -9.999E+003 -9.999E+003 -9.999E+003 -9.999E+003 -9.999E+003 -9.999E+003 -9.999E+003 -9.999E+003 -9.999E+003 -9.999E+003 -9.999E+003 -9.999E+003 -9.999E+003 -9.999E+003 -9.999E+003 -9.999E+003 -9.999E+003 -9.999E+003 -9.999E+003 -9.999E+003 -9.999E+003 -9.999E+003 -9.999E+003 -9.999E+003 -9.999E+003 -9.999E+003 -9.999E+003 -9.999E+003 -9.999E+003 -9.999E+003 -9.999E+003 -9.999E+003 -9.999E+003 -9.999E+003 -9.999E+003 -9.999E+003 -9.999E+003 -9.999E+003 -9.999E+003 -9.999E+003 -9.999E+003 -9.999E+003 -9.999E+003 -9.999E+003 -9.999E+003 -9.999E+003 -9.999E+003 -9.999E+003 -9.999E+003 -9.999E+003 -9.999E+003 -9.999E+003 -9.999E+003 -9.999E+003 -9.999E+003 -9.999E+003 -9.999E+003 -9.999E+003 -9.999E+003 -9.999E+003 -9.999E+003 -9.999E+003 -9.999E+003 -9.999E+003 -9.999E+003 -9.999E+003 -9.999E+003 -9.999E+003 -9.999E+003 -9.999E+003 -9.999E+003 -9.999E+003 -9.999E+003 -9.999E+003 -9.999E+003 -9.999E+003 -9.999E+003 -9.999E+003 -9.999E+003 -9.999E+003 -9.999E+003 -9.999E+003 -9.999E+003 -9.999E+003 -9.999E+003 -9.999E+003 -9.999E+003 -9.999E+003 -9.999E+003 -9.999E+003 -9.999E+003 -9.999E+003 -9.999E+003 -9.999E+003 -9.999E+003 -9.999E+003 -9.999E+003 -9.999E+003 -9.999E+003 -9.999E+003 -9.999E+003 -9.999E+003 -9.999E+003 -9.999E+003 -9.999E+003 -9.999E+003 -9.999E+003 -9.999E+003 -9.999E+003 -9.999E+003 -9.999E+003 -9.999E+003 -9.999E+003 -9.999E+003 -9.999E+003 -9.999E+003 -9.999E+003 -9.999E+003 -9.999E+003 -9.999E+003 -9.999E+003 -9.999E+003 -9.999E+003 -9.999E+003 -9.999E+003 -9.999E+003 -9.999E+003 -9.999E+003 -9.999E+003 -9.999E+003 -9.999E+003 -9.999E+003 -9.999E+003 -9.999E+003
 -9.999E+003 -9.999E+003 -9.999E+003 -9.999E+003 -9.999E+003 -9.999E+003 -9.999E+003 -9.999E+003 -9.999E+003 -9.999E+003 -9.999E+003 -9.999E+003 -9.999E+003 -9.999E+003 -9.999E+003 -9.999E+003 -9.999E+003 -9.999E+003 -9.999E+003 -9.999E+003 -9.999E+003 -9.999E+003 -9.999E+003 -9.999E+003 -9.999E+003 -9.999E+003 -9.999E+003 -9.999E+003 -9.999E+003 -9.999E+003 -9.999E+003 -9.999E+003 -9.999E+003 -9.999E+003 -9.999E+003 -9.999E+003 -9.999E+003 -9.999E+003 -9.999E+003 -9.999E+003 -9.999E+003 -9.999E+003 -9.999E+003 -9.999E+003 -9.999E+003 -9.999E+003 -9.999E+003 -9.999E+003 -9.999E+003 -9.999E+003 -9.999E+003 -9.999E+003 -9.999E+003 -9.999E+003 -9.999E+003 -9.999E+003 -9.999E+003 -9.999E+003 -9.999E+003 -9.999E+003 -9.999E+003 -9.999E+003 -9.999E+003 -9.999E+003 -9.999E+003 -9.999E+003 -9.999E+003 -9.999E+003 -9.999E+003 -9.999E+003 -9.999E+003 -9.999E+003 -9.999E+003 -9.999E+003 -9.999E+003 -9.999E+003 -9.999E+003 -9.999E+003 -9.999E+003 -9.999E+003 -9.999E+003 -9.999E+003 -9.999E+003 -9.999E+003 -9.999E+003 -9.999E+003 -9.999E+003 -9.999E+003 -9.999E+003 -9.999E+003 -9.999E+003 -9.999E+003 -9.999E+003 -9.999E+003 -9.999E+003 -9.999E+003 -9.999E+003 -9.999E+003 -9.999E+003 -9.999E+003 -9.999E+003 -9.999E+003 -9.999E+003 -9.999E+003 -9.999E+003 -9.999E+003 -9.999E+003 -9.999E+003 -9.999E+003 -9.999E+003 -9.999E+003 -9.999E+003 -9.999E+003 -9.999E+003 -9.999E+003 -9.999E+003 -9.999E+003 -9.999E+003 -9.999E+003 -9.999E+003 -9.999E+003 -9.999E+003 -9.999E+003 -9.999E+003 -9.999E+003 -9.999E+003 -9.999E+003 -9.999E+003 -9.999E+003 -9.999E+003 -9.999E+003 -9.999E+003 -9.999E+003 -9.999E+003 -9.999E+003 -9.999E+003 -9.999E+003 -9.999E+003 -9.999E+003 -9.999E+003 -9.999E+003 -9.999E+003 -9.999E+003 -9.999E+003 -9.999E+003 -9.999E+003 -9.999E+003 -9.999E+003 -9.999E+003 -9.999E+003
 -9.999E+003 -9.999E+003 -9.999E+003 -9.999E+003 -9.999E+003 -9.999E+003 -9.999E+003 -9.999E+003 -9.999E+003 -9.999E+003 -9.999E+003 -9.999E+003 -9.999E+003 -9.999E+003 -9.999E+003 -9.999E+003 -9.999E+003 -9.999E+003 -9.999E+003 -9.999E+003 -9.999E+003 -9.999E+003 -9.999E+003 -9.999E+003 -9.999E+003 -9.999E+003 -9.999E+003 -9.999E+003 -9.999E+003 -9.999E+003 -9.999E+003 -9.999E+003 -9.999E+003 -9.999E+003 -9.999E+003 -9.999E+003 -9.999E+003 -9.999E+003 -9.999E+003 -9.999E+003 -9.999E+003 -9.999E+003 -9.999E+003 -9.999E+003 -9.999E+003 -9.999E+003 -9.999E+003 -9.999E+003 -9.999E+003 -9.999E+003 -9.999E+003 -9.999E+003 -9.999E+003 -9.999E+003 -9.999E+003 -9.999E+003 -9.999E+003 -9.999E+003 -9.999E+003 -9.999E+003 -9.999E+003 -9.999E+003 -9.999E+003 -9.999E+003 -9.999E+003 -9.999E+003 -9.999E+003 -9.999E+003 -9.999E+003 -9.999E+003 -9.999E+003 -9.999E+003 -9.999E+003 -9.999E+003 -9.999E+003 -9.999E+003 -9.999E+003 -9.999E+003 -9.999E+003 -9.999E+003 -9.999E+003 -9.999E+003 -9.999E+003 -9.999E+003 -9.999E+003 -9.999E+003 -9.999E+003 -9.999E+003 -9.999E+003 -9.999E+003 -9.999E+003 -9.999E+003 -9.999E+003 -9.999E+003 -9.999E+003 -9.999E+003 -9.999E+003 -9.999E+003 -9.999E+003 -9.999E+003 -9.999E+003 -9.999E+003 -9.999E+003 -9.999E+003 -9.999E+003 -9.999E+003 -9.999E+003 -9.999E+003 -9.999E+003 -9.999E+003 -9.999E+003 -9.999E+003 -9.999E+003 -9.999E+003 -9.999E+003 -9.999E+003 -9.999E+003 -9.999E+003 -9.999E+003 -9.999E+003 -9.999E+003 -9.999E+003 -9.999E+003 -9.999E+003 -9.999E+003 -9.999E+003 -9.999E+003 -9.999E+003 -9.999E+003 -9.999E+003 -9.999E+003 -9.999E+003 -9.999E+003 -9.999E+003 -9.999E+003 -9.999E+003 -9.999E+003 -9.999E+003 -9.999E+003 -9.999E+003 -9.999E+003 -9.999E+003 -9.999E+003 -9.999E+003 -9.999E+003 -9.999E+003 -9.999E+003 -9.999E+003 -9.999E+003 -9.999E+003
 -9.999E+003 -9.999E+003 -9.999E+003 -9.999E+003 -9.999E+003 -9.999E+003 -9.999E+003 -9.999E+003 -9.999E+003 -9.999E+003 -9.999E+003 -9.999E+003 -9.999E+003 -9.999E+003 -9.999E+003 -9.999E+003 -9.999E+003 -9.999E+003 -9.999E+003 -9.999E+003 -9.999E+003 -9.999E+003 -9.999E+003 -9.999E+003 -9.999E+003 -9.999E+003 -9.999E+003 -9.999E+003 -9.999E+003 -9.999E+003 -9.999E+003 -9.999E+003 -9.999E+003 -9.999E+003 -9.999E+003 -9.999E+003 -9.999E+003 -9.999E+003 -9.999E+003 -9.999E+003 -9.999E+003 -9.999E+003 -9.999E+003 -9.999E+003 -9.999E+003 -9.999E+003 -9.999E+003 -9.999E+003 -9.999E+003 -9.999E+003 -9.999E+003 -9.999E+003 -9.999E+003 -9.999E+003 -9.999E+003 -9.999E+003 -9.999E+003 -9.999E+003 -9.999E+003 -9.999E+003 -9.999E+003 -9.999E+003 -9.999E+003 -9.999E+003 -9.999E+003 -9.999E+003 -9.999E+003 -9.999E+003 -9.999E+003 -9.999E+003 -9.999E+003 -9.999E+003 -9.999E+003 -9.999E+003 -9.999E+003 -9.999E+003 -9.999E+003 -9.999E+003 -9.999E+003 -9.999E+003 -9.999E+003 -9.999E+003 -9.999E+003 -9.999E+003 -9.999E+003 -9.999E+003 -9.999E+003 -9.999E+003 -9.999E+003 -9.999E+003 -9.999E+003 -9.999E+003 -9.999E+003 -9.999E+003 -9.999E+003 -9.999E+003 -9.999E+003 -9.999E+003 -9.999E+003 -9.999E+003 -9.999E+003 -9.999E+003 -9.999E+003 -9.999E+003 -9.999E+003 -9.999E+003 -9.999E+003 -9.999E+003 -9.999E+003 -9.999E+003 -9.999E+003 -9.999E+003 -9.999E+003 -9.999E+003 -9.999E+003 -9.999E+003 -9.999E+003 -9.999E+003 -9.999E+003 -9.999E+003 -9.999E+003 -9.999E+003 -9.999E+003 -9.999E+003 -9.999E+003 -9.999E+003 -9.999E+003 -9.999E+003 -9.999E+003 -9.999E+003 -9.999E+003 -9.999E+003 -9.999E+003 -9.999E+003 -9.999E+003 -9.999E+003 -9.999E+003 -9.999E+003 -9.999E+003 -9.999E+003 -9.999E+003 -9.999E+003 -9.999E+003 -9.999E+003 -9.999E+003 -9.999E+003 -9.999E+003 -9.999E+003 -9.999E+003 -9.999E+003
 -9.999E+003 -9.999E+003 -9.999E+003 -9.999E+003 -9.999E+003 -9.999E+003 -9.999E+003 -9.999E+003 -9.999E+003 -9.999E+003 -9.999E+003 -9.999E+003 -9.999E+003 -9.999E+003 -9.999E+003 -9.999E+003 -9.999E+003 -9.999E+003 -9.999E+003 -9.999E+003 -9.999E+003 -9.999E+003 -9.999E+003 -9.999E+003 -9.999E+003 -9.999E+003 -9.999E+003 -9.999E+003 -9.999E+003 -9.999E+003 -9.999E+003 -9.999E+003 -9.999E+003 -9.999E+003 -9.999E+003 -9.999E+003 -9.999E+003 -9.999E+003 -9.999E+003 -9.999E+003 -9.999E+003 -9.999E+003 -9.999E+003 -9.999E+003 -9.999E+003 -9.999E+003 -9.999E+003 -9.999E+003 -9.999E+003 -9.999E+003 -9.999E+003 -9.999E+003 -9.999E+003 -9.999E+003 -9.999E+003 -9.999E+003 -9.999E+003 -9.999E+003 -9.999E+003 -9.999E+003 -9.999E+003 -9.999E+003 -9.999E+003 -9.999E+003 -9.999E+003 -9.999E+003 -9.999E+003 -9.999E+003 -9.999E+003 -9.999E+003 -9.999E+003 -9.999E+003 -9.999E+003 -9.999E+003 -9.999E+003 -9.999E+003 -9.999E+003 -9.999E+003 -9.999E+003 -9.999E+003 -9.999E+003 -9.999E+003 -9.999E+003 -9.999E+003 -9.999E+003 -9.999E+003 -9.999E+003 -9.999E+003 -9.999E+003 -9.999E+003 -9.999E+003 -9.999E+003 -9.999E+003 -9.999E+003 -9.999E+003 -9.999E+003 -9.999E+003 -9.999E+003 -9.999E+003 -9.999E+003 -9.999E+003 -9.999E+003 -9.999E+003 -9.999E+003 -9.999E+003 -9.999E+003 -9.999E+003 -9.999E+003 -9.999E+003 -9.999E+003 -9.999E+003 -9.999E+003 -9.999E+003 -9.999E+003 -9.999E+003 -9.999E+003 -9.999E+003 -9.999E+003 -9.999E+003 -9.999E+003 -9.999E+003 -9.999E+003 -9.999E+003 -9.999E+003 -9.999E+003 -9.999E+003 -9.999E+003 -9.999E+003 -9.999E+003 -9.999E+003 -9.999E+003 -9.999E+003 -9.999E+003 -9.999E+003 -9.999E+003 -9.999E+003 -9.999E+003 -9.999E+003 -9.999E+003 -9.999E+003 -9.999E+003 -9.999E+003 -9.999E+003 -9.999E+003 -9.999E+003 -9.999E+003 -9.999E+003 -9.999E+003 -9.999E+003 -9.999E+003
 -9.999E+003 -9.999E+003 -9.999E+003 -9.999E+003 -9.999E+003 -9.999E+003 -9.999E+003 -9.999E+003 -9.999E+003 -9.999E+003 -9.999E+003 -9.999E+003 -9.999E+003 -9.999E+003 -9.999E+003 -9.999E+003 -9.999E+003 -9.999E+003 -9.999E+003 -9.999E+003 -9.999E+003 -9.999E+003 -9.999E+003 -9.999E+003 -9.999E+003 -9.999E+003 -9.999E+003 -9.999E+003 -9.999E+003 -9.999E+003 -9.999E+003 -9.999E+003 -9.999E+003 -9.999E+003 -9.999E+003 -9.999E+003 -9.999E+003 -9.999E+003 -9.999E+003 -9.999E+003 -9.999E+003 -9.999E+003 -9.999E+003 -9.999E+003 -9.999E+003 -9.999E+003 -9.999E+003 -9.999E+003 -9.999E+003 -9.999E+003 -9.999E+003 -9.999E+003 -9.999E+003 -9.999E+003 -9.999E+003 -9.999E+003 -9.999E+003 -9.999E+003 -9.999E+003 -9.999E+003 -9.999E+003 -9.999E+003 -9.999E+003 -9.999E+003 -9.999E+003 -9.999E+003 -9.999E+003 -9.999E+003 -9.999E+003 -9.999E+003 -9.999E+003 -9.999E+003 -9.999E+003 -9.999E+003 -9.999E+003 -9.999E+003 -9.999E+003 -9.999E+003 -9.999E+003 -9.999E+003 -9.999E+003 -9.999E+003 -9.999E+003 -9.999E+003 -9.999E+003 -9.999E+003 -9.999E+003 -9.999E+003 -9.999E+003 -9.999E+003 -9.999E+003 -9.999E+003 -9.999E+003 -9.999E+003 -9.999E+003 -9.999E+003 -9.999E+003 -9.999E+003 -9.999E+003 -9.999E+003 -9.999E+003 -9.999E+003 -9.999E+003 -9.999E+003 -9.999E+003 -9.999E+003 -9.999E+003 -9.999E+003 -9.999E+003 -9.999E+003 -9.999E+003 -9.999E+003 -9.999E+003 -9.999E+003 -9.999E+003 -9.999E+003 -9.999E+003 -9.999E+003 -9.999E+003 -9.999E+003 -9.999E+003 -9.999E+003 -9.999E+003 -9.999E+003 -9.999E+003 -9.999E+003 -9.999E+003 -9.999E+003 -9.999E+003 -9.999E+003 -9.999E+003 -9.999E+003 -9.999E+003 -9.999E+003 -9.999E+003 -9.999E+003 -9.999E+003 -9.999E+003 -9.999E+003 -9.999E+003 -9.999E+003 -9.999E+003 -9.999E+003 -9.999E+003 -9.999E+003 -9.999E+003 -9.999E+003 -9.999E+003 -9.999E+003 -9.999E+003
 -9.999E+003 -9.999E+003 -9.999E+003 -9.999E+003 -9.999E+003 -9.999E+003 -9.999E+003 -9.999E+003 -9.999E+003 -9.999E+003 -9.999E+003 -9.999E+003 -9.999E+003 -9.999E+003 -9.999E+003 -9.999E+003 -9.999E+003 -9.999E+003 -9.999E+003 -9.999E+003 -9.999E+003 -9.999E+003 -9.999E+003 -9.999E+003 -9.999E+003 -9.999E+003 -9.999E+003 -9.999E+003 -9.999E+003 -9.999E+003 -9.999E+003 -9.999E+003 -9.999E+003 -9.999E+003 -9.999E+003 -9.999E+003 -9.999E+003 -9.999E+003 -9.999E+003 -9.999E+003 -9.999E+003 -9.999E+003 -9.999E+003 -9.999E+003 -9.999E+003 -9.999E+003 -9.999E+003 -9.999E+003 -9.999E+003 -9.999E+003 -9.999E+003 -9.999E+003 -9.999E+003 -9.999E+003 -9.999E+003 -9.999E+003 -9.999E+003 -9.999E+003 -9.999E+003 -9.999E+003 -9.999E+003 -9.999E+003 -9.999E+003 -9.999E+003 -9.999E+003 -9.999E+003 -9.999E+003 -9.999E+003 -9.999E+003 -9.999E+003 -9.999E+003 -9.999E+003 -9.999E+003 -9.999E+003 -9.999E+003 -9.999E+003 -9.999E+003 -9.999E+003 -9.999E+003 -9.999E+003 -9.999E+003 -9.999E+003 -9.999E+003 -9.999E+003 -9.999E+003 -9.999E+003 -9.999E+003 -9.999E+003 -9.999E+003 -9.999E+003 -9.999E+003 -9.999E+003 -9.999E+003 -9.999E+003 -9.999E+003 -9.999E+003 -9.999E+003 -9.999E+003 -9.999E+003 -9.999E+003 -9.999E+003 -9.999E+003 -9.999E+003 -9.999E+003 -9.999E+003 -9.999E+003 -9.999E+003 -9.999E+003 -9.999E+003 -9.999E+003 -9.999E+003 -9.999E+003 -9.999E+003 -9.999E+003 -9.999E+003 -9.999E+003 -9.999E+003 -9.999E+003 -9.999E+003 -9.999E+003 -9.999E+003 -9.999E+003 -9.999E+003 -9.999E+003 -9.999E+003 -9.999E+003 -9.999E+003 -9.999E+003 -9.999E+003 -9.999E+003 -9.999E+003 -9.999E+003 -9.999E+003 -9.999E+003 -9.999E+003 -9.999E+003 -9.999E+003 -9.999E+003 -9.999E+003 -9.999E+003 -9.999E+003 -9.999E+003 -9.999E+003 -9.999E+003 -9.999E+003 -9.999E+003 -9.999E+003 -9.999E+003 -9.999E+003 -9.999E+003
 -9.999E+003 -9.999E+003 -9.999E+003 -9.999E+003 -9.999E+003 -9.999E+003 -9.999E+003 -9.999E+003 -9.999E+003 -9.999E+003 -9.999E+003 -9.999E+003 -9.999E+003 -9.999E+003 -9.999E+003 -9.999E+003 -9.999E+003 -9.999E+003 -9.999E+003 -9.999E+003 -9.999E+003 -9.999E+003 -9.999E+003 -9.999E+003 -9.999E+003 -9.999E+003 -9.999E+003 -9.999E+003 -9.999E+003 -9.999E+003 -9.999E+003 -9.999E+003 -9.999E+003 -9.999E+003 -9.999E+003 -9.999E+003 -9.999E+003 -9.999E+003 -9.999E+003 -9.999E+003 -9.999E+003 -9.999E+003 -9.999E+003 -9.999E+003 -9.999E+003 -9.999E+003 -9.999E+003 -9.999E+003 -9.999E+003 -9.999E+003 -9.999E+003 -9.999E+003 -9.999E+003 -9.999E+003 -9.999E+003 -9.999E+003 -9.999E+003 -9.999E+003 -9.999E+003 -9.999E+003 -9.999E+003 -9.999E+003 -9.999E+003 -9.999E+003 -9.999E+003 -9.999E+003 -9.999E+003 -9.999E+003 -9.999E+003 -9.999E+003 -9.999E+003 -9.999E+003 -9.999E+003 -9.999E+003 -9.999E+003 -9.999E+003 -9.999E+003 -9.999E+003 -9.999E+003 -9.999E+003 -9.999E+003 -9.999E+003 -9.999E+003 -9.999E+003 -9.999E+003 -9.999E+003 -9.999E+003 -9.999E+003 -9.999E+003 -9.999E+003 -9.999E+003 -9.999E+003 -9.999E+003 -9.999E+003 -9.999E+003 -9.999E+003 -9.999E+003 -9.999E+003 -9.999E+003 -9.999E+003 -9.999E+003 -9.999E+003 -9.999E+003 -9.999E+003 -9.999E+003 -9.999E+003 -9.999E+003 -9.999E+003 -9.999E+003 -9.999E+003 -9.999E+003 -9.999E+003 -9.999E+003 -9.999E+003 -9.999E+003 -9.999E+003 -9.999E+003 -9.999E+003 -9.999E+003 -9.999E+003 -9.999E+003 -9.999E+003 -9.999E+003 -9.999E+003 -9.999E+003 -9.999E+003 -9.999E+003 -9.999E+003 -9.999E+003 -9.999E+003 -9.999E+003 -9.999E+003 -9.999E+003 -9.999E+003 -9.999E+003 -9.999E+003 -9.999E+003 -9.999E+003 -9.999E+003 -9.999E+003 -9.999E+003 -9.999E+003 -9.999E+003 -9.999E+003 -9.999E+003 -9.999E+003 -9.999E+003 -9.999E+003 -9.999E+003 -9.999E+003
 -9.999E+003 -9.999E+003 -9.999E+003 -9.999E+003 -9.999E+003 -9.999E+003 -9.999E+003 -9.999E+003 -9.999E+003 -9.999E+003 -9.999E+003 -9.999E+003 -9.999E+003 -9.999E+003 -9.999E+003 -9.999E+003 -9.999E+003 -9.999E+003 -9.999E+003 -9.999E+003 -9.999E+003 -9.999E+003 -9.999E+003 -9.999E+003 -9.999E+003 -9.999E+003 -9.999E+003 -9.999E+003 -9.999E+003 -9.999E+003 -9.999E+003 -9.999E+003 -9.999E+003 -9.999E+003 -9.999E+003 -9.999E+003 -9.999E+003 -9.999E+003 -9.999E+003 -9.999E+003 -9.999E+003 -9.999E+003 -9.999E+003 -9.999E+003 -9.999E+003 -9.999E+003 -9.999E+003 -9.999E+003 -9.999E+003 -9.999E+003 -9.999E+003 -9.999E+003 -9.999E+003 -9.999E+003 -9.999E+003 -9.999E+003 -9.999E+003 -9.999E+003 -9.999E+003 -9.999E+003 -9.999E+003 -9.999E+003 -9.999E+003 -9.999E+003 -9.999E+003 -9.999E+003 -9.999E+003 -9.999E+003 -9.999E+003 -9.999E+003 -9.999E+003 -9.999E+003 -9.999E+003 -9.999E+003 -9.999E+003 -9.999E+003 -9.999E+003 -9.999E+003 -9.999E+003 -9.999E+003 -9.999E+003 -9.999E+003 -9.999E+003 -9.999E+003 -9.999E+003 -9.999E+003 -9.999E+003 -9.999E+003 -9.999E+003 -9.999E+003 -9.999E+003 -9.999E+003 -9.999E+003 -9.999E+003 -9.999E+003 -9.999E+003 -9.999E+003 -9.999E+003 -9.999E+003 -9.999E+003 -9.999E+003 -9.999E+003 -9.999E+003 -9.999E+003 -9.999E+003 -9.999E+003 -9.999E+003 -9.999E+003 -9.999E+003 -9.999E+003 -9.999E+003 -9.999E+003 -9.999E+003 -9.999E+003 -9.999E+003 -9.999E+003 -9.999E+003 -9.999E+003 -9.999E+003 -9.999E+003 -9.999E+003 -9.999E+003 -9.999E+003 -9.999E+003 -9.999E+003 -9.999E+003 -9.999E+003 -9.999E+003 -9.999E+003 -9.999E+003 -9.999E+003 -9.999E+003 -9.999E+003 -9.999E+003 -9.999E+003 -9.999E+003 -9.999E+003 -9.999E+003 -9.999E+003 -9.999E+003 -9.999E+003 -9.999E+003 -9.999E+003 -9.999E+003 -9.999E+003 -9.999E+003 -9.999E+003 -9.999E+003 -9.999E+003 -9.999E+003
 -9.999E+003 -9.999E+003 -9.999E+003 -9.999E+003 -9.999E+003 -9.999E+003 -9.999E+003 -9.999E+003 -9.999E+003 -9.999E+003 -9.999E+003 -9.999E+003 -9.999E+003 -9.999E+003 -9.999E+003 -9.999E+003 -9.999E+003 -9.999E+003 -9.999E+003 -9.999E+003 -9.999E+003 -9.999E+003 -9.999E+003 -9.999E+003 -9.999E+003 -9.999E+003 -9.999E+003 -9.999E+003 -9.999E+003 -9.999E+003 -9.999E+003 -9.999E+003 -9.999E+003 -9.999E+003 -9.999E+003 -9.999E+003 -9.999E+003 -9.999E+003 -9.999E+003 -9.999E+003 -9.999E+003 -9.999E+003 -9.999E+003 -9.999E+003 -9.999E+003 -9.999E+003 -9.999E+003 -9.999E+003 -9.999E+003 -9.999E+003 -9.999E+003 -9.999E+003 -9.999E+003 -9.999E+003 -9.999E+003 -9.999E+003 -9.999E+003 -9.999E+003 -9.999E+003 -9.999E+003 -9.999E+003 -9.999E+003 -9.999E+003 -9.999E+003 -9.999E+003 -9.999E+003 -9.999E+003 -9.999E+003 -9.999E+003 -9.999E+003 -9.999E+003 -9.999E+003 -9.999E+003 -9.999E+003 -9.999E+003 -9.999E+003 -9.999E+003 -9.999E+003 -9.999E+003 -9.999E+003 -9.999E+003 -9.999E+003 -9.999E+003 -9.999E+003 -9.999E+003 -9.999E+003 -9.999E+003 -9.999E+003 -9.999E+003 -9.999E+003 -9.999E+003 -9.999E+003 -9.999E+003 -9.999E+003 -9.999E+003 -9.999E+003 -9.999E+003 -9.999E+003 -9.999E+003 -9.999E+003 -9.999E+003 -9.999E+003 -9.999E+003 -9.999E+003 -9.999E+003 -9.999E+003 -9.999E+003 -9.999E+003 -9.999E+003 -9.999E+003 -9.999E+003 -9.999E+003 -9.999E+003 -9.999E+003 -9.999E+003 -9.999E+003 -9.999E+003 -9.999E+003 -9.999E+003 -9.999E+003 -9.999E+003 -9.999E+003 -9.999E+003 -9.999E+003 -9.999E+003 -9.999E+003 -9.999E+003 -9.999E+003 -9.999E+003 -9.999E+003 -9.999E+003 -9.999E+003 -9.999E+003 -9.999E+003 -9.999E+003 -9.999E+003 -9.999E+003 -9.999E+003 -9.999E+003 -9.999E+003 -9.999E+003 -9.999E+003 -9.999E+003 -9.999E+003 -9.999E+003 -9.999E+003 -9.999E+003 -9.999E+003 -9.999E+003 -9.999E+003
 -9.999E+003 -9.999E+003 -9.999E+003 -9.999E+003 -9.999E+003 -9.999E+003 -9.999E+003 -9.999E+003 -9.999E+003 -9.999E+003 -9.999E+003 -9.999E+003 -9.999E+003 -9.999E+003 -9.999E+003 -9.999E+003 -9.999E+003 -9.999E+003 -9.999E+003 -9.999E+003 -9.999E+003 -9.999E+003 -9.999E+003 -9.999E+003 -9.999E+003 -9.999E+003 -9.999E+003 -9.999E+003 -9.999E+003 -9.999E+003 -9.999E+003 -9.999E+003 -9.999E+003 -9.999E+003 -9.999E+003 -9.999E+003 -9.999E+003 -9.999E+003 -9.999E+003 -9.999E+003 -9.999E+003 -9.999E+003 -9.999E+003 -9.999E+003 -9.999E+003 -9.999E+003 -9.999E+003 -9.999E+003 -9.999E+003 -9.999E+003 -9.999E+003 -9.999E+003 -9.999E+003 -9.999E+003 -9.999E+003 -9.999E+003 -9.999E+003 -9.999E+003 -9.999E+003 -9.999E+003 -9.999E+003 -9.999E+003 -9.999E+003 -9.999E+003 -9.999E+003 -9.999E+003 -9.999E+003 -9.999E+003 -9.999E+003 -9.999E+003 -9.999E+003 -9.999E+003 -9.999E+003 -9.999E+003 -9.999E+003 -9.999E+003 -9.999E+003 -9.999E+003 -9.999E+003 -9.999E+003 -9.999E+003 -9.999E+003 -9.999E+003 -9.999E+003 -9.999E+003 -9.999E+003 -9.999E+003 -9.999E+003 -9.999E+003 -9.999E+003 -9.999E+003 -9.999E+003 -9.999E+003 -9.999E+003 -9.999E+003 -9.999E+003 -9.999E+003 -9.999E+003 -9.999E+003 -9.999E+003 -9.999E+003 -9.999E+003 -9.999E+003 -9.999E+003 -9.999E+003 -9.999E+003 -9.999E+003 -9.999E+003 -9.999E+003 -9.999E+003 -9.999E+003 -9.999E+003 -9.999E+003 -9.999E+003 -9.999E+003 -9.999E+003 -9.999E+003 -9.999E+003 -9.999E+003 -9.999E+003 -9.999E+003 -9.999E+003 -9.999E+003 -9.999E+003 -9.999E+003 -9.999E+003 -9.999E+003 -9.999E+003 -9.999E+003 -9.999E+003 -9.999E+003 -9.999E+003 -9.999E+003 -9.999E+003 -9.999E+003 -9.999E+003 -9.999E+003 -9.999E+003 -9.999E+003 -9.999E+003 -9.999E+003 -9.999E+003 -9.999E+003 -9.999E+003 -9.999E+003 -9.999E+003 -9.999E+003 -9.999E+003 -9.999E+003 -9.999E+003
 -9.999E+003 -9.999E+003 -9.999E+003 -9.999E+003 -9.999E+003 -9.999E+003 -9.999E+003 -9.999E+003 -9.999E+003 -9.999E+003 -9.999E+003 -9.999E+003 -9.999E+003 -9.999E+003 -9.999E+003 -9.999E+003 -9.999E+003 -9.999E+003 -9.999E+003 -9.999E+003 -9.999E+003 -9.999E+003 -9.999E+003 -9.999E+003 -9.999E+003 -9.999E+003 -9.999E+003 -9.999E+003 -9.999E+003 -9.999E+003 -9.999E+003 -9.999E+003 -9.999E+003 -9.999E+003 -9.999E+003 -9.999E+003 -9.999E+003 -9.999E+003 -9.999E+003 -9.999E+003 -9.999E+003 -9.999E+003 -9.999E+003 -9.999E+003 -9.999E+003 -9.999E+003 -9.999E+003 -9.999E+003 -9.999E+003 -9.999E+003 -9.999E+003 -9.999E+003 -9.999E+003 -9.999E+003 -9.999E+003 -9.999E+003 -9.999E+003 -9.999E+003 -9.999E+003 -9.999E+003 -9.999E+003 -9.999E+003 -9.999E+003 -9.999E+003 -9.999E+003 -9.999E+003 -9.999E+003 -9.999E+003 -9.999E+003 -9.999E+003 -9.999E+003 -9.999E+003 -9.999E+003 -9.999E+003 -9.999E+003 -9.999E+003 -9.999E+003 -9.999E+003 -9.999E+003 -9.999E+003 -9.999E+003 -9.999E+003 -9.999E+003 -9.999E+003 -9.999E+003 -9.999E+003 -9.999E+003 -9.999E+003 -9.999E+003 -9.999E+003 -9.999E+003 -9.999E+003 -9.999E+003 -9.999E+003 -9.999E+003 -9.999E+003 -9.999E+003 -9.999E+003 -9.999E+003 -9.999E+003 -9.999E+003 -9.999E+003 -9.999E+003 -9.999E+003 -9.999E+003 -9.999E+003 -9.999E+003 -9.999E+003 -9.999E+003 -9.999E+003 -9.999E+003 -9.999E+003 -9.999E+003 -9.999E+003 -9.999E+003 -9.999E+003 -9.999E+003 -9.999E+003 -9.999E+003 -9.999E+003 -9.999E+003 -9.999E+003 -9.999E+003 -9.999E+003 -9.999E+003 -9.999E+003 -9.999E+003 -9.999E+003 -9.999E+003 -9.999E+003 -9.999E+003 -9.999E+003 -9.999E+003 -9.999E+003 -9.999E+003 -9.999E+003 -9.999E+003 -9.999E+003 -9.999E+003 -9.999E+003 -9.999E+003 -9.999E+003 -9.999E+003 -9.999E+003 -9.999E+003 -9.999E+003 -9.999E+003 -9.999E+003 -9.999E+003 -9.999E+003
 -9.999E+003 -9.999E+003 -9.999E+003 -9.999E+003 -9.999E+003 -9.999E+003 -9.999E+003 -9.999E+003 -9.999E+003 -9.999E+003 -9.999E+003 -9.999E+003 -9.999E+003 -9.999E+003 -9.999E+003 -9.999E+003 -9.999E+003 -9.999E+003 -9.999E+003 -9.999E+003 -9.999E+003 -9.999E+003 -9.999E+003 -9.999E+003 -9.999E+003 -9.999E+003 -9.999E+003 -9.999E+003 -9.999E+003 -9.999E+003 -9.999E+003 -9.999E+003 -9.999E+003 -9.999E+003 -9.999E+003 -9.999E+003 -9.999E+003 -9.999E+003 -9.999E+003 -9.999E+003 -9.999E+003 -9.999E+003 -9.999E+003 -9.999E+003 -9.999E+003 -9.999E+003 -9.999E+003 -9.999E+003 -9.999E+003 -9.999E+003 -9.999E+003 -9.999E+003 -9.999E+003 -9.999E+003 -9.999E+003 -9.999E+003 -9.999E+003 -9.999E+003 -9.999E+003 -9.999E+003 -9.999E+003 -9.999E+003 -9.999E+003 -9.999E+003 -9.999E+003 -9.999E+003 -9.999E+003 -9.999E+003 -9.999E+003 -9.999E+003 -9.999E+003 -9.999E+003 -9.999E+003 -9.999E+003 -9.999E+003 -9.999E+003 -9.999E+003 -9.999E+003 -9.999E+003 -9.999E+003 -9.999E+003 -9.999E+003 -9.999E+003 -9.999E+003 -9.999E+003 -9.999E+003 -9.999E+003 -9.999E+003 -9.999E+003 -9.999E+003 -9.999E+003 -9.999E+003 -9.999E+003 -9.999E+003 -9.999E+003 -9.999E+003 -9.999E+003 -9.999E+003 -9.999E+003 -9.999E+003 -9.999E+003 -9.999E+003 -9.999E+003 -9.999E+003 -9.999E+003 -9.999E+003 -9.999E+003 -9.999E+003 -9.999E+003 -9.999E+003 -9.999E+003 -9.999E+003 -9.999E+003 -9.999E+003 -9.999E+003 -9.999E+003 -9.999E+003 -9.999E+003 -9.999E+003 -9.999E+003 -9.999E+003 -9.999E+003 -9.999E+003 -9.999E+003 -9.999E+003 -9.999E+003 -9.999E+003 -9.999E+003 -9.999E+003 -9.999E+003 -9.999E+003 -9.999E+003 -9.999E+003 -9.999E+003 -9.999E+003 -9.999E+003 -9.999E+003 -9.999E+003 -9.999E+003 -9.999E+003 -9.999E+003 -9.999E+003 -9.999E+003 -9.999E+003 -9.999E+003 -9.999E+003 -9.999E+003 -9.999E+003 -9.999E+003 -9.999E+003
 -9.999E+003 -9.999E+003 -9.999E+003 -9.999E+003 -9.999E+003 -9.999E+003 -9.999E+003 -9.999E+003 -9.999E+003 -9.999E+003 -9.999E+003 -9.999E+003 -9.999E+003 -9.999E+003 -9.999E+003 -9.999E+003 -9.999E+003 -9.999E+003 -9.999E+003 -9.999E+003 -9.999E+003 -9.999E+003 -9.999E+003 -9.999E+003 -9.999E+003 -9.999E+003 -9.999E+003 -9.999E+003 -9.999E+003 -9.999E+003 -9.999E+003 -9.999E+003 -9.999E+003 -9.999E+003 -9.999E+003 -9.999E+003 -9.999E+003 -9.999E+003 -9.999E+003 -9.999E+003 -9.999E+003 -9.999E+003 -9.999E+003 -9.999E+003 -9.999E+003 -9.999E+003 -9.999E+003 -9.999E+003 -9.999E+003 -9.999E+003 -9.999E+003 -9.999E+003 -9.999E+003 -9.999E+003 -9.999E+003 -9.999E+003 -9.999E+003 -9.999E+003 -9.999E+003 -9.999E+003 -9.999E+003 -9.999E+003 -9.999E+003 -9.999E+003 -9.999E+003 -9.999E+003 -9.999E+003 -9.999E+003 -9.999E+003 -9.999E+003 -9.999E+003 -9.999E+003 -9.999E+003 -9.999E+003 -9.999E+003 -9.999E+003 -9.999E+003 -9.999E+003 -9.999E+003 -9.999E+003 -9.999E+003 -9.999E+003 -9.999E+003 -9.999E+003 -9.999E+003 -9.999E+003 -9.999E+003 -9.999E+003 -9.999E+003 -9.999E+003 -9.999E+003 -9.999E+003 -9.999E+003 -9.999E+003 -9.999E+003 -9.999E+003 -9.999E+003 -9.999E+003 -9.999E+003 -9.999E+003 -9.999E+003 -9.999E+003 -9.999E+003 -9.999E+003 -9.999E+003 -9.999E+003 -9.999E+003 -9.999E+003 -9.999E+003 -9.999E+003 -9.999E+003 -9.999E+003 -9.999E+003 -9.999E+003 -9.999E+003 -9.999E+003 -9.999E+003 -9.999E+003 -9.999E+003 -9.999E+003 -9.999E+003 -9.999E+003 -9.999E+003 -9.999E+003 -9.999E+003 -9.999E+003 -9.999E+003 -9.999E+003 -9.999E+003 -9.999E+003 -9.999E+003 -9.999E+003 -9.999E+003 -9.999E+003 -9.999E+003 -9.999E+003 -9.999E+003 -9.999E+003 -9.999E+003 -9.999E+003 -9.999E+003 -9.999E+003 -9.999E+003 -9.999E+003 -9.999E+003 -9.999E+003 -9.999E+003 -9.999E+003 -9.999E+003 -9.999E+003
 -9.999E+003 -9.999E+003 -9.999E+003 -9.999E+003 -9.999E+003 -9.999E+003 -9.999E+003 -9.999E+003 -9.999E+003 -9.999E+003 -9.999E+003 -9.999E+003 -9.999E+003 -9.999E+003 -9.999E+003 -9.999E+003 -9.999E+003 -9.999E+003 -9.999E+003 -9.999E+003 -9.999E+003 -9.999E+003 -9.999E+003 -9.999E+003 -9.999E+003 -9.999E+003 -9.999E+003 -9.999E+003 -9.999E+003 -9.999E+003 -9.999E+003 -9.999E+003 -9.999E+003 -9.999E+003 -9.999E+003 -9.999E+003 -9.999E+003 -9.999E+003 -9.999E+003 -9.999E+003 -9.999E+003 -9.999E+003 -9.999E+003 -9.999E+003 -9.999E+003 -9.999E+003 -9.999E+003 -9.999E+003 -9.999E+003 -9.999E+003 -9.999E+003 -9.999E+003 -9.999E+003 -9.999E+003 -9.999E+003 -9.999E+003 -9.999E+003 -9.999E+003 -9.999E+003 -9.999E+003 -9.999E+003 -9.999E+003 -9.999E+003 -9.999E+003 -9.999E+003 -9.999E+003 -9.999E+003 -9.999E+003 -9.999E+003 -9.999E+003 -9.999E+003 -9.999E+003 -9.999E+003 -9.999E+003 -9.999E+003 -9.999E+003 -9.999E+003 -9.999E+003 -9.999E+003 -9.999E+003 -9.999E+003 -9.999E+003 -9.999E+003 -9.999E+003 -9.999E+003 -9.999E+003 -9.999E+003 -9.999E+003 -9.999E+003 -9.999E+003 -9.999E+003 -9.999E+003 -9.999E+003 -9.999E+003 -9.999E+003 -9.999E+003 -9.999E+003 -9.999E+003 -9.999E+003 -9.999E+003 -9.999E+003 -9.999E+003 -9.999E+003 -9.999E+003 -9.999E+003 -9.999E+003 -9.999E+003 -9.999E+003 -9.999E+003 -9.999E+003 -9.999E+003 -9.999E+003 -9.999E+003 -9.999E+003 -9.999E+003 -9.999E+003 -9.999E+003 -9.999E+003 -9.999E+003 -9.999E+003 -9.999E+003 -9.999E+003 -9.999E+003 -9.999E+003 -9.999E+003 -9.999E+003 -9.999E+003 -9.999E+003 -9.999E+003 -9.999E+003 -9.999E+003 -9.999E+003 -9.999E+003 -9.999E+003 -9.999E+003 -9.999E+003 -9.999E+003 -9.999E+003 -9.999E+003 -9.999E+003 -9.999E+003 -9.999E+003 -9.999E+003 -9.999E+003 -9.999E+003 -9.999E+003 -9.999E+003 -9.999E+003 -9.999E+003 -9.999E+003
 -9.999E+003 -9.999E+003 -9.999E+003 -9.999E+003 -9.999E+003 -9.999E+003 -9.999E+003 -9.999E+003 -9.999E+003 -9.999E+003 -9.999E+003 -9.999E+003 -9.999E+003 -9.999E+003 -9.999E+003 -9.999E+003 -9.999E+003 -9.999E+003 -9.999E+003 -9.999E+003 -9.999E+003 -9.999E+003 -9.999E+003 -9.999E+003 -9.999E+003 -9.999E+003 -9.999E+003 -9.999E+003 -9.999E+003 -9.999E+003 -9.999E+003 -9.999E+003 -9.999E+003 -9.999E+003 -9.999E+003 -9.999E+003 -9.999E+003 -9.999E+003 -9.999E+003 -9.999E+003 -9.999E+003 -9.999E+003 -9.999E+003 -9.999E+003 -9.999E+003 -9.999E+003 -9.999E+003 -9.999E+003 -9.999E+003 -9.999E+003 -9.999E+003 -9.999E+003 -9.999E+003 -9.999E+003 -9.999E+003 -9.999E+003 -9.999E+003 -9.999E+003 -9.999E+003 -9.999E+003 -9.999E+003 -9.999E+003 -9.999E+003 -9.999E+003 -9.999E+003 -9.999E+003 -9.999E+003 -9.999E+003 -9.999E+003 -9.999E+003 -9.999E+003 -9.999E+003 -9.999E+003 -9.999E+003 -9.999E+003 -9.999E+003 -9.999E+003 -9.999E+003 -9.999E+003 -9.999E+003 -9.999E+003 -9.999E+003 -9.999E+003 -9.999E+003 -9.999E+003 -9.999E+003 -9.999E+003 -9.999E+003 -9.999E+003 -9.999E+003 -9.999E+003 -9.999E+003 -9.999E+003 -9.999E+003 -9.999E+003 -9.999E+003 -9.999E+003 -9.999E+003 -9.999E+003 -9.999E+003 -9.999E+003 -9.999E+003 -9.999E+003 -9.999E+003 -9.999E+003 -9.999E+003 -9.999E+003 -9.999E+003 -9.999E+003 -9.999E+003 -9.999E+003 -9.999E+003 -9.999E+003 -9.999E+003 -9.999E+003 -9.999E+003 -9.999E+003 -9.999E+003 -9.999E+003 -9.999E+003 -9.999E+003 -9.999E+003 -9.999E+003 -9.999E+003 -9.999E+003 -9.999E+003 -9.999E+003 -9.999E+003 -9.999E+003 -9.999E+003 -9.999E+003 -9.999E+003 -9.999E+003 -9.999E+003 -9.999E+003 -9.999E+003 -9.999E+003 -9.999E+003 -9.999E+003 -9.999E+003 -9.999E+003 -9.999E+003 -9.999E+003 -9.999E+003 -9.999E+003 -9.999E+003 -9.999E+003 -9.999E+003 -9.999E+003 -9.999E+003
 -9.999E+003 -9.999E+003 -9.999E+003 -9.999E+003 -9.999E+003 -9.999E+003 -9.999E+003 -9.999E+003 -9.999E+003 -9.999E+003 -9.999E+003 -9.999E+003 -9.999E+003 -9.999E+003 -9.999E+003 -9.999E+003 -9.999E+003 -9.999E+003 -9.999E+003 -9.999E+003 -9.999E+003 -9.999E+003 -9.999E+003 -9.999E+003 -9.999E+003 -9.999E+003 -9.999E+003 -9.999E+003 -9.999E+003 -9.999E+003 -9.999E+003 -9.999E+003 -9.999E+003 -9.999E+003 -9.999E+003 -9.999E+003 -9.999E+003 -9.999E+003 -9.999E+003 -9.999E+003 -9.999E+003 -9.999E+003 -9.999E+003 -9.999E+003 -9.999E+003 -9.999E+003 -9.999E+003 -9.999E+003 -9.999E+003 -9.999E+003 -9.999E+003 -9.999E+003 -9.999E+003 -9.999E+003 -9.999E+003 -9.999E+003 -9.999E+003 -9.999E+003 -9.999E+003 -9.999E+003 -9.999E+003 -9.999E+003 -9.999E+003 -9.999E+003 -9.999E+003 -9.999E+003 -9.999E+003 -9.999E+003 -9.999E+003 -9.999E+003 -9.999E+003 -9.999E+003 -9.999E+003 -9.999E+003 -9.999E+003 -9.999E+003 -9.999E+003 -9.999E+003 -9.999E+003 -9.999E+003 -9.999E+003 -9.999E+003 -9.999E+003 -9.999E+003 -9.999E+003 -9.999E+003 -9.999E+003 -9.999E+003 -9.999E+003 -9.999E+003 -9.999E+003 -9.999E+003 -9.999E+003 -9.999E+003 -9.999E+003 -9.999E+003 -9.999E+003 -9.999E+003 -9.999E+003 -9.999E+003 -9.999E+003 -9.999E+003 -9.999E+003 -9.999E+003 -9.999E+003 -9.999E+003 -9.999E+003 -9.999E+003 -9.999E+003 -9.999E+003 -9.999E+003 -9.999E+003 -9.999E+003 -9.999E+003 -9.999E+003 -9.999E+003 -9.999E+003 -9.999E+003 -9.999E+003 -9.999E+003 -9.999E+003 -9.999E+003 -9.999E+003 -9.999E+003 -9.999E+003 -9.999E+003 -9.999E+003 -9.999E+003 -9.999E+003 -9.999E+003 -9.999E+003 -9.999E+003 -9.999E+003 -9.999E+003 -9.999E+003 -9.999E+003 -9.999E+003 -9.999E+003 -9.999E+003 -9.999E+003 -9.999E+003 -9.999E+003 -9.999E+003 -9.999E+003 -9.999E+003 -9.999E+003 -9.999E+003 -9.999E+003 -9.999E+003 -9.999E+003
 -9.999E+003 -9.999E+003 -9.999E+003 -9.999E+003 -9.999E+003 -9.999E+003 -9.999E+003 -9.999E+003 -9.999E+003 -9.999E+003 -9.999E+003 -9.999E+003 -9.999E+003 -9.999E+003 -9.999E+003 -9.999E+003 -9.999E+003 -9.999E+003 -9.999E+003 -9.999E+003 -9.999E+003 -9.999E+003 -9.999E+003 -9.999E+003 -9.999E+003 -9.999E+003 -9.999E+003 -9.999E+003 -9.999E+003 -9.999E+003 -9.999E+003 -9.999E+003 -9.999E+003 -9.999E+003 -9.999E+003 -9.999E+003 -9.999E+003 -9.999E+003 -9.999E+003 -9.999E+003 -9.999E+003 -9.999E+003 -9.999E+003 -9.999E+003 -9.999E+003 -9.999E+003 -9.999E+003 -9.999E+003 -9.999E+003 -9.999E+003 -9.999E+003 -9.999E+003 -9.999E+003 -9.999E+003 -9.999E+003 -9.999E+003 -9.999E+003 -9.999E+003 -9.999E+003 -9.999E+003 -9.999E+003 -9.999E+003 -9.999E+003 -9.999E+003 -9.999E+003 -9.999E+003 -9.999E+003 -9.999E+003 -9.999E+003 -9.999E+003 -9.999E+003 -9.999E+003 -9.999E+003 -9.999E+003 -9.999E+003 -9.999E+003 -9.999E+003 -9.999E+003 -9.999E+003 -9.999E+003 -9.999E+003 -9.999E+003 -9.999E+003 -9.999E+003 -9.999E+003 -9.999E+003 -9.999E+003 -9.999E+003 -9.999E+003 -9.999E+003 -9.999E+003 -9.999E+003 -9.999E+003 -9.999E+003 -9.999E+003 -9.999E+003 -9.999E+003 -9.999E+003 -9.999E+003 -9.999E+003 -9.999E+003 -9.999E+003 -9.999E+003 -9.999E+003 -9.999E+003 -9.999E+003 -9.999E+003 -9.999E+003 -9.999E+003 -9.999E+003 -9.999E+003 -9.999E+003 -9.999E+003 -9.999E+003 -9.999E+003 -9.999E+003 -9.999E+003 -9.999E+003 -9.999E+003 -9.999E+003 -9.999E+003 -9.999E+003 -9.999E+003 -9.999E+003 -9.999E+003 -9.999E+003 -9.999E+003 -9.999E+003 -9.999E+003 -9.999E+003 -9.999E+003 -9.999E+003 -9.999E+003 -9.999E+003 -9.999E+003 -9.999E+003 -9.999E+003 -9.999E+003 -9.999E+003 -9.999E+003 -9.999E+003 -9.999E+003 -9.999E+003 -9.999E+003 -9.999E+003 -9.999E+003 -9.999E+003 -9.999E+003 -9.999E+003 -9.999E+003
 -9.999E+003 -9.999E+003 -9.999E+003 -9.999E+003 -9.999E+003 -9.999E+003 -9.999E+003 -9.999E+003 -9.999E+003 -9.999E+003 -9.999E+003 -9.999E+003 -9.999E+003 -9.999E+003 -9.999E+003 -9.999E+003 -9.999E+003 -9.999E+003 -9.999E+003 -9.999E+003 -9.999E+003 -9.999E+003 -9.999E+003 -9.999E+003 -9.999E+003 -9.999E+003 -9.999E+003 -9.999E+003 -9.999E+003 -9.999E+003 -9.999E+003 -9.999E+003 -9.999E+003 -9.999E+003 -9.999E+003 -9.999E+003 -9.999E+003 -9.999E+003 -9.999E+003 -9.999E+003 -9.999E+003 -9.999E+003 -9.999E+003 -9.999E+003 -9.999E+003 -9.999E+003 -9.999E+003 -9.999E+003 -9.999E+003 -9.999E+003 -9.999E+003 -9.999E+003 -9.999E+003 -9.999E+003 -9.999E+003 -9.999E+003 -9.999E+003 -9.999E+003 -9.999E+003 -9.999E+003 -9.999E+003 -9.999E+003 -9.999E+003 -9.999E+003 -9.999E+003 -9.999E+003 -9.999E+003 -9.999E+003 -9.999E+003 -9.999E+003 -9.999E+003 -9.999E+003 -9.999E+003 -9.999E+003 -9.999E+003 -9.999E+003 -9.999E+003 -9.999E+003 -9.999E+003 -9.999E+003 -9.999E+003 -9.999E+003 -9.999E+003 -9.999E+003 -9.999E+003 -9.999E+003 -9.999E+003 -9.999E+003 -9.999E+003 -9.999E+003 -9.999E+003 -9.999E+003 -9.999E+003 -9.999E+003 -9.999E+003 -9.999E+003 -9.999E+003 -9.999E+003 -9.999E+003 -9.999E+003 -9.999E+003 -9.999E+003 -9.999E+003 -9.999E+003 -9.999E+003 -9.999E+003 -9.999E+003 -9.999E+003 -9.999E+003 -9.999E+003 -9.999E+003 -9.999E+003 -9.999E+003 -9.999E+003 -9.999E+003 -9.999E+003 -9.999E+003 -9.999E+003 -9.999E+003 -9.999E+003 -9.999E+003 -9.999E+003 -9.999E+003 -9.999E+003 -9.999E+003 -9.999E+003 -9.999E+003 -9.999E+003 -9.999E+003 -9.999E+003 -9.999E+003 -9.999E+003 -9.999E+003 -9.999E+003 -9.999E+003 -9.999E+003 -9.999E+003 -9.999E+003 -9.999E+003 -9.999E+003 -9.999E+003 -9.999E+003 -9.999E+003 -9.999E+003 -9.999E+003 -9.999E+003 -9.999E+003 -9.999E+003 -9.999E+003 -9.999E+003
 -9.999E+003 -9.999E+003 -9.999E+003 -9.999E+003 -9.999E+003 -9.999E+003 -9.999E+003 -9.999E+003 -9.999E+003 -9.999E+003 -9.999E+003 -9.999E+003 -9.999E+003 -9.999E+003 -9.999E+003 -9.999E+003 -9.999E+003 -9.999E+003 -9.999E+003 -9.999E+003 -9.999E+003 -9.999E+003 -9.999E+003 -9.999E+003 -9.999E+003 -9.999E+003 -9.999E+003 -9.999E+003 -9.999E+003 -9.999E+003 -9.999E+003 -9.999E+003 -9.999E+003 -9.999E+003 -9.999E+003 -9.999E+003 -9.999E+003 -9.999E+003 -9.999E+003 -9.999E+003 -9.999E+003 -9.999E+003 -9.999E+003 -9.999E+003 -9.999E+003 -9.999E+003 -9.999E+003 -9.999E+003 -9.999E+003 -9.999E+003 -9.999E+003 -9.999E+003 -9.999E+003 -9.999E+003 -9.999E+003 -9.999E+003 -9.999E+003 -9.999E+003 -9.999E+003 -9.999E+003 -9.999E+003 -9.999E+003 -9.999E+003 -9.999E+003 -9.999E+003 -9.999E+003 -9.999E+003 -9.999E+003 -9.999E+003 -9.999E+003 -9.999E+003 -9.999E+003 -9.999E+003 -9.999E+003 -9.999E+003 -9.999E+003 -9.999E+003 -9.999E+003 -9.999E+003 -9.999E+003 -9.999E+003 -9.999E+003 -9.999E+003 -9.999E+003 -9.999E+003 -9.999E+003 -9.999E+003 -9.999E+003 -9.999E+003 -9.999E+003 -9.999E+003 -9.999E+003 -9.999E+003 -9.999E+003 -9.999E+003 -9.999E+003 -9.999E+003 -9.999E+003 -9.999E+003 -9.999E+003 -9.999E+003 -9.999E+003 -9.999E+003 -9.999E+003 -9.999E+003 -9.999E+003 -9.999E+003 -9.999E+003 -9.999E+003 -9.999E+003 -9.999E+003 -9.999E+003 -9.999E+003 -9.999E+003 -9.999E+003 -9.999E+003 -9.999E+003 -9.999E+003 -9.999E+003 -9.999E+003 -9.999E+003 -9.999E+003 -9.999E+003 -9.999E+003 -9.999E+003 -9.999E+003 -9.999E+003 -9.999E+003 -9.999E+003 -9.999E+003 -9.999E+003 -9.999E+003 -9.999E+003 -9.999E+003 -9.999E+003 -9.999E+003 -9.999E+003 -9.999E+003 -9.999E+003 -9.999E+003 -9.999E+003 -9.999E+003 -9.999E+003 -9.999E+003 -9.999E+003 -9.999E+003 -9.999E+003 -9.999E+003 -9.999E+003 -9.999E+003
 -9.999E+003 -9.999E+003 -9.999E+003 -9.999E+003 -9.999E+003 -9.999E+003 -9.999E+003 -9.999E+003 -9.999E+003 -9.999E+003 -9.999E+003 -9.999E+003 -9.999E+003 -9.999E+003 -9.999E+003 -9.999E+003 -9.999E+003 -9.999E+003 -9.999E+003 -9.999E+003 -9.999E+003 -9.999E+003 -9.999E+003 -9.999E+003 -9.999E+003 -9.999E+003 -9.999E+003 -9.999E+003 -9.999E+003 -9.999E+003 -9.999E+003 -9.999E+003 -9.999E+003 -9.999E+003 -9.999E+003 -9.999E+003 -9.999E+003 -9.999E+003 -9.999E+003 -9.999E+003 -9.999E+003 -9.999E+003 -9.999E+003 -9.999E+003 -9.999E+003 -9.999E+003 -9.999E+003 -9.999E+003 -9.999E+003 -9.999E+003 -9.999E+003 -9.999E+003 -9.999E+003 -9.999E+003 -9.999E+003 -9.999E+003 -9.999E+003 -9.999E+003 -9.999E+003 -9.999E+003 -9.999E+003 -9.999E+003 -9.999E+003 -9.999E+003 -9.999E+003 -9.999E+003 -9.999E+003 -9.999E+003 -9.999E+003 -9.999E+003 -9.999E+003 -9.999E+003 -9.999E+003 -9.999E+003 -9.999E+003 -9.999E+003 -9.999E+003 -9.999E+003 -9.999E+003 -9.999E+003 -9.999E+003 -9.999E+003 -9.999E+003 -9.999E+003 -9.999E+003 -9.999E+003 -9.999E+003 -9.999E+003 -9.999E+003 -9.999E+003 -9.999E+003 -9.999E+003 -9.999E+003 -9.999E+003 -9.999E+003 -9.999E+003 -9.999E+003 -9.999E+003 -9.999E+003 -9.999E+003 -9.999E+003 -9.999E+003 -9.999E+003 -9.999E+003 -9.999E+003 -9.999E+003 -9.999E+003 -9.999E+003 -9.999E+003 -9.999E+003 -9.999E+003 -9.999E+003 -9.999E+003 -9.999E+003 -9.999E+003 -9.999E+003 -9.999E+003 -9.999E+003 -9.999E+003 -9.999E+003 -9.999E+003 -9.999E+003 -9.999E+003 -9.999E+003 -9.999E+003 -9.999E+003 -9.999E+003 -9.999E+003 -9.999E+003 -9.999E+003 -9.999E+003 -9.999E+003 -9.999E+003 -9.999E+003 -9.999E+003 -9.999E+003 -9.999E+003 -9.999E+003 -9.999E+003 -9.999E+003 -9.999E+003 -9.999E+003 -9.999E+003 -9.999E+003 -9.999E+003 -9.999E+003 -9.999E+003 -9.999E+003 -9.999E+003 -9.999E+003
 -9.999E+003 -9.999E+003 -9.999E+003 -9.999E+003 -9.999E+003 -9.999E+003 -9.999E+003 -9.999E+003 -9.999E+003 -9.999E+003 -9.999E+003 -9.999E+003 -9.999E+003 -9.999E+003 -9.999E+003 -9.999E+003 -9.999E+003 -9.999E+003 -9.999E+003 -9.999E+003 -9.999E+003 -9.999E+003 -9.999E+003 -9.999E+003 -9.999E+003 -9.999E+003 -9.999E+003 -9.999E+003 -9.999E+003 -9.999E+003 -9.999E+003 -9.999E+003 -9.999E+003 -9.999E+003 -9.999E+003 -9.999E+003 -9.999E+003 -9.999E+003 -9.999E+003 -9.999E+003 -9.999E+003 -9.999E+003 -9.999E+003 -9.999E+003 -9.999E+003 -9.999E+003 -9.999E+003 -9.999E+003 -9.999E+003 -9.999E+003 -9.999E+003 -9.999E+003 -9.999E+003 -9.999E+003 -9.999E+003 -9.999E+003 -9.999E+003 -9.999E+003 -9.999E+003 -9.999E+003 -9.999E+003 -9.999E+003 -9.999E+003 -9.999E+003 -9.999E+003 -9.999E+003 -9.999E+003 -9.999E+003 -9.999E+003 -9.999E+003 -9.999E+003 -9.999E+003 -9.999E+003 -9.999E+003 -9.999E+003 -9.999E+003 -9.999E+003 -9.999E+003 -9.999E+003 -9.999E+003 -9.999E+003 -9.999E+003 -9.999E+003 -9.999E+003 -9.999E+003 -9.999E+003 -9.999E+003 -9.999E+003 -9.999E+003 -9.999E+003 -9.999E+003 -9.999E+003 -9.999E+003 -9.999E+003 -9.999E+003 -9.999E+003 -9.999E+003 -9.999E+003 -9.999E+003 -9.999E+003 -9.999E+003 -9.999E+003 -9.999E+003 -9.999E+003 -9.999E+003 -9.999E+003 -9.999E+003 -9.999E+003 -9.999E+003 -9.999E+003 -9.999E+003 -9.999E+003 -9.999E+003 -9.999E+003 -9.999E+003 -9.999E+003 -9.999E+003 -9.999E+003 -9.999E+003 -9.999E+003 -9.999E+003 -9.999E+003 -9.999E+003 -9.999E+003 -9.999E+003 -9.999E+003 -9.999E+003 -9.999E+003 -9.999E+003 -9.999E+003 -9.999E+003 -9.999E+003 -9.999E+003 -9.999E+003 -9.999E+003 -9.999E+003 -9.999E+003 -9.999E+003 -9.999E+003 -9.999E+003 -9.999E+003 -9.999E+003 -9.999E+003 -9.999E+003 -9.999E+003 -9.999E+003 -9.999E+003 -9.999E+003 -9.999E+003 -9.999E+003
 -9.999E+003 -9.999E+003 -9.999E+003 -9.999E+003 -9.999E+003 -9.999E+003 -9.999E+003 -9.999E+003 -9.999E+003 -9.999E+003 -9.999E+003 -9.999E+003 -9.999E+003 -9.999E+003 -9.999E+003 -9.999E+003 -9.999E+003 -9.999E+003 -9.999E+003 -9.999E+003 -9.999E+003 -9.999E+003 -9.999E+003 -9.999E+003 -9.999E+003 -9.999E+003 -9.999E+003 -9.999E+003 -9.999E+003 -9.999E+003 -9.999E+003 -9.999E+003 -9.999E+003 -9.999E+003 -9.999E+003 -9.999E+003 -9.999E+003 -9.999E+003 -9.999E+003 -9.999E+003 -9.999E+003 -9.999E+003 -9.999E+003 -9.999E+003 -9.999E+003 -9.999E+003 -9.999E+003 -9.999E+003 -9.999E+003 -9.999E+003 -9.999E+003 -9.999E+003 -9.999E+003 -9.999E+003 -9.999E+003 -9.999E+003 -9.999E+003 -9.999E+003 -9.999E+003 -9.999E+003 -9.999E+003 -9.999E+003 -9.999E+003 -9.999E+003 -9.999E+003 -9.999E+003 -9.999E+003 -9.999E+003 -9.999E+003 -9.999E+003 -9.999E+003 -9.999E+003 -9.999E+003 -9.999E+003 -9.999E+003 -9.999E+003 -9.999E+003 -9.999E+003 -9.999E+003 -9.999E+003 -9.999E+003 -9.999E+003 -9.999E+003 -9.999E+003 -9.999E+003 -9.999E+003 -9.999E+003 -9.999E+003 -9.999E+003 -9.999E+003 -9.999E+003 -9.999E+003 -9.999E+003 -9.999E+003 -9.999E+003 -9.999E+003 -9.999E+003 -9.999E+003 -9.999E+003 -9.999E+003 -9.999E+003 -9.999E+003 -9.999E+003 -9.999E+003 -9.999E+003 -9.999E+003 -9.999E+003 -9.999E+003 -9.999E+003 -9.999E+003 -9.999E+003 -9.999E+003 -9.999E+003 -9.999E+003 -9.999E+003 -9.999E+003 -9.999E+003 -9.999E+003 -9.999E+003 -9.999E+003 -9.999E+003 -9.999E+003 -9.999E+003 -9.999E+003 -9.999E+003 -9.999E+003 -9.999E+003 -9.999E+003 -9.999E+003 -9.999E+003 -9.999E+003 -9.999E+003 -9.999E+003 -9.999E+003 -9.999E+003 -9.999E+003 -9.999E+003 -9.999E+003 -9.999E+003 -9.999E+003 -9.999E+003 -9.999E+003 -9.999E+003 -9.999E+003 -9.999E+003 -9.999E+003 -9.999E+003 -9.999E+003 -9.999E+003 -9.999E+003
 -9.999E+003 -9.999E+003 -9.999E+003 -9.999E+003 -9.999E+003 -9.999E+003 -9.999E+003 -9.999E+003 -9.999E+003 -9.999E+003 -9.999E+003 -9.999E+003 -9.999E+003 -9.999E+003 -9.999E+003 -9.999E+003 -9.999E+003 -9.999E+003 -9.999E+003 -9.999E+003 -9.999E+003 -9.999E+003 -9.999E+003 -9.999E+003 -9.999E+003 -9.999E+003 -9.999E+003 -9.999E+003 -9.999E+003 -9.999E+003 -9.999E+003 -9.999E+003 -9.999E+003 -9.999E+003 -9.999E+003 -9.999E+003 -9.999E+003 -9.999E+003 -9.999E+003 -9.999E+003 -9.999E+003 -9.999E+003 -9.999E+003 -9.999E+003 -9.999E+003 -9.999E+003 -9.999E+003 -9.999E+003 -9.999E+003 -9.999E+003 -9.999E+003 -9.999E+003 -9.999E+003 -9.999E+003 -9.999E+003 -9.999E+003 -9.999E+003 -9.999E+003 -9.999E+003 -9.999E+003 -9.999E+003 -9.999E+003 -9.999E+003 -9.999E+003 -9.999E+003 -9.999E+003 -9.999E+003 -9.999E+003 -9.999E+003 -9.999E+003 -9.999E+003 -9.999E+003 -9.999E+003 -9.999E+003 -9.999E+003 -9.999E+003 -9.999E+003 -9.999E+003 -9.999E+003 -9.999E+003 -9.999E+003 -9.999E+003 -9.999E+003 -9.999E+003 -9.999E+003 -9.999E+003 -9.999E+003 -9.999E+003 -9.999E+003 -9.999E+003 -9.999E+003 -9.999E+003 -9.999E+003 -9.999E+003 -9.999E+003 -9.999E+003 -9.999E+003 -9.999E+003 -9.999E+003 -9.999E+003 -9.999E+003 -9.999E+003 -9.999E+003 -9.999E+003 -9.999E+003 -9.999E+003 -9.999E+003 -9.999E+003 -9.999E+003 -9.999E+003 -9.999E+003 -9.999E+003 -9.999E+003 -9.999E+003 -9.999E+003 -9.999E+003 -9.999E+003 -9.999E+003 -9.999E+003 -9.999E+003 -9.999E+003 -9.999E+003 -9.999E+003 -9.999E+003 -9.999E+003 -9.999E+003 -9.999E+003 -9.999E+003 -9.999E+003 -9.999E+003 -9.999E+003 -9.999E+003 -9.999E+003 -9.999E+003 -9.999E+003 -9.999E+003 -9.999E+003 -9.999E+003 -9.999E+003 -9.999E+003 -9.999E+003 -9.999E+003 -9.999E+003 -9.999E+003 -9.999E+003 -9.999E+003 -9.999E+003 -9.999E+003 -9.999E+003 -9.999E+003
 -9.999E+003 -9.999E+003 -9.999E+003 -9.999E+003 -9.999E+003 -9.999E+003 -9.999E+003 -9.999E+003 -9.999E+003 -9.999E+003 -9.999E+003 -9.999E+003 -9.999E+003 -9.999E+003 -9.999E+003 -9.999E+003 -9.999E+003 -9.999E+003 -9.999E+003 -9.999E+003 -9.999E+003 -9.999E+003 -9.999E+003 -9.999E+003 -9.999E+003 -9.999E+003 -9.999E+003 -9.999E+003 -9.999E+003 -9.999E+003 -9.999E+003 -9.999E+003 -9.999E+003 -9.999E+003 -9.999E+003 -9.999E+003 -9.999E+003 -9.999E+003 -9.999E+003 -9.999E+003 -9.999E+003 -9.999E+003 -9.999E+003 -9.999E+003 -9.999E+003 -9.999E+003 -9.999E+003 -9.999E+003 -9.999E+003 -9.999E+003 -9.999E+003 -9.999E+003 -9.999E+003 -9.999E+003 -9.999E+003 -9.999E+003 -9.999E+003 -9.999E+003 -9.999E+003 -9.999E+003 -9.999E+003 -9.999E+003 -9.999E+003 -9.999E+003 -9.999E+003 -9.999E+003 -9.999E+003 -9.999E+003 -9.999E+003 -9.999E+003 -9.999E+003 -9.999E+003 -9.999E+003 -9.999E+003 -9.999E+003 -9.999E+003 -9.999E+003 -9.999E+003 -9.999E+003 -9.999E+003 -9.999E+003 -9.999E+003 -9.999E+003 -9.999E+003 -9.999E+003 -9.999E+003 -9.999E+003 -9.999E+003 -9.999E+003 -9.999E+003 -9.999E+003 -9.999E+003 -9.999E+003 -9.999E+003 -9.999E+003 -9.999E+003 -9.999E+003 -9.999E+003 -9.999E+003 -9.999E+003 -9.999E+003 -9.999E+003 -9.999E+003 -9.999E+003 -9.999E+003 -9.999E+003 -9.999E+003 -9.999E+003 -9.999E+003 -9.999E+003 -9.999E+003 -9.999E+003 -9.999E+003 -9.999E+003 -9.999E+003 -9.999E+003 -9.999E+003 -9.999E+003 -9.999E+003 -9.999E+003 -9.999E+003 -9.999E+003 -9.999E+003 -9.999E+003 -9.999E+003 -9.999E+003 -9.999E+003 -9.999E+003 -9.999E+003 -9.999E+003 -9.999E+003 -9.999E+003 -9.999E+003 -9.999E+003 -9.999E+003 -9.999E+003 -9.999E+003 -9.999E+003 -9.999E+003 -9.999E+003 -9.999E+003 -9.999E+003 -9.999E+003 -9.999E+003 -9.999E+003 -9.999E+003 -9.999E+003 -9.999E+003 -9.999E+003 -9.999E+003
 -9.999E+003 -9.999E+003 -9.999E+003 -9.999E+003 -9.999E+003 -9.999E+003 -9.999E+003 -9.999E+003 -9.999E+003 -9.999E+003 -9.999E+003 -9.999E+003 -9.999E+003 -9.999E+003 -9.999E+003 -9.999E+003 -9.999E+003 -9.999E+003 -9.999E+003 -9.999E+003 -9.999E+003 -9.999E+003 -9.999E+003 -9.999E+003 -9.999E+003 -9.999E+003 -9.999E+003 -9.999E+003 -9.999E+003 -9.999E+003 -9.999E+003 -9.999E+003 -9.999E+003 -9.999E+003 -9.999E+003 -9.999E+003 -9.999E+003 -9.999E+003 -9.999E+003 -9.999E+003 -9.999E+003 -9.999E+003 -9.999E+003 -9.999E+003 -9.999E+003 -9.999E+003 -9.999E+003 -9.999E+003 -9.999E+003 -9.999E+003 -9.999E+003 -9.999E+003 -9.999E+003 -9.999E+003 -9.999E+003 -9.999E+003 -9.999E+003 -9.999E+003 -9.999E+003 -9.999E+003 -9.999E+003 -9.999E+003 -9.999E+003 -9.999E+003 -9.999E+003 -9.999E+003 -9.999E+003 -9.999E+003 -9.999E+003 -9.999E+003 -9.999E+003 -9.999E+003 -9.999E+003 -9.999E+003 -9.999E+003 -9.999E+003 -9.999E+003 -9.999E+003 -9.999E+003 -9.999E+003 -9.999E+003 -9.999E+003 -9.999E+003 -9.999E+003 -9.999E+003 -9.999E+003 -9.999E+003 -9.999E+003 -9.999E+003 -9.999E+003 -9.999E+003 -9.999E+003 -9.999E+003 -9.999E+003 -9.999E+003 -9.999E+003 -9.999E+003 -9.999E+003 -9.999E+003 -9.999E+003 -9.999E+003 -9.999E+003 -9.999E+003 -9.999E+003 -9.999E+003 -9.999E+003 -9.999E+003 -9.999E+003 -9.999E+003 -9.999E+003 -9.999E+003 -9.999E+003 -9.999E+003 -9.999E+003 -9.999E+003 -9.999E+003 -9.999E+003 -9.999E+003 -9.999E+003 -9.999E+003 -9.999E+003 -9.999E+003 -9.999E+003 -9.999E+003 -9.999E+003 -9.999E+003 -9.999E+003 -9.999E+003 -9.999E+003 -9.999E+003 -9.999E+003 -9.999E+003 -9.999E+003 -9.999E+003 -9.999E+003 -9.999E+003 -9.999E+003 -9.999E+003 -9.999E+003 -9.999E+003 -9.999E+003 -9.999E+003 -9.999E+003 -9.999E+003 -9.999E+003 -9.999E+003 -9.999E+003 -9.999E+003 -9.999E+003 -9.999E+003
 -9.999E+003 -9.999E+003 -9.999E+003 -9.999E+003 -9.999E+003 -9.999E+003 -9.999E+003 -9.999E+003 -9.999E+003 -9.999E+003 -9.999E+003 -9.999E+003 -9.999E+003 -9.999E+003 -9.999E+003 -9.999E+003 -9.999E+003 -9.999E+003 -9.999E+003 -9.999E+003 -9.999E+003 -9.999E+003 -9.999E+003 -9.999E+003 -9.999E+003 -9.999E+003 -9.999E+003 -9.999E+003 -9.999E+003 -9.999E+003 -9.999E+003 -9.999E+003 -9.999E+003 -9.999E+003 -9.999E+003 -9.999E+003 -9.999E+003 -9.999E+003 -9.999E+003 -9.999E+003 -9.999E+003 -9.999E+003 -9.999E+003 -9.999E+003 -9.999E+003 -9.999E+003 -9.999E+003 -9.999E+003 -9.999E+003 -9.999E+003 -9.999E+003 -9.999E+003 -9.999E+003 -9.999E+003 -9.999E+003 -9.999E+003 -9.999E+003 -9.999E+003 -9.999E+003 -9.999E+003 -9.999E+003 -9.999E+003 -9.999E+003 -9.999E+003 -9.999E+003 -9.999E+003 -9.999E+003 -9.999E+003 -9.999E+003 -9.999E+003 -9.999E+003 -9.999E+003 -9.999E+003 -9.999E+003 -9.999E+003 -9.999E+003 -9.999E+003 -9.999E+003 -9.999E+003 -9.999E+003 -9.999E+003 -9.999E+003 -9.999E+003 -9.999E+003 -9.999E+003 -9.999E+003 -9.999E+003 -9.999E+003 -9.999E+003 -9.999E+003 -9.999E+003 -9.999E+003 -9.999E+003 -9.999E+003 -9.999E+003 -9.999E+003 -9.999E+003 -9.999E+003 -9.999E+003 -9.999E+003 -9.999E+003 -9.999E+003 -9.999E+003 -9.999E+003 -9.999E+003 -9.999E+003 -9.999E+003 -9.999E+003 -9.999E+003 -9.999E+003 -9.999E+003 -9.999E+003 -9.999E+003 -9.999E+003 -9.999E+003 -9.999E+003 -9.999E+003 -9.999E+003 -9.999E+003 -9.999E+003 -9.999E+003 -9.999E+003 -9.999E+003 -9.999E+003 -9.999E+003 -9.999E+003 -9.999E+003 -9.999E+003 -9.999E+003 -9.999E+003 -9.999E+003 -9.999E+003 -9.999E+003 -9.999E+003 -9.999E+003 -9.999E+003 -9.999E+003 -9.999E+003 -9.999E+003 -9.999E+003 -9.999E+003 -9.999E+003 -9.999E+003 -9.999E+003 -9.999E+003 -9.999E+003 -9.999E+003 -9.999E+003 -9.999E+003 -9.999E+003
 -9.999E+003 -9.999E+003 -9.999E+003 -9.999E+003 -9.999E+003 -9.999E+003 -9.999E+003 -9.999E+003 -9.999E+003 -9.999E+003 -9.999E+003 -9.999E+003 -9.999E+003 -9.999E+003 -9.999E+003 -9.999E+003 -9.999E+003 -9.999E+003 -9.999E+003 -9.999E+003 -9.999E+003 -9.999E+003 -9.999E+003 -9.999E+003 -9.999E+003 -9.999E+003 -9.999E+003 -9.999E+003 -9.999E+003 -9.999E+003 -9.999E+003 -9.999E+003 -9.999E+003 -9.999E+003 -9.999E+003 -9.999E+003 -9.999E+003 -9.999E+003 -9.999E+003 -9.999E+003 -9.999E+003 -9.999E+003 -9.999E+003 -9.999E+003 -9.999E+003 -9.999E+003 -9.999E+003 -9.999E+003 -9.999E+003 -9.999E+003 -9.999E+003 -9.999E+003 -9.999E+003 -9.999E+003 -9.999E+003 -9.999E+003 -9.999E+003 -9.999E+003 -9.999E+003 -9.999E+003 -9.999E+003 -9.999E+003 -9.999E+003 -9.999E+003 -9.999E+003 -9.999E+003 -9.999E+003 -9.999E+003 -9.999E+003 -9.999E+003 -9.999E+003 -9.999E+003 -9.999E+003 -9.999E+003 -9.999E+003 -9.999E+003 -9.999E+003 -9.999E+003 -9.999E+003 -9.999E+003 -9.999E+003 -9.999E+003 -9.999E+003 -9.999E+003 -9.999E+003 -9.999E+003 -9.999E+003 -9.999E+003 -9.999E+003 -9.999E+003 -9.999E+003 -9.999E+003 -9.999E+003 -9.999E+003 -9.999E+003 -9.999E+003 -9.999E+003 -9.999E+003 -9.999E+003 -9.999E+003 -9.999E+003 -9.999E+003 -9.999E+003 -9.999E+003 -9.999E+003 -9.999E+003 -9.999E+003 -9.999E+003 -9.999E+003 -9.999E+003 -9.999E+003 -9.999E+003 -9.999E+003 -9.999E+003 -9.999E+003 -9.999E+003 -9.999E+003 -9.999E+003 -9.999E+003 -9.999E+003 -9.999E+003 -9.999E+003 -9.999E+003 -9.999E+003 -9.999E+003 -9.999E+003 -9.999E+003 -9.999E+003 -9.999E+003 -9.999E+003 -9.999E+003 -9.999E+003 -9.999E+003 -9.999E+003 -9.999E+003 -9.999E+003 -9.999E+003 -9.999E+003 -9.999E+003 -9.999E+003 -9.999E+003 -9.999E+003 -9.999E+003 -9.999E+003 -9.999E+003 -9.999E+003 -9.999E+003 -9.999E+003 -9.999E+003 -9.999E+003
 -9.999E+003 -9.999E+003 -9.999E+003 -9.999E+003 -9.999E+003 -9.999E+003 -9.999E+003 -9.999E+003 -9.999E+003 -9.999E+003 -9.999E+003 -9.999E+003 -9.999E+003 -9.999E+003 -9.999E+003 -9.999E+003 -9.999E+003 -9.999E+003 -9.999E+003 -9.999E+003 -9.999E+003 -9.999E+003 -9.999E+003 -9.999E+003 -9.999E+003 -9.999E+003 -9.999E+003 -9.999E+003 -9.999E+003 -9.999E+003 -9.999E+003 -9.999E+003 -9.999E+003 -9.999E+003 -9.999E+003 -9.999E+003 -9.999E+003 -9.999E+003 -9.999E+003 -9.999E+003 -9.999E+003 -9.999E+003 -9.999E+003 -9.999E+003 -9.999E+003 -9.999E+003 -9.999E+003 -9.999E+003 -9.999E+003 -9.999E+003 -9.999E+003 -9.999E+003 -9.999E+003 -9.999E+003 -9.999E+003 -9.999E+003 -9.999E+003 -9.999E+003 -9.999E+003 -9.999E+003 -9.999E+003 -9.999E+003 -9.999E+003 -9.999E+003 -9.999E+003 -9.999E+003 -9.999E+003 -9.999E+003 -9.999E+003 -9.999E+003 -9.999E+003 -9.999E+003 -9.999E+003 -9.999E+003 -9.999E+003 -9.999E+003 -9.999E+003 -9.999E+003 -9.999E+003 -9.999E+003 -9.999E+003 -9.999E+003 -9.999E+003 -9.999E+003 -9.999E+003 -9.999E+003 -9.999E+003 -9.999E+003 -9.999E+003 -9.999E+003 -9.999E+003 -9.999E+003 -9.999E+003 -9.999E+003 -9.999E+003 -9.999E+003 -9.999E+003 -9.999E+003 -9.999E+003 -9.999E+003 -9.999E+003 -9.999E+003 -9.999E+003 -9.999E+003 -9.999E+003 -9.999E+003 -9.999E+003 -9.999E+003 -9.999E+003 -9.999E+003 -9.999E+003 -9.999E+003 -9.999E+003 -9.999E+003 -9.999E+003 -9.999E+003 -9.999E+003 -9.999E+003 -9.999E+003 -9.999E+003 -9.999E+003 -9.999E+003 -9.999E+003 -9.999E+003 -9.999E+003 -9.999E+003 -9.999E+003 -9.999E+003 -9.999E+003 -9.999E+003 -9.999E+003 -9.999E+003 -9.999E+003 -9.999E+003 -9.999E+003 -9.999E+003 -9.999E+003 -9.999E+003 -9.999E+003 -9.999E+003 -9.999E+003 -9.999E+003 -9.999E+003 -9.999E+003 -9.999E+003 -9.999E+003 -9.999E+003 -9.999E+003 -9.999E+003 -9.999E+003
 -9.999E+003 -9.999E+003 -9.999E+003 -9.999E+003 -9.999E+003 -9.999E+003 -9.999E+003 -9.999E+003 -9.999E+003 -9.999E+003 -9.999E+003 -9.999E+003 -9.999E+003 -9.999E+003 -9.999E+003 -9.999E+003 -9.999E+003 -9.999E+003 -9.999E+003 -9.999E+003 -9.999E+003 -9.999E+003 -9.999E+003 -9.999E+003 -9.999E+003 -9.999E+003 -9.999E+003 -9.999E+003 -9.999E+003 -9.999E+003 -9.999E+003 -9.999E+003 -9.999E+003 -9.999E+003 -9.999E+003 -9.999E+003 -9.999E+003 -9.999E+003 -9.999E+003 -9.999E+003 -9.999E+003 -9.999E+003 -9.999E+003 -9.999E+003 -9.999E+003 -9.999E+003 -9.999E+003 -9.999E+003 -9.999E+003 -9.999E+003 -9.999E+003 -9.999E+003 -9.999E+003 -9.999E+003 -9.999E+003 -9.999E+003 -9.999E+003 -9.999E+003 -9.999E+003 -9.999E+003 -9.999E+003 -9.999E+003 -9.999E+003 -9.999E+003 -9.999E+003 -9.999E+003 -9.999E+003 -9.999E+003 -9.999E+003 -9.999E+003 -9.999E+003 -9.999E+003 -9.999E+003 -9.999E+003 -9.999E+003 -9.999E+003 -9.999E+003 -9.999E+003 -9.999E+003 -9.999E+003 -9.999E+003 -9.999E+003 -9.999E+003 -9.999E+003 -9.999E+003 -9.999E+003 -9.999E+003 -9.999E+003 -9.999E+003 -9.999E+003 -9.999E+003 -9.999E+003 -9.999E+003 -9.999E+003 -9.999E+003 -9.999E+003 -9.999E+003 -9.999E+003 -9.999E+003 -9.999E+003 -9.999E+003 -9.999E+003 -9.999E+003 -9.999E+003 -9.999E+003 -9.999E+003 -9.999E+003 -9.999E+003 -9.999E+003 -9.999E+003 -9.999E+003 -9.999E+003 -9.999E+003 -9.999E+003 -9.999E+003 -9.999E+003 -9.999E+003 -9.999E+003 -9.999E+003 -9.999E+003 -9.999E+003 -9.999E+003 -9.999E+003 -9.999E+003 -9.999E+003 -9.999E+003 -9.999E+003 -9.999E+003 -9.999E+003 -9.999E+003 -9.999E+003 -9.999E+003 -9.999E+003 -9.999E+003 -9.999E+003 -9.999E+003 -9.999E+003 -9.999E+003 -9.999E+003 -9.999E+003 -9.999E+003 -9.999E+003 -9.999E+003 -9.999E+003 -9.999E+003 -9.999E+003 -9.999E+003 -9.999E+003 -9.999E+003 -9.999E+003
 -9.999E+003 -9.999E+003 -9.999E+003 -9.999E+003 -9.999E+003 -9.999E+003 -9.999E+003 -9.999E+003 -9.999E+003 -9.999E+003 -9.999E+003 -9.999E+003 -9.999E+003 -9.999E+003 -9.999E+003 -9.999E+003 -9.999E+003 -9.999E+003 -9.999E+003 -9.999E+003 -9.999E+003 -9.999E+003 -9.999E+003 -9.999E+003 -9.999E+003 -9.999E+003 -9.999E+003 -9.999E+003 -9.999E+003 -9.999E+003 -9.999E+003 -9.999E+003 -9.999E+003 -9.999E+003 -9.999E+003 -9.999E+003 -9.999E+003 -9.999E+003 -9.999E+003 -9.999E+003 -9.999E+003 -9.999E+003 -9.999E+003 -9.999E+003 -9.999E+003 -9.999E+003 -9.999E+003 -9.999E+003 -9.999E+003 -9.999E+003 -9.999E+003 -9.999E+003 -9.999E+003 -9.999E+003 -9.999E+003 -9.999E+003 -9.999E+003 -9.999E+003 -9.999E+003 -9.999E+003 -9.999E+003 -9.999E+003 -9.999E+003 -9.999E+003 -9.999E+003 -9.999E+003 -9.999E+003 -9.999E+003 -9.999E+003 -9.999E+003 -9.999E+003 -9.999E+003 -9.999E+003 -9.999E+003 -9.999E+003 -9.999E+003 -9.999E+003 -9.999E+003 -9.999E+003 -9.999E+003 -9.999E+003 -9.999E+003 -9.999E+003 -9.999E+003 -9.999E+003 -9.999E+003 -9.999E+003 -9.999E+003 -9.999E+003 -9.999E+003 -9.999E+003 -9.999E+003 -9.999E+003 -9.999E+003 -9.999E+003 -9.999E+003 -9.999E+003 -9.999E+003 -9.999E+003 -9.999E+003 -9.999E+003 -9.999E+003 -9.999E+003 -9.999E+003 -9.999E+003 -9.999E+003 -9.999E+003 -9.999E+003 -9.999E+003 -9.999E+003 -9.999E+003 -9.999E+003 -9.999E+003 -9.999E+003 -9.999E+003 -9.999E+003 -9.999E+003 -9.999E+003 -9.999E+003 -9.999E+003 -9.999E+003 -9.999E+003 -9.999E+003 -9.999E+003 -9.999E+003 -9.999E+003 -9.999E+003 -9.999E+003 -9.999E+003 -9.999E+003 -9.999E+003 -9.999E+003 -9.999E+003 -9.999E+003 -9.999E+003 -9.999E+003 -9.999E+003 -9.999E+003 -9.999E+003 -9.999E+003 -9.999E+003 -9.999E+003 -9.999E+003 -9.999E+003 -9.999E+003 -9.999E+003 -9.999E+003 -9.999E+003 -9.999E+003 -9.999E+003
 -9.999E+003 -9.999E+003 -9.999E+003 -9.999E+003 -9.999E+003 -9.999E+003 -9.999E+003 -9.999E+003 -9.999E+003 -9.999E+003 -9.999E+003 -9.999E+003 -9.999E+003 -9.999E+003 -9.999E+003 -9.999E+003 -9.999E+003 -9.999E+003 -9.999E+003 -9.999E+003 -9.999E+003 -9.999E+003 -9.999E+003 -9.999E+003 -9.999E+003 -9.999E+003 -9.999E+003 -9.999E+003 -9.999E+003 -9.999E+003 -9.999E+003 -9.999E+003 -9.999E+003 -9.999E+003 -9.999E+003 -9.999E+003 -9.999E+003 -9.999E+003 -9.999E+003 -9.999E+003 -9.999E+003 -9.999E+003 -9.999E+003 -9.999E+003 -9.999E+003 -9.999E+003 -9.999E+003 -9.999E+003 -9.999E+003 -9.999E+003 -9.999E+003 -9.999E+003 -9.999E+003 -9.999E+003 -9.999E+003 -9.999E+003 -9.999E+003 -9.999E+003 -9.999E+003 -9.999E+003 -9.999E+003 -9.999E+003 -9.999E+003 -9.999E+003 -9.999E+003 -9.999E+003 -9.999E+003 -9.999E+003 -9.999E+003 -9.999E+003 -9.999E+003 -9.999E+003 -9.999E+003 -9.999E+003 -9.999E+003 -9.999E+003 -9.999E+003 -9.999E+003 -9.999E+003 -9.999E+003 -9.999E+003 -9.999E+003 -9.999E+003 -9.999E+003 -9.999E+003 -9.999E+003 -9.999E+003 -9.999E+003 -9.999E+003 -9.999E+003 -9.999E+003 -9.999E+003 -9.999E+003 -9.999E+003 -9.999E+003 -9.999E+003 -9.999E+003 -9.999E+003 -9.999E+003 -9.999E+003 -9.999E+003 -9.999E+003 -9.999E+003 -9.999E+003 -9.999E+003 -9.999E+003 -9.999E+003 -9.999E+003 -9.999E+003 -9.999E+003 -9.999E+003 -9.999E+003 -9.999E+003 -9.999E+003 -9.999E+003 -9.999E+003 -9.999E+003 -9.999E+003 -9.999E+003 -9.999E+003 -9.999E+003 -9.999E+003 -9.999E+003 -9.999E+003 -9.999E+003 -9.999E+003 -9.999E+003 -9.999E+003 -9.999E+003 -9.999E+003 -9.999E+003 -9.999E+003 -9.999E+003 -9.999E+003 -9.999E+003 -9.999E+003 -9.999E+003 -9.999E+003 -9.999E+003 -9.999E+003 -9.999E+003 -9.999E+003 -9.999E+003 -9.999E+003 -9.999E+003 -9.999E+003 -9.999E+003 -9.999E+003 -9.999E+003 -9.999E+003
 -9.999E+003 -9.999E+003 -9.999E+003 -9.999E+003 -9.999E+003 -9.999E+003 -9.999E+003 -9.999E+003 -9.999E+003 -9.999E+003 -9.999E+003 -9.999E+003 -9.999E+003 -9.999E+003 -9.999E+003 -9.999E+003 -9.999E+003 -9.999E+003 -9.999E+003 -9.999E+003 -9.999E+003 -9.999E+003 -9.999E+003 -9.999E+003 -9.999E+003 -9.999E+003 -9.999E+003 -9.999E+003 -9.999E+003 -9.999E+003 -9.999E+003 -9.999E+003 -9.999E+003 -9.999E+003 -9.999E+003 -9.999E+003 -9.999E+003 -9.999E+003 -9.999E+003 -9.999E+003 -9.999E+003 -9.999E+003 -9.999E+003 -9.999E+003 -9.999E+003 -9.999E+003 -9.999E+003 -9.999E+003 -9.999E+003 -9.999E+003 -9.999E+003 -9.999E+003 -9.999E+003 -9.999E+003 -9.999E+003 -9.999E+003 -9.999E+003 -9.999E+003 -9.999E+003 -9.999E+003 -9.999E+003 -9.999E+003 -9.999E+003 -9.999E+003 -9.999E+003 -9.999E+003 -9.999E+003 -9.999E+003 -9.999E+003 -9.999E+003 -9.999E+003 -9.999E+003 -9.999E+003 -9.999E+003 -9.999E+003 -9.999E+003 -9.999E+003 -9.999E+003 -9.999E+003 -9.999E+003 -9.999E+003 -9.999E+003 -9.999E+003 -9.999E+003 -9.999E+003 -9.999E+003 -9.999E+003 -9.999E+003 -9.999E+003 -9.999E+003 -9.999E+003 -9.999E+003 -9.999E+003 -9.999E+003 -9.999E+003 -9.999E+003 -9.999E+003 -9.999E+003 -9.999E+003 -9.999E+003 -9.999E+003 -9.999E+003 -9.999E+003 -9.999E+003 -9.999E+003 -9.999E+003 -9.999E+003 -9.999E+003 -9.999E+003 -9.999E+003 -9.999E+003 -9.999E+003 -9.999E+003 -9.999E+003 -9.999E+003 -9.999E+003 -9.999E+003 -9.999E+003 -9.999E+003 -9.999E+003 -9.999E+003 -9.999E+003 -9.999E+003 -9.999E+003 -9.999E+003 -9.999E+003 -9.999E+003 -9.999E+003 -9.999E+003 -9.999E+003 -9.999E+003 -9.999E+003 -9.999E+003 -9.999E+003 -9.999E+003 -9.999E+003 -9.999E+003 -9.999E+003 -9.999E+003 -9.999E+003 -9.999E+003 -9.999E+003 -9.999E+003 -9.999E+003 -9.999E+003 -9.999E+003 -9.999E+003 -9.999E+003 -9.999E+003 -9.999E+003
 -9.999E+003 -9.999E+003 -9.999E+003 -9.999E+003 -9.999E+003 -9.999E+003 -9.999E+003 -9.999E+003 -9.999E+003 -9.999E+003 -9.999E+003 -9.999E+003 -9.999E+003 -9.999E+003 -9.999E+003 -9.999E+003 -9.999E+003 -9.999E+003 -9.999E+003 -9.999E+003 -9.999E+003 -9.999E+003 -9.999E+003 -9.999E+003 -9.999E+003 -9.999E+003 -9.999E+003 -9.999E+003 -9.999E+003 -9.999E+003 -9.999E+003 -9.999E+003 -9.999E+003 -9.999E+003 -9.999E+003 -9.999E+003 -9.999E+003 -9.999E+003 -9.999E+003 -9.999E+003 -9.999E+003 -9.999E+003 -9.999E+003 -9.999E+003 -9.999E+003 -9.999E+003 -9.999E+003 -9.999E+003 -9.999E+003 -9.999E+003 -9.999E+003 -9.999E+003 -9.999E+003 -9.999E+003 -9.999E+003 -9.999E+003 -9.999E+003 -9.999E+003 -9.999E+003 -9.999E+003 -9.999E+003 -9.999E+003 -9.999E+003 -9.999E+003 -9.999E+003 -9.999E+003 -9.999E+003 -9.999E+003 -9.999E+003 -9.999E+003 -9.999E+003 -9.999E+003 -9.999E+003 -9.999E+003 -9.999E+003 -9.999E+003 -9.999E+003 -9.999E+003 -9.999E+003 -9.999E+003 -9.999E+003 -9.999E+003 -9.999E+003 -9.999E+003 -9.999E+003 -9.999E+003 -9.999E+003 -9.999E+003 -9.999E+003 -9.999E+003 -9.999E+003 -9.999E+003 -9.999E+003 -9.999E+003 -9.999E+003 -9.999E+003 -9.999E+003 -9.999E+003 -9.999E+003 -9.999E+003 -9.999E+003 -9.999E+003 -9.999E+003 -9.999E+003 -9.999E+003 -9.999E+003 -9.999E+003 -9.999E+003 -9.999E+003 -9.999E+003 -9.999E+003 -9.999E+003 -9.999E+003 -9.999E+003 -9.999E+003 -9.999E+003 -9.999E+003 -9.999E+003 -9.999E+003 -9.999E+003 -9.999E+003 -9.999E+003 -9.999E+003 -9.999E+003 -9.999E+003 -9.999E+003 -9.999E+003 -9.999E+003 -9.999E+003 -9.999E+003 -9.999E+003 -9.999E+003 -9.999E+003 -9.999E+003 -9.999E+003 -9.999E+003 -9.999E+003 -9.999E+003 -9.999E+003 -9.999E+003 -9.999E+003 -9.999E+003 -9.999E+003 -9.999E+003 -9.999E+003 -9.999E+003 -9.999E+003 -9.999E+003 -9.999E+003 -9.999E+003
 -9.999E+003 -9.999E+003 -9.999E+003 -9.999E+003 -9.999E+003 -9.999E+003 -9.999E+003 -9.999E+003 -9.999E+003 -9.999E+003 -9.999E+003 -9.999E+003 -9.999E+003 -9.999E+003 -9.999E+003 -9.999E+003 -9.999E+003 -9.999E+003 -9.999E+003 -9.999E+003 -9.999E+003 -9.999E+003 -9.999E+003 -9.999E+003 -9.999E+003 -9.999E+003 -9.999E+003 -9.999E+003 -9.999E+003 -9.999E+003 -9.999E+003 -9.999E+003 -9.999E+003 -9.999E+003 -9.999E+003 -9.999E+003 -9.999E+003 -9.999E+003 -9.999E+003 -9.999E+003 -9.999E+003 -9.999E+003 -9.999E+003 -9.999E+003 -9.999E+003 -9.999E+003 -9.999E+003 -9.999E+003 -9.999E+003 -9.999E+003 -9.999E+003 -9.999E+003 -9.999E+003 -9.999E+003 -9.999E+003 -9.999E+003 -9.999E+003 -9.999E+003 -9.999E+003 -9.999E+003 -9.999E+003 -9.999E+003 -9.999E+003 -9.999E+003 -9.999E+003 -9.999E+003 -9.999E+003 -9.999E+003 -9.999E+003 -9.999E+003 -9.999E+003 -9.999E+003 -9.999E+003 -9.999E+003 -9.999E+003 -9.999E+003 -9.999E+003 -9.999E+003 -9.999E+003 -9.999E+003 -9.999E+003 -9.999E+003 -9.999E+003 -9.999E+003 -9.999E+003 -9.999E+003 -9.999E+003 -9.999E+003 -9.999E+003 -9.999E+003 -9.999E+003 -9.999E+003 -9.999E+003 -9.999E+003 -9.999E+003 -9.999E+003 -9.999E+003 -9.999E+003 -9.999E+003 -9.999E+003 -9.999E+003 -9.999E+003 -9.999E+003 -9.999E+003 -9.999E+003 -9.999E+003 -9.999E+003 -9.999E+003 -9.999E+003 -9.999E+003 -9.999E+003 -9.999E+003 -9.999E+003 -9.999E+003 -9.999E+003 -9.999E+003 -9.999E+003 -9.999E+003 -9.999E+003 -9.999E+003 -9.999E+003 -9.999E+003 -9.999E+003 -9.999E+003 -9.999E+003 -9.999E+003 -9.999E+003 -9.999E+003 -9.999E+003 -9.999E+003 -9.999E+003 -9.999E+003 -9.999E+003 -9.999E+003 -9.999E+003 -9.999E+003 -9.999E+003 -9.999E+003 -9.999E+003 -9.999E+003 -9.999E+003 -9.999E+003 -9.999E+003 -9.999E+003 -9.999E+003 -9.999E+003 -9.999E+003 -9.999E+003 -9.999E+003 -9.999E+003
 -9.999E+003 -9.999E+003 -9.999E+003 -9.999E+003 -9.999E+003 -9.999E+003 -9.999E+003 -9.999E+003 -9.999E+003 -9.999E+003 -9.999E+003 -9.999E+003 -9.999E+003 -9.999E+003 -9.999E+003 -9.999E+003 -9.999E+003 -9.999E+003 -9.999E+003 -9.999E+003 -9.999E+003 -9.999E+003 -9.999E+003 -9.999E+003 -9.999E+003 -9.999E+003 -9.999E+003 -9.999E+003 -9.999E+003 -9.999E+003 -9.999E+003 -9.999E+003 -9.999E+003 -9.999E+003 -9.999E+003 -9.999E+003 -9.999E+003 -9.999E+003 -9.999E+003 -9.999E+003 -9.999E+003 -9.999E+003 -9.999E+003 -9.999E+003 -9.999E+003 -9.999E+003 -9.999E+003 -9.999E+003 -9.999E+003 -9.999E+003 -9.999E+003 -9.999E+003 -9.999E+003 -9.999E+003 -9.999E+003 -9.999E+003 -9.999E+003 -9.999E+003 -9.999E+003 -9.999E+003 -9.999E+003 -9.999E+003 -9.999E+003 -9.999E+003 -9.999E+003 -9.999E+003 -9.999E+003 -9.999E+003 -9.999E+003 -9.999E+003 -9.999E+003 -9.999E+003 -9.999E+003 -9.999E+003 -9.999E+003 -9.999E+003 -9.999E+003 -9.999E+003 -9.999E+003 -9.999E+003 -9.999E+003 -9.999E+003 -9.999E+003 -9.999E+003 -9.999E+003 -9.999E+003 -9.999E+003 -9.999E+003 -9.999E+003 -9.999E+003 -9.999E+003 -9.999E+003 -9.999E+003 -9.999E+003 -9.999E+003 -9.999E+003 -9.999E+003 -9.999E+003 -9.999E+003 -9.999E+003 -9.999E+003 -9.999E+003 -9.999E+003 -9.999E+003 -9.999E+003 -9.999E+003 -9.999E+003 -9.999E+003 -9.999E+003 -9.999E+003 -9.999E+003 -9.999E+003 -9.999E+003 -9.999E+003 -9.999E+003 -9.999E+003 -9.999E+003 -9.999E+003 -9.999E+003 -9.999E+003 -9.999E+003 -9.999E+003 -9.999E+003 -9.999E+003 -9.999E+003 -9.999E+003 -9.999E+003 -9.999E+003 -9.999E+003 -9.999E+003 -9.999E+003 -9.999E+003 -9.999E+003 -9.999E+003 -9.999E+003 -9.999E+003 -9.999E+003 -9.999E+003 -9.999E+003 -9.999E+003 -9.999E+003 -9.999E+003 -9.999E+003 -9.999E+003 -9.999E+003 -9.999E+003 -9.999E+003 -9.999E+003 -9.999E+003 -9.999E+003
 -9.999E+003 -9.999E+003 -9.999E+003 -9.999E+003 -9.999E+003 -9.999E+003 -9.999E+003 -9.999E+003 -9.999E+003 -9.999E+003 -9.999E+003 -9.999E+003 -9.999E+003 -9.999E+003 -9.999E+003 -9.999E+003 -9.999E+003 -9.999E+003 -9.999E+003 -9.999E+003 -9.999E+003 -9.999E+003 -9.999E+003 -9.999E+003 -9.999E+003 -9.999E+003 -9.999E+003 -9.999E+003 -9.999E+003 -9.999E+003 -9.999E+003 -9.999E+003 -9.999E+003 -9.999E+003 -9.999E+003 -9.999E+003 -9.999E+003 -9.999E+003 -9.999E+003 -9.999E+003 -9.999E+003 -9.999E+003 -9.999E+003 -9.999E+003 -9.999E+003 -9.999E+003 -9.999E+003 -9.999E+003 -9.999E+003 -9.999E+003 -9.999E+003 -9.999E+003 -9.999E+003 -9.999E+003 -9.999E+003 -9.999E+003 -9.999E+003 -9.999E+003 -9.999E+003 -9.999E+003 -9.999E+003 -9.999E+003 -9.999E+003 -9.999E+003 -9.999E+003 -9.999E+003 -9.999E+003 -9.999E+003 -9.999E+003 -9.999E+003 -9.999E+003 -9.999E+003 -9.999E+003 -9.999E+003 -9.999E+003 -9.999E+003 -9.999E+003 -9.999E+003 -9.999E+003 -9.999E+003 -9.999E+003 -9.999E+003 -9.999E+003 -9.999E+003 -9.999E+003 -9.999E+003 -9.999E+003 -9.999E+003 -9.999E+003 -9.999E+003 -9.999E+003 -9.999E+003 -9.999E+003 -9.999E+003 -9.999E+003 -9.999E+003 -9.999E+003 -9.999E+003 -9.999E+003 -9.999E+003 -9.999E+003 -9.999E+003 -9.999E+003 -9.999E+003 -9.999E+003 -9.999E+003 -9.999E+003 -9.999E+003 -9.999E+003 -9.999E+003 -9.999E+003 -9.999E+003 -9.999E+003 -9.999E+003 -9.999E+003 -9.999E+003 -9.999E+003 -9.999E+003 -9.999E+003 -9.999E+003 -9.999E+003 -9.999E+003 -9.999E+003 -9.999E+003 -9.999E+003 -9.999E+003 -9.999E+003 -9.999E+003 -9.999E+003 -9.999E+003 -9.999E+003 -9.999E+003 -9.999E+003 -9.999E+003 -9.999E+003 -9.999E+003 -9.999E+003 -9.999E+003 -9.999E+003 -9.999E+003 -9.999E+003 -9.999E+003 -9.999E+003 -9.999E+003 -9.999E+003 -9.999E+003 -9.999E+003 -9.999E+003 -9.999E+003 -9.999E+003
 -9.999E+003 -9.999E+003 -9.999E+003 -9.999E+003 -9.999E+003 -9.999E+003 -9.999E+003 -9.999E+003 -9.999E+003 -9.999E+003 -9.999E+003 -9.999E+003 -9.999E+003 -9.999E+003 -9.999E+003 -9.999E+003 -9.999E+003 -9.999E+003 -9.999E+003 -9.999E+003 -9.999E+003 -9.999E+003 -9.999E+003 -9.999E+003 -9.999E+003 -9.999E+003 -9.999E+003 -9.999E+003 -9.999E+003 -9.999E+003 -9.999E+003 -9.999E+003 -9.999E+003 -9.999E+003 -9.999E+003 -9.999E+003 -9.999E+003 -9.999E+003 -9.999E+003 -9.999E+003 -9.999E+003 -9.999E+003 -9.999E+003 -9.999E+003 -9.999E+003 -9.999E+003 -9.999E+003 -9.999E+003 -9.999E+003 -9.999E+003 -9.999E+003 -9.999E+003 -9.999E+003 -9.999E+003 -9.999E+003 -9.999E+003 -9.999E+003 -9.999E+003 -9.999E+003 -9.999E+003 -9.999E+003 -9.999E+003 -9.999E+003 -9.999E+003 -9.999E+003 -9.999E+003 -9.999E+003 -9.999E+003 -9.999E+003 -9.999E+003 -9.999E+003 -9.999E+003 -9.999E+003 -9.999E+003 -9.999E+003 -9.999E+003 -9.999E+003 -9.999E+003 -9.999E+003 -9.999E+003 -9.999E+003 -9.999E+003 -9.999E+003 -9.999E+003 -9.999E+003 -9.999E+003 -9.999E+003 -9.999E+003 -9.999E+003 -9.999E+003 -9.999E+003 -9.999E+003 -9.999E+003 -9.999E+003 -9.999E+003 -9.999E+003 -9.999E+003 -9.999E+003 -9.999E+003 -9.999E+003 -9.999E+003 -9.999E+003 -9.999E+003 -9.999E+003 -9.999E+003 -9.999E+003 -9.999E+003 -9.999E+003 -9.999E+003 -9.999E+003 -9.999E+003 -9.999E+003 -9.999E+003 -9.999E+003 -9.999E+003 -9.999E+003 -9.999E+003 -9.999E+003 -9.999E+003 -9.999E+003 -9.999E+003 -9.999E+003 -9.999E+003 -9.999E+003 -9.999E+003 -9.999E+003 -9.999E+003 -9.999E+003 -9.999E+003 -9.999E+003 -9.999E+003 -9.999E+003 -9.999E+003 -9.999E+003 -9.999E+003 -9.999E+003 -9.999E+003 -9.999E+003 -9.999E+003 -9.999E+003 -9.999E+003 -9.999E+003 -9.999E+003 -9.999E+003 -9.999E+003 -9.999E+003 -9.999E+003 -9.999E+003 -9.999E+003 -9.999E+003
 -9.999E+003 -9.999E+003 -9.999E+003 -9.999E+003 -9.999E+003 -9.999E+003 -9.999E+003 -9.999E+003 -9.999E+003 -9.999E+003 -9.999E+003 -9.999E+003 -9.999E+003 -9.999E+003 -9.999E+003 -9.999E+003 -9.999E+003 -9.999E+003 -9.999E+003 -9.999E+003 -9.999E+003 -9.999E+003 -9.999E+003 -9.999E+003 -9.999E+003 -9.999E+003 -9.999E+003 -9.999E+003 -9.999E+003 -9.999E+003 -9.999E+003 -9.999E+003 -9.999E+003 -9.999E+003 -9.999E+003 -9.999E+003 -9.999E+003 -9.999E+003 -9.999E+003 -9.999E+003 -9.999E+003 -9.999E+003 -9.999E+003 -9.999E+003 -9.999E+003 -9.999E+003 -9.999E+003 -9.999E+003 -9.999E+003 -9.999E+003 -9.999E+003 -9.999E+003 -9.999E+003 -9.999E+003 -9.999E+003 -9.999E+003 -9.999E+003 -9.999E+003 -9.999E+003 -9.999E+003 -9.999E+003 -9.999E+003 -9.999E+003 -9.999E+003 -9.999E+003 -9.999E+003 -9.999E+003 -9.999E+003 -9.999E+003 -9.999E+003 -9.999E+003 -9.999E+003 -9.999E+003 -9.999E+003 -9.999E+003 -9.999E+003 -9.999E+003 -9.999E+003 -9.999E+003 -9.999E+003 -9.999E+003 -9.999E+003 -9.999E+003 -9.999E+003 -9.999E+003 -9.999E+003 -9.999E+003 -9.999E+003 -9.999E+003 -9.999E+003 -9.999E+003 -9.999E+003 -9.999E+003 -9.999E+003 -9.999E+003 -9.999E+003 -9.999E+003 -9.999E+003 -9.999E+003 -9.999E+003 -9.999E+003 -9.999E+003 -9.999E+003 -9.999E+003 -9.999E+003 -9.999E+003 -9.999E+003 -9.999E+003 -9.999E+003 -9.999E+003 -9.999E+003 -9.999E+003 -9.999E+003 -9.999E+003 -9.999E+003 -9.999E+003 -9.999E+003 -9.999E+003 -9.999E+003 -9.999E+003 -9.999E+003 -9.999E+003 -9.999E+003 -9.999E+003 -9.999E+003 -9.999E+003 -9.999E+003 -9.999E+003 -9.999E+003 -9.999E+003 -9.999E+003 -9.999E+003 -9.999E+003 -9.999E+003 -9.999E+003 -9.999E+003 -9.999E+003 -9.999E+003 -9.999E+003 -9.999E+003 -9.999E+003 -9.999E+003 -9.999E+003 -9.999E+003 -9.999E+003 -9.999E+003 -9.999E+003 -9.999E+003 -9.999E+003 -9.999E+003
 -9.999E+003 -9.999E+003 -9.999E+003 -9.999E+003 -9.999E+003 -9.999E+003 -9.999E+003 -9.999E+003 -9.999E+003 -9.999E+003 -9.999E+003 -9.999E+003 -9.999E+003 -9.999E+003 -9.999E+003 -9.999E+003 -9.999E+003 -9.999E+003 -9.999E+003 -9.999E+003 -9.999E+003 -9.999E+003 -9.999E+003 -9.999E+003 -9.999E+003 -9.999E+003 -9.999E+003 -9.999E+003 -9.999E+003 -9.999E+003 -9.999E+003 -9.999E+003 -9.999E+003 -9.999E+003 -9.999E+003 -9.999E+003 -9.999E+003 -9.999E+003 -9.999E+003 -9.999E+003 -9.999E+003 -9.999E+003 -9.999E+003 -9.999E+003 -9.999E+003 -9.999E+003 -9.999E+003 -9.999E+003 -9.999E+003 -9.999E+003 -9.999E+003 -9.999E+003 -9.999E+003 -9.999E+003 -9.999E+003 -9.999E+003 -9.999E+003 -9.999E+003 -9.999E+003 -9.999E+003 -9.999E+003 -9.999E+003 -9.999E+003 -9.999E+003 -9.999E+003 -9.999E+003 -9.999E+003 -9.999E+003 -9.999E+003 -9.999E+003 -9.999E+003 -9.999E+003 -9.999E+003 -9.999E+003 -9.999E+003 -9.999E+003 -9.999E+003 -9.999E+003 -9.999E+003 -9.999E+003 -9.999E+003 -9.999E+003 -9.999E+003 -9.999E+003 -9.999E+003 -9.999E+003 -9.999E+003 -9.999E+003 -9.999E+003 -9.999E+003 -9.999E+003 -9.999E+003 -9.999E+003 -9.999E+003 -9.999E+003 -9.999E+003 -9.999E+003 -9.999E+003 -9.999E+003 -9.999E+003 -9.999E+003 -9.999E+003 -9.999E+003 -9.999E+003 -9.999E+003 -9.999E+003 -9.999E+003 -9.999E+003 -9.999E+003 -9.999E+003 -9.999E+003 -9.999E+003 -9.999E+003 -9.999E+003 -9.999E+003 -9.999E+003 -9.999E+003 -9.999E+003 -9.999E+003 -9.999E+003 -9.999E+003 -9.999E+003 -9.999E+003 -9.999E+003 -9.999E+003 -9.999E+003 -9.999E+003 -9.999E+003 -9.999E+003 -9.999E+003 -9.999E+003 -9.999E+003 -9.999E+003 -9.999E+003 -9.999E+003 -9.999E+003 -9.999E+003 -9.999E+003 -9.999E+003 -9.999E+003 -9.999E+003 -9.999E+003 -9.999E+003 -9.999E+003 -9.999E+003 -9.999E+003 -9.999E+003 -9.999E+003 -9.999E+003 -9.999E+003
 -9.999E+003 -9.999E+003 -9.999E+003 -9.999E+003 -9.999E+003 -9.999E+003 -9.999E+003 -9.999E+003 -9.999E+003 -9.999E+003 -9.999E+003 -9.999E+003 -9.999E+003 -9.999E+003 -9.999E+003 -9.999E+003 -9.999E+003 -9.999E+003 -9.999E+003 -9.999E+003 -9.999E+003 -9.999E+003 -9.999E+003 -9.999E+003 -9.999E+003 -9.999E+003 -9.999E+003 -9.999E+003 -9.999E+003 -9.999E+003 -9.999E+003 -9.999E+003 -9.999E+003 -9.999E+003 -9.999E+003 -9.999E+003 -9.999E+003 -9.999E+003 -9.999E+003 -9.999E+003 -9.999E+003 -9.999E+003 -9.999E+003 -9.999E+003 -9.999E+003 -9.999E+003 -9.999E+003 -9.999E+003 -9.999E+003 -9.999E+003 -9.999E+003 -9.999E+003 -9.999E+003 -9.999E+003 -9.999E+003 -9.999E+003 -9.999E+003 -9.999E+003 -9.999E+003 -9.999E+003 -9.999E+003 -9.999E+003 -9.999E+003 -9.999E+003 -9.999E+003 -9.999E+003 -9.999E+003 -9.999E+003 -9.999E+003 -9.999E+003 -9.999E+003 -9.999E+003 -9.999E+003 -9.999E+003 -9.999E+003 -9.999E+003 -9.999E+003 -9.999E+003 -9.999E+003 -9.999E+003 -9.999E+003 -9.999E+003 -9.999E+003 -9.999E+003 -9.999E+003 -9.999E+003 -9.999E+003 -9.999E+003 -9.999E+003 -9.999E+003 -9.999E+003 -9.999E+003 -9.999E+003 -9.999E+003 -9.999E+003 -9.999E+003 -9.999E+003 -9.999E+003 -9.999E+003 -9.999E+003 -9.999E+003 -9.999E+003 -9.999E+003 -9.999E+003 -9.999E+003 -9.999E+003 -9.999E+003 -9.999E+003 -9.999E+003 -9.999E+003 -9.999E+003 -9.999E+003 -9.999E+003 -9.999E+003 -9.999E+003 -9.999E+003 -9.999E+003 -9.999E+003 -9.999E+003 -9.999E+003 -9.999E+003 -9.999E+003 -9.999E+003 -9.999E+003 -9.999E+003 -9.999E+003 -9.999E+003 -9.999E+003 -9.999E+003 -9.999E+003 -9.999E+003 -9.999E+003 -9.999E+003 -9.999E+003 -9.999E+003 -9.999E+003 -9.999E+003 -9.999E+003 -9.999E+003 -9.999E+003 -9.999E+003 -9.999E+003 -9.999E+003 -9.999E+003 -9.999E+003 -9.999E+003 -9.999E+003 -9.999E+003 -9.999E+003 -9.999E+003
 -9.999E+003 -9.999E+003 -9.999E+003 -9.999E+003 -9.999E+003 -9.999E+003 -9.999E+003 -9.999E+003 -9.999E+003 -9.999E+003 -9.999E+003 -9.999E+003 -9.999E+003 -9.999E+003 -9.999E+003 -9.999E+003 -9.999E+003 -9.999E+003 -9.999E+003 -9.999E+003 -9.999E+003 -9.999E+003 -9.999E+003 -9.999E+003 -9.999E+003 -9.999E+003 -9.999E+003 -9.999E+003 -9.999E+003 -9.999E+003 -9.999E+003 -9.999E+003 -9.999E+003 -9.999E+003 -9.999E+003 -9.999E+003 -9.999E+003 -9.999E+003 -9.999E+003 -9.999E+003 -9.999E+003 -9.999E+003 -9.999E+003 -9.999E+003 -9.999E+003 -9.999E+003 -9.999E+003 -9.999E+003 -9.999E+003 -9.999E+003 -9.999E+003 -9.999E+003 -9.999E+003 -9.999E+003 -9.999E+003 -9.999E+003 -9.999E+003 -9.999E+003 -9.999E+003 -9.999E+003 -9.999E+003 -9.999E+003 -9.999E+003 -9.999E+003 -9.999E+003 -9.999E+003 -9.999E+003 -9.999E+003 -9.999E+003 -9.999E+003 -9.999E+003 -9.999E+003 -9.999E+003 -9.999E+003 -9.999E+003 -9.999E+003 -9.999E+003 -9.999E+003 -9.999E+003 -9.999E+003 -9.999E+003 -9.999E+003 -9.999E+003 -9.999E+003 -9.999E+003 -9.999E+003 -9.999E+003 -9.999E+003 -9.999E+003 -9.999E+003 -9.999E+003 -9.999E+003 -9.999E+003 -9.999E+003 -9.999E+003 -9.999E+003 -9.999E+003 -9.999E+003 -9.999E+003 -9.999E+003 -9.999E+003 -9.999E+003 -9.999E+003 -9.999E+003 -9.999E+003 -9.999E+003 -9.999E+003 -9.999E+003 -9.999E+003 -9.999E+003 -9.999E+003 -9.999E+003 -9.999E+003 -9.999E+003 -9.999E+003 -9.999E+003 -9.999E+003 -9.999E+003 -9.999E+003 -9.999E+003 -9.999E+003 -9.999E+003 -9.999E+003 -9.999E+003 -9.999E+003 -9.999E+003 -9.999E+003 -9.999E+003 -9.999E+003 -9.999E+003 -9.999E+003 -9.999E+003 -9.999E+003 -9.999E+003 -9.999E+003 -9.999E+003 -9.999E+003 -9.999E+003 -9.999E+003 -9.999E+003 -9.999E+003 -9.999E+003 -9.999E+003 -9.999E+003 -9.999E+003 -9.999E+003 -9.999E+003 -9.999E+003 -9.999E+003 -9.999E+003
 -9.999E+003 -9.999E+003 -9.999E+003 -9.999E+003 -9.999E+003 -9.999E+003 -9.999E+003 -9.999E+003 -9.999E+003 -9.999E+003 -9.999E+003 -9.999E+003 -9.999E+003 -9.999E+003 -9.999E+003 -9.999E+003 -9.999E+003 -9.999E+003 -9.999E+003 -9.999E+003 -9.999E+003 -9.999E+003 -9.999E+003 -9.999E+003 -9.999E+003 -9.999E+003 -9.999E+003 -9.999E+003 -9.999E+003 -9.999E+003 -9.999E+003 -9.999E+003 -9.999E+003 -9.999E+003 -9.999E+003 -9.999E+003 -9.999E+003 -9.999E+003 -9.999E+003 -9.999E+003 -9.999E+003 -9.999E+003 -9.999E+003 -9.999E+003 -9.999E+003 -9.999E+003 -9.999E+003 -9.999E+003 -9.999E+003 -9.999E+003 -9.999E+003 -9.999E+003 -9.999E+003 -9.999E+003 -9.999E+003 -9.999E+003 -9.999E+003 -9.999E+003 -9.999E+003 -9.999E+003 -9.999E+003 -9.999E+003 -9.999E+003 -9.999E+003 -9.999E+003 -9.999E+003 -9.999E+003 -9.999E+003 -9.999E+003 -9.999E+003 -9.999E+003 -9.999E+003 -9.999E+003 -9.999E+003 -9.999E+003 -9.999E+003 -9.999E+003 -9.999E+003 -9.999E+003 -9.999E+003 -9.999E+003 -9.999E+003 -9.999E+003 -9.999E+003 -9.999E+003 -9.999E+003 -9.999E+003 -9.999E+003 -9.999E+003 -9.999E+003 -9.999E+003 -9.999E+003 -9.999E+003 -9.999E+003 -9.999E+003 -9.999E+003 -9.999E+003 -9.999E+003 -9.999E+003 -9.999E+003 -9.999E+003 -9.999E+003 -9.999E+003 -9.999E+003 -9.999E+003 -9.999E+003 -9.999E+003 -9.999E+003 -9.999E+003 -9.999E+003 -9.999E+003 -9.999E+003 -9.999E+003 -9.999E+003 -9.999E+003 -9.999E+003 -9.999E+003 -9.999E+003 -9.999E+003 -9.999E+003 -9.999E+003 -9.999E+003 -9.999E+003 -9.999E+003 -9.999E+003 -9.999E+003 -9.999E+003 -9.999E+003 -9.999E+003 -9.999E+003 -9.999E+003 -9.999E+003 -9.999E+003 -9.999E+003 -9.999E+003 -9.999E+003 -9.999E+003 -9.999E+003 -9.999E+003 -9.999E+003 -9.999E+003 -9.999E+003 -9.999E+003 -9.999E+003 -9.999E+003 -9.999E+003 -9.999E+003 -9.999E+003 -9.999E+003 -9.999E+003
 -9.999E+003 -9.999E+003 -9.999E+003 -9.999E+003 -9.999E+003 -9.999E+003 -9.999E+003 -9.999E+003 -9.999E+003 -9.999E+003 -9.999E+003 -9.999E+003 -9.999E+003 -9.999E+003 -9.999E+003 -9.999E+003 -9.999E+003 -9.999E+003 -9.999E+003 -9.999E+003 -9.999E+003 -9.999E+003 -9.999E+003 -9.999E+003 -9.999E+003 -9.999E+003 -9.999E+003 -9.999E+003 -9.999E+003 -9.999E+003 -9.999E+003 -9.999E+003 -9.999E+003 -9.999E+003 -9.999E+003 -9.999E+003 -9.999E+003 -9.999E+003 -9.999E+003 -9.999E+003 -9.999E+003 -9.999E+003 -9.999E+003 -9.999E+003 -9.999E+003 -9.999E+003 -9.999E+003 -9.999E+003 -9.999E+003 -9.999E+003 -9.999E+003 -9.999E+003 -9.999E+003 -9.999E+003 -9.999E+003 -9.999E+003 -9.999E+003 -9.999E+003 -9.999E+003 -9.999E+003 -9.999E+003 -9.999E+003 -9.999E+003 -9.999E+003 -9.999E+003 -9.999E+003 -9.999E+003 -9.999E+003 -9.999E+003 -9.999E+003 -9.999E+003 -9.999E+003 -9.999E+003 -9.999E+003 -9.999E+003 -9.999E+003 -9.999E+003 -9.999E+003 -9.999E+003 -9.999E+003 -9.999E+003 -9.999E+003 -9.999E+003 -9.999E+003 -9.999E+003 -9.999E+003 -9.999E+003 -9.999E+003 -9.999E+003 -9.999E+003 -9.999E+003 -9.999E+003 -9.999E+003 -9.999E+003 -9.999E+003 -9.999E+003 -9.999E+003 -9.999E+003 -9.999E+003 -9.999E+003 -9.999E+003 -9.999E+003 -9.999E+003 -9.999E+003 -9.999E+003 -9.999E+003 -9.999E+003 -9.999E+003 -9.999E+003 -9.999E+003 -9.999E+003 -9.999E+003 -9.999E+003 -9.999E+003 -9.999E+003 -9.999E+003 -9.999E+003 -9.999E+003 -9.999E+003 -9.999E+003 -9.999E+003 -9.999E+003 -9.999E+003 -9.999E+003 -9.999E+003 -9.999E+003 -9.999E+003 -9.999E+003 -9.999E+003 -9.999E+003 -9.999E+003 -9.999E+003 -9.999E+003 -9.999E+003 -9.999E+003 -9.999E+003 -9.999E+003 -9.999E+003 -9.999E+003 -9.999E+003 -9.999E+003 -9.999E+003 -9.999E+003 -9.999E+003 -9.999E+003 -9.999E+003 -9.999E+003 -9.999E+003 -9.999E+003 -9.999E+003
 -9.999E+003 -9.999E+003 -9.999E+003 -9.999E+003 -9.999E+003 -9.999E+003 -9.999E+003 -9.999E+003 -9.999E+003 -9.999E+003 -9.999E+003 -9.999E+003 -9.999E+003 -9.999E+003 -9.999E+003 -9.999E+003 -9.999E+003 -9.999E+003 -9.999E+003 -9.999E+003 -9.999E+003 -9.999E+003 -9.999E+003 -9.999E+003 -9.999E+003 -9.999E+003 -9.999E+003 -9.999E+003 -9.999E+003 -9.999E+003 -9.999E+003 -9.999E+003 -9.999E+003 -9.999E+003 -9.999E+003 -9.999E+003 -9.999E+003 -9.999E+003 -9.999E+003 -9.999E+003 -9.999E+003 -9.999E+003 -9.999E+003 -9.999E+003 -9.999E+003 -9.999E+003 -9.999E+003 -9.999E+003 -9.999E+003 -9.999E+003 -9.999E+003 -9.999E+003 -9.999E+003 -9.999E+003 -9.999E+003 -9.999E+003 -9.999E+003 -9.999E+003 -9.999E+003 -9.999E+003 -9.999E+003 -9.999E+003 -9.999E+003 -9.999E+003 -9.999E+003 -9.999E+003 -9.999E+003 -9.999E+003 -9.999E+003 -9.999E+003 -9.999E+003 -9.999E+003 -9.999E+003 -9.999E+003 -9.999E+003 -9.999E+003 -9.999E+003 -9.999E+003 -9.999E+003 -9.999E+003 -9.999E+003 -9.999E+003 -9.999E+003 -9.999E+003 -9.999E+003 -9.999E+003 -9.999E+003 -9.999E+003 -9.999E+003 -9.999E+003 -9.999E+003 -9.999E+003 -9.999E+003 -9.999E+003 -9.999E+003 -9.999E+003 -9.999E+003 -9.999E+003 -9.999E+003 -9.999E+003 -9.999E+003 -9.999E+003 -9.999E+003 -9.999E+003 -9.999E+003 -9.999E+003 -9.999E+003 -9.999E+003 -9.999E+003 -9.999E+003 -9.999E+003 -9.999E+003 -9.999E+003 -9.999E+003 -9.999E+003 -9.999E+003 -9.999E+003 -9.999E+003 -9.999E+003 -9.999E+003 -9.999E+003 -9.999E+003 -9.999E+003 -9.999E+003 -9.999E+003 -9.999E+003 -9.999E+003 -9.999E+003 -9.999E+003 -9.999E+003 -9.999E+003 -9.999E+003 -9.999E+003 -9.999E+003 -9.999E+003 -9.999E+003 -9.999E+003 -9.999E+003 -9.999E+003 -9.999E+003 -9.999E+003 -9.999E+003 -9.999E+003 -9.999E+003 -9.999E+003 -9.999E+003 -9.999E+003 -9.999E+003 -9.999E+003 -9.999E+003
 -9.999E+003 -9.999E+003 -9.999E+003 -9.999E+003 -9.999E+003 -9.999E+003 -9.999E+003 -9.999E+003 -9.999E+003 -9.999E+003 -9.999E+003 -9.999E+003 -9.999E+003 -9.999E+003 -9.999E+003 -9.999E+003 -9.999E+003 -9.999E+003 -9.999E+003 -9.999E+003 -9.999E+003 -9.999E+003 -9.999E+003 -9.999E+003 -9.999E+003 -9.999E+003 -9.999E+003 -9.999E+003 -9.999E+003 -9.999E+003 -9.999E+003 -9.999E+003 -9.999E+003 -9.999E+003 -9.999E+003 -9.999E+003 -9.999E+003 -9.999E+003 -9.999E+003 -9.999E+003 -9.999E+003 -9.999E+003 -9.999E+003 -9.999E+003 -9.999E+003 -9.999E+003 -9.999E+003 -9.999E+003 -9.999E+003 -9.999E+003 -9.999E+003 -9.999E+003 -9.999E+003 -9.999E+003 -9.999E+003 -9.999E+003 -9.999E+003 -9.999E+003 -9.999E+003 -9.999E+003 -9.999E+003 -9.999E+003 -9.999E+003 -9.999E+003 -9.999E+003 -9.999E+003 -9.999E+003 -9.999E+003 -9.999E+003 -9.999E+003 -9.999E+003 -9.999E+003 -9.999E+003 -9.999E+003 -9.999E+003 -9.999E+003 -9.999E+003 -9.999E+003 -9.999E+003 -9.999E+003 -9.999E+003 -9.999E+003 -9.999E+003 -9.999E+003 -9.999E+003 -9.999E+003 -9.999E+003 -9.999E+003 -9.999E+003 -9.999E+003 -9.999E+003 -9.999E+003 -9.999E+003 -9.999E+003 -9.999E+003 -9.999E+003 -9.999E+003 -9.999E+003 -9.999E+003 -9.999E+003 -9.999E+003 -9.999E+003 -9.999E+003 -9.999E+003 -9.999E+003 -9.999E+003 -9.999E+003 -9.999E+003 -9.999E+003 -9.999E+003 -9.999E+003 -9.999E+003 -9.999E+003 -9.999E+003 -9.999E+003 -9.999E+003 -9.999E+003 -9.999E+003 -9.999E+003 -9.999E+003 -9.999E+003 -9.999E+003 -9.999E+003 -9.999E+003 -9.999E+003 -9.999E+003 -9.999E+003 -9.999E+003 -9.999E+003 -9.999E+003 -9.999E+003 -9.999E+003 -9.999E+003 -9.999E+003 -9.999E+003 -9.999E+003 -9.999E+003 -9.999E+003 -9.999E+003 -9.999E+003 -9.999E+003 -9.999E+003 -9.999E+003 -9.999E+003 -9.999E+003 -9.999E+003 -9.999E+003 -9.999E+003 -9.999E+003 -9.999E+003
 -9.999E+003 -9.999E+003 -9.999E+003 -9.999E+003 -9.999E+003 -9.999E+003 -9.999E+003 -9.999E+003 -9.999E+003 -9.999E+003 -9.999E+003 -9.999E+003 -9.999E+003 -9.999E+003 -9.999E+003 -9.999E+003 -9.999E+003 -9.999E+003 -9.999E+003 -9.999E+003 -9.999E+003 -9.999E+003 -9.999E+003 -9.999E+003 -9.999E+003 -9.999E+003 -9.999E+003 -9.999E+003 -9.999E+003 -9.999E+003 -9.999E+003 -9.999E+003 -9.999E+003 -9.999E+003 -9.999E+003 -9.999E+003 -9.999E+003 -9.999E+003 -9.999E+003 -9.999E+003 -9.999E+003 -9.999E+003 -9.999E+003 -9.999E+003 -9.999E+003 -9.999E+003 -9.999E+003 -9.999E+003 -9.999E+003 -9.999E+003 -9.999E+003 -9.999E+003 -9.999E+003 -9.999E+003 -9.999E+003 -9.999E+003 -9.999E+003 -9.999E+003 -9.999E+003 -9.999E+003 -9.999E+003 -9.999E+003 -9.999E+003 -9.999E+003 -9.999E+003 -9.999E+003 -9.999E+003 -9.999E+003 -9.999E+003 -9.999E+003 -9.999E+003 -9.999E+003 -9.999E+003 -9.999E+003 -9.999E+003 -9.999E+003 -9.999E+003 -9.999E+003 -9.999E+003 -9.999E+003 -9.999E+003 -9.999E+003 -9.999E+003 -9.999E+003 -9.999E+003 -9.999E+003 -9.999E+003 -9.999E+003 -9.999E+003 -9.999E+003 -9.999E+003 -9.999E+003 -9.999E+003 -9.999E+003 -9.999E+003 -9.999E+003 -9.999E+003 -9.999E+003 -9.999E+003 -9.999E+003 -9.999E+003 -9.999E+003 -9.999E+003 -9.999E+003 -9.999E+003 -9.999E+003 -9.999E+003 -9.999E+003 -9.999E+003 -9.999E+003 -9.999E+003 -9.999E+003 -9.999E+003 -9.999E+003 -9.999E+003 -9.999E+003 -9.999E+003 -9.999E+003 -9.999E+003 -9.999E+003 -9.999E+003 -9.999E+003 -9.999E+003 -9.999E+003 -9.999E+003 -9.999E+003 -9.999E+003 -9.999E+003 -9.999E+003 -9.999E+003 -9.999E+003 -9.999E+003 -9.999E+003 -9.999E+003 -9.999E+003 -9.999E+003 -9.999E+003 -9.999E+003 -9.999E+003 -9.999E+003 -9.999E+003 -9.999E+003 -9.999E+003 -9.999E+003 -9.999E+003 -9.999E+003 -9.999E+003 -9.999E+003 -9.999E+003 -9.999E+003
 -9.999E+003 -9.999E+003 -9.999E+003 -9.999E+003 -9.999E+003 -9.999E+003 -9.999E+003 -9.999E+003 -9.999E+003 -9.999E+003 -9.999E+003 -9.999E+003 -9.999E+003 -9.999E+003 -9.999E+003 -9.999E+003 -9.999E+003 -9.999E+003 -9.999E+003 -9.999E+003 -9.999E+003 -9.999E+003 -9.999E+003 -9.999E+003 -9.999E+003 -9.999E+003 -9.999E+003 -9.999E+003 -9.999E+003 -9.999E+003 -9.999E+003 -9.999E+003 -9.999E+003 -9.999E+003 -9.999E+003 -9.999E+003 -9.999E+003 -9.999E+003 -9.999E+003 -9.999E+003 -9.999E+003 -9.999E+003 -9.999E+003 -9.999E+003 -9.999E+003 -9.999E+003 -9.999E+003 -9.999E+003 -9.999E+003 -9.999E+003 -9.999E+003 -9.999E+003 -9.999E+003 -9.999E+003 -9.999E+003 -9.999E+003 -9.999E+003 -9.999E+003 -9.999E+003 -9.999E+003 -9.999E+003 -9.999E+003 -9.999E+003 -9.999E+003 -9.999E+003 -9.999E+003 -9.999E+003 -9.999E+003 -9.999E+003 -9.999E+003 -9.999E+003 -9.999E+003 -9.999E+003 -9.999E+003 -9.999E+003 -9.999E+003 -9.999E+003 -9.999E+003 -9.999E+003 -9.999E+003 -9.999E+003 -9.999E+003 -9.999E+003 -9.999E+003 -9.999E+003 -9.999E+003 -9.999E+003 -9.999E+003 -9.999E+003 -9.999E+003 -9.999E+003 -9.999E+003 -9.999E+003 -9.999E+003 -9.999E+003 -9.999E+003 -9.999E+003 -9.999E+003 -9.999E+003 -9.999E+003 -9.999E+003 -9.999E+003 -9.999E+003 -9.999E+003 -9.999E+003 -9.999E+003 -9.999E+003 -9.999E+003 -9.999E+003 -9.999E+003 -9.999E+003 -9.999E+003 -9.999E+003 -9.999E+003 -9.999E+003 -9.999E+003 -9.999E+003 -9.999E+003 -9.999E+003 -9.999E+003 -9.999E+003 -9.999E+003 -9.999E+003 -9.999E+003 -9.999E+003 -9.999E+003 -9.999E+003 -9.999E+003 -9.999E+003 -9.999E+003 -9.999E+003 -9.999E+003 -9.999E+003 -9.999E+003 -9.999E+003 -9.999E+003 -9.999E+003 -9.999E+003 -9.999E+003 -9.999E+003 -9.999E+003 -9.999E+003 -9.999E+003 -9.999E+003 -9.999E+003 -9.999E+003 -9.999E+003 -9.999E+003 -9.999E+003 -9.999E+003
 -9.999E+003 -9.999E+003 -9.999E+003 -9.999E+003 -9.999E+003 -9.999E+003 -9.999E+003 -9.999E+003 -9.999E+003 -9.999E+003 -9.999E+003 -9.999E+003 -9.999E+003 -9.999E+003 -9.999E+003 -9.999E+003 -9.999E+003 -9.999E+003 -9.999E+003 -9.999E+003 -9.999E+003 -9.999E+003 -9.999E+003 -9.999E+003 -9.999E+003 -9.999E+003 -9.999E+003 -9.999E+003 -9.999E+003 -9.999E+003 -9.999E+003 -9.999E+003 -9.999E+003 -9.999E+003 -9.999E+003 -9.999E+003 -9.999E+003 -9.999E+003 -9.999E+003 -9.999E+003 -9.999E+003 -9.999E+003 -9.999E+003 -9.999E+003 -9.999E+003 -9.999E+003 -9.999E+003 -9.999E+003 -9.999E+003 -9.999E+003 -9.999E+003 -9.999E+003 -9.999E+003 -9.999E+003 -9.999E+003 -9.999E+003 -9.999E+003 -9.999E+003 -9.999E+003 -9.999E+003 -9.999E+003 -9.999E+003 -9.999E+003 -9.999E+003 -9.999E+003 -9.999E+003 -9.999E+003 -9.999E+003 -9.999E+003 -9.999E+003 -9.999E+003 -9.999E+003 -9.999E+003 -9.999E+003 -9.999E+003 -9.999E+003 -9.999E+003 -9.999E+003 -9.999E+003 -9.999E+003 -9.999E+003 -9.999E+003 -9.999E+003 -9.999E+003 -9.999E+003 -9.999E+003 -9.999E+003 -9.999E+003 -9.999E+003 -9.999E+003 -9.999E+003 -9.999E+003 -9.999E+003 -9.999E+003 -9.999E+003 -9.999E+003 -9.999E+003 -9.999E+003 -9.999E+003 -9.999E+003 -9.999E+003 -9.999E+003 -9.999E+003 -9.999E+003 -9.999E+003 -9.999E+003 -9.999E+003 -9.999E+003 -9.999E+003 -9.999E+003 -9.999E+003 -9.999E+003 -9.999E+003 -9.999E+003 -9.999E+003 -9.999E+003 -9.999E+003 -9.999E+003 -9.999E+003 -9.999E+003 -9.999E+003 -9.999E+003 -9.999E+003 -9.999E+003 -9.999E+003 -9.999E+003 -9.999E+003 -9.999E+003 -9.999E+003 -9.999E+003 -9.999E+003 -9.999E+003 -9.999E+003 -9.999E+003 -9.999E+003 -9.999E+003 -9.999E+003 -9.999E+003 -9.999E+003 -9.999E+003 -9.999E+003 -9.999E+003 -9.999E+003 -9.999E+003 -9.999E+003 -9.999E+003 -9.999E+003 -9.999E+003 -9.999E+003 -9.999E+003
 -9.999E+003 -9.999E+003 -9.999E+003 -9.999E+003 -9.999E+003 -9.999E+003 -9.999E+003 -9.999E+003 -9.999E+003 -9.999E+003 -9.999E+003 -9.999E+003 -9.999E+003 -9.999E+003 -9.999E+003 -9.999E+003 -9.999E+003 -9.999E+003 -9.999E+003 -9.999E+003 -9.999E+003 -9.999E+003 -9.999E+003 -9.999E+003 -9.999E+003 -9.999E+003 -9.999E+003 -9.999E+003 -9.999E+003 -9.999E+003 -9.999E+003 -9.999E+003 -9.999E+003 -9.999E+003 -9.999E+003 -9.999E+003 -9.999E+003 -9.999E+003 -9.999E+003 -9.999E+003 -9.999E+003 -9.999E+003 -9.999E+003 -9.999E+003 -9.999E+003 -9.999E+003 -9.999E+003 -9.999E+003 -9.999E+003 -9.999E+003 -9.999E+003 -9.999E+003 -9.999E+003 -9.999E+003 -9.999E+003 -9.999E+003 -9.999E+003 -9.999E+003 -9.999E+003 -9.999E+003 -9.999E+003 -9.999E+003 -9.999E+003 -9.999E+003 -9.999E+003 -9.999E+003 -9.999E+003 -9.999E+003 -9.999E+003 -9.999E+003 -9.999E+003 -9.999E+003 -9.999E+003 -9.999E+003 -9.999E+003 -9.999E+003 -9.999E+003 -9.999E+003 -9.999E+003 -9.999E+003 -9.999E+003 -9.999E+003 -9.999E+003 -9.999E+003 -9.999E+003 -9.999E+003 -9.999E+003 -9.999E+003 -9.999E+003 -9.999E+003 -9.999E+003 -9.999E+003 -9.999E+003 -9.999E+003 -9.999E+003 -9.999E+003 -9.999E+003 -9.999E+003 -9.999E+003 -9.999E+003 -9.999E+003 -9.999E+003 -9.999E+003 -9.999E+003 -9.999E+003 -9.999E+003 -9.999E+003 -9.999E+003 -9.999E+003 -9.999E+003 -9.999E+003 -9.999E+003 -9.999E+003 -9.999E+003 -9.999E+003 -9.999E+003 -9.999E+003 -9.999E+003 -9.999E+003 -9.999E+003 -9.999E+003 -9.999E+003 -9.999E+003 -9.999E+003 -9.999E+003 -9.999E+003 -9.999E+003 -9.999E+003 -9.999E+003 -9.999E+003 -9.999E+003 -9.999E+003 -9.999E+003 -9.999E+003 -9.999E+003 -9.999E+003 -9.999E+003 -9.999E+003 -9.999E+003 -9.999E+003 -9.999E+003 -9.999E+003 -9.999E+003 -9.999E+003 -9.999E+003 -9.999E+003 -9.999E+003 -9.999E+003 -9.999E+003 -9.999E+003
 -9.999E+003 -9.999E+003 -9.999E+003 -9.999E+003 -9.999E+003 -9.999E+003 -9.999E+003 -9.999E+003 -9.999E+003 -9.999E+003 -9.999E+003 -9.999E+003 -9.999E+003 -9.999E+003 -9.999E+003 -9.999E+003 -9.999E+003 -9.999E+003 -9.999E+003 -9.999E+003 -9.999E+003 -9.999E+003 -9.999E+003 -9.999E+003 -9.999E+003 -9.999E+003 -9.999E+003 -9.999E+003 -9.999E+003 -9.999E+003 -9.999E+003 -9.999E+003 -9.999E+003 -9.999E+003 -9.999E+003 -9.999E+003 -9.999E+003 -9.999E+003 -9.999E+003 -9.999E+003 -9.999E+003 -9.999E+003 -9.999E+003 -9.999E+003 -9.999E+003 -9.999E+003 -9.999E+003 -9.999E+003 -9.999E+003 -9.999E+003 -9.999E+003 -9.999E+003 -9.999E+003 -9.999E+003 -9.999E+003 -9.999E+003 -9.999E+003 -9.999E+003 -9.999E+003 -9.999E+003 -9.999E+003 -9.999E+003 -9.999E+003 -9.999E+003 -9.999E+003 -9.999E+003 -9.999E+003 -9.999E+003 -9.999E+003 -9.999E+003 -9.999E+003 -9.999E+003 -9.999E+003 -9.999E+003 -9.999E+003 -9.999E+003 -9.999E+003 -9.999E+003 -9.999E+003 -9.999E+003 -9.999E+003 -9.999E+003 -9.999E+003 -9.999E+003 -9.999E+003 -9.999E+003 -9.999E+003 -9.999E+003 -9.999E+003 -9.999E+003 -9.999E+003 -9.999E+003 -9.999E+003 -9.999E+003 -9.999E+003 -9.999E+003 -9.999E+003 -9.999E+003 -9.999E+003 -9.999E+003 -9.999E+003 -9.999E+003 -9.999E+003 -9.999E+003 -9.999E+003 -9.999E+003 -9.999E+003 -9.999E+003 -9.999E+003 -9.999E+003 -9.999E+003 -9.999E+003 -9.999E+003 -9.999E+003 -9.999E+003 -9.999E+003 -9.999E+003 -9.999E+003 -9.999E+003 -9.999E+003 -9.999E+003 -9.999E+003 -9.999E+003 -9.999E+003 -9.999E+003 -9.999E+003 -9.999E+003 -9.999E+003 -9.999E+003 -9.999E+003 -9.999E+003 -9.999E+003 -9.999E+003 -9.999E+003 -9.999E+003 -9.999E+003 -9.999E+003 -9.999E+003 -9.999E+003 -9.999E+003 -9.999E+003 -9.999E+003 -9.999E+003 -9.999E+003 -9.999E+003 -9.999E+003 -9.999E+003 -9.999E+003 -9.999E+003 -9.999E+003
 -9.999E+003 -9.999E+003 -9.999E+003 -9.999E+003 -9.999E+003 -9.999E+003 -9.999E+003 -9.999E+003 -9.999E+003 -9.999E+003 -9.999E+003 -9.999E+003 -9.999E+003 -9.999E+003 -9.999E+003 -9.999E+003 -9.999E+003 -9.999E+003 -9.999E+003 -9.999E+003 -9.999E+003 -9.999E+003 -9.999E+003 -9.999E+003 -9.999E+003 -9.999E+003 -9.999E+003 -9.999E+003 -9.999E+003 -9.999E+003 -9.999E+003 -9.999E+003 -9.999E+003 -9.999E+003 -9.999E+003 -9.999E+003 -9.999E+003 -9.999E+003 -9.999E+003 -9.999E+003 -9.999E+003 -9.999E+003 -9.999E+003 -9.999E+003 -9.999E+003 -9.999E+003 -9.999E+003 -9.999E+003 -9.999E+003 -9.999E+003 -9.999E+003 -9.999E+003 -9.999E+003 -9.999E+003 -9.999E+003 -9.999E+003 -9.999E+003 -9.999E+003 -9.999E+003 -9.999E+003 -9.999E+003 -9.999E+003 -9.999E+003 -9.999E+003 -9.999E+003 -9.999E+003 -9.999E+003 -9.999E+003 -9.999E+003 -9.999E+003 -9.999E+003 -9.999E+003 -9.999E+003 -9.999E+003 -9.999E+003 -9.999E+003 -9.999E+003 -9.999E+003 -9.999E+003 -9.999E+003 -9.999E+003 -9.999E+003 -9.999E+003 -9.999E+003 -9.999E+003 -9.999E+003 -9.999E+003 -9.999E+003 -9.999E+003 -9.999E+003 -9.999E+003 -9.999E+003 -9.999E+003 -9.999E+003 -9.999E+003 -9.999E+003 -9.999E+003 -9.999E+003 -9.999E+003 -9.999E+003 -9.999E+003 -9.999E+003 -9.999E+003 -9.999E+003 -9.999E+003 -9.999E+003 -9.999E+003 -9.999E+003 -9.999E+003 -9.999E+003 -9.999E+003 -9.999E+003 -9.999E+003 -9.999E+003 -9.999E+003 -9.999E+003 -9.999E+003 -9.999E+003 -9.999E+003 -9.999E+003 -9.999E+003 -9.999E+003 -9.999E+003 -9.999E+003 -9.999E+003 -9.999E+003 -9.999E+003 -9.999E+003 -9.999E+003 -9.999E+003 -9.999E+003 -9.999E+003 -9.999E+003 -9.999E+003 -9.999E+003 -9.999E+003 -9.999E+003 -9.999E+003 -9.999E+003 -9.999E+003 -9.999E+003 -9.999E+003 -9.999E+003 -9.999E+003 -9.999E+003 -9.999E+003 -9.999E+003 -9.999E+003 -9.999E+003 -9.999E+003
 -9.999E+003 -9.999E+003 -9.999E+003 -9.999E+003 -9.999E+003 -9.999E+003 -9.999E+003 -9.999E+003 -9.999E+003 -9.999E+003 -9.999E+003 -9.999E+003 -9.999E+003 -9.999E+003 -9.999E+003 -9.999E+003 -9.999E+003 -9.999E+003 -9.999E+003 -9.999E+003 -9.999E+003 -9.999E+003 -9.999E+003 -9.999E+003 -9.999E+003 -9.999E+003 -9.999E+003 -9.999E+003 -9.999E+003 -9.999E+003 -9.999E+003 -9.999E+003 -9.999E+003 -9.999E+003 -9.999E+003 -9.999E+003 -9.999E+003 -9.999E+003 -9.999E+003 -9.999E+003 -9.999E+003 -9.999E+003 -9.999E+003 -9.999E+003 -9.999E+003 -9.999E+003 -9.999E+003 -9.999E+003 -9.999E+003 -9.999E+003 -9.999E+003 -9.999E+003 -9.999E+003 -9.999E+003 -9.999E+003 -9.999E+003 -9.999E+003 -9.999E+003 -9.999E+003 -9.999E+003 -9.999E+003 -9.999E+003 -9.999E+003 -9.999E+003 -9.999E+003 -9.999E+003 -9.999E+003 -9.999E+003 -9.999E+003 -9.999E+003 -9.999E+003 -9.999E+003 -9.999E+003 -9.999E+003 -9.999E+003 -9.999E+003 -9.999E+003 -9.999E+003 -9.999E+003 -9.999E+003 -9.999E+003 -9.999E+003 -9.999E+003 -9.999E+003 -9.999E+003 -9.999E+003 -9.999E+003 -9.999E+003 -9.999E+003 -9.999E+003 -9.999E+003 -9.999E+003 -9.999E+003 -9.999E+003 -9.999E+003 -9.999E+003 -9.999E+003 -9.999E+003 -9.999E+003 -9.999E+003 -9.999E+003 -9.999E+003 -9.999E+003 -9.999E+003 -9.999E+003 -9.999E+003 -9.999E+003 -9.999E+003 -9.999E+003 -9.999E+003 -9.999E+003 -9.999E+003 -9.999E+003 -9.999E+003 -9.999E+003 -9.999E+003 -9.999E+003 -9.999E+003 -9.999E+003 -9.999E+003 -9.999E+003 -9.999E+003 -9.999E+003 -9.999E+003 -9.999E+003 -9.999E+003 -9.999E+003 -9.999E+003 -9.999E+003 -9.999E+003 -9.999E+003 -9.999E+003 -9.999E+003 -9.999E+003 -9.999E+003 -9.999E+003 -9.999E+003 -9.999E+003 -9.999E+003 -9.999E+003 -9.999E+003 -9.999E+003 -9.999E+003 -9.999E+003 -9.999E+003 -9.999E+003 -9.999E+003 -9.999E+003 -9.999E+003 -9.999E+003
 -9.999E+003 -9.999E+003 -9.999E+003 -9.999E+003 -9.999E+003 -9.999E+003 -9.999E+003 -9.999E+003 -9.999E+003 -9.999E+003 -9.999E+003 -9.999E+003 -9.999E+003 -9.999E+003 -9.999E+003 -9.999E+003 -9.999E+003 -9.999E+003 -9.999E+003 -9.999E+003 -9.999E+003 -9.999E+003 -9.999E+003 -9.999E+003 -9.999E+003 -9.999E+003 -9.999E+003 -9.999E+003 -9.999E+003 -9.999E+003 -9.999E+003 -9.999E+003 -9.999E+003 -9.999E+003 -9.999E+003 -9.999E+003 -9.999E+003 -9.999E+003 -9.999E+003 -9.999E+003 -9.999E+003 -9.999E+003 -9.999E+003 -9.999E+003 -9.999E+003 -9.999E+003 -9.999E+003 -9.999E+003 -9.999E+003 -9.999E+003 -9.999E+003 -9.999E+003 -9.999E+003 -9.999E+003 -9.999E+003 -9.999E+003 -9.999E+003 -9.999E+003 -9.999E+003 -9.999E+003 -9.999E+003 -9.999E+003 -9.999E+003 -9.999E+003 -9.999E+003 -9.999E+003 -9.999E+003 -9.999E+003 -9.999E+003 -9.999E+003 -9.999E+003 -9.999E+003 -9.999E+003 -9.999E+003 -9.999E+003 -9.999E+003 -9.999E+003 -9.999E+003 -9.999E+003 -9.999E+003 -9.999E+003 -9.999E+003 -9.999E+003 -9.999E+003 -9.999E+003 -9.999E+003 -9.999E+003 -9.999E+003 -9.999E+003 -9.999E+003 -9.999E+003 -9.999E+003 -9.999E+003 -9.999E+003 -9.999E+003 -9.999E+003 -9.999E+003 -9.999E+003 -9.999E+003 -9.999E+003 -9.999E+003 -9.999E+003 -9.999E+003 -9.999E+003 -9.999E+003 -9.999E+003 -9.999E+003 -9.999E+003 -9.999E+003 -9.999E+003 -9.999E+003 -9.999E+003 -9.999E+003 -9.999E+003 -9.999E+003 -9.999E+003 -9.999E+003 -9.999E+003 -9.999E+003 -9.999E+003 -9.999E+003 -9.999E+003 -9.999E+003 -9.999E+003 -9.999E+003 -9.999E+003 -9.999E+003 -9.999E+003 -9.999E+003 -9.999E+003 -9.999E+003 -9.999E+003 -9.999E+003 -9.999E+003 -9.999E+003 -9.999E+003 -9.999E+003 -9.999E+003 -9.999E+003 -9.999E+003 -9.999E+003 -9.999E+003 -9.999E+003 -9.999E+003 -9.999E+003 -9.999E+003 -9.999E+003 -9.999E+003 -9.999E+003 -9.999E+003
 -9.999E+003 -9.999E+003 -9.999E+003 -9.999E+003 -9.999E+003 -9.999E+003 -9.999E+003 -9.999E+003 -9.999E+003 -9.999E+003 -9.999E+003 -9.999E+003 -9.999E+003 -9.999E+003 -9.999E+003 -9.999E+003 -9.999E+003 -9.999E+003 -9.999E+003 -9.999E+003 -9.999E+003 -9.999E+003 -9.999E+003 -9.999E+003 -9.999E+003 -9.999E+003 -9.999E+003 -9.999E+003 -9.999E+003 -9.999E+003 -9.999E+003 -9.999E+003 -9.999E+003 -9.999E+003 -9.999E+003 -9.999E+003 -9.999E+003 -9.999E+003 -9.999E+003 -9.999E+003 -9.999E+003 -9.999E+003 -9.999E+003 -9.999E+003 -9.999E+003 -9.999E+003 -9.999E+003 -9.999E+003 -9.999E+003 -9.999E+003 -9.999E+003 -9.999E+003 -9.999E+003 -9.999E+003 -9.999E+003 -9.999E+003 -9.999E+003 -9.999E+003 -9.999E+003 -9.999E+003 -9.999E+003 -9.999E+003 -9.999E+003 -9.999E+003 -9.999E+003 -9.999E+003 -9.999E+003 -9.999E+003 -9.999E+003 -9.999E+003 -9.999E+003 -9.999E+003 -9.999E+003 -9.999E+003 -9.999E+003 -9.999E+003 -9.999E+003 -9.999E+003 -9.999E+003 -9.999E+003 -9.999E+003 -9.999E+003 -9.999E+003 -9.999E+003 -9.999E+003 -9.999E+003 -9.999E+003 -9.999E+003 -9.999E+003 -9.999E+003 -9.999E+003 -9.999E+003 -9.999E+003 -9.999E+003 -9.999E+003 -9.999E+003 -9.999E+003 -9.999E+003 -9.999E+003 -9.999E+003 -9.999E+003 -9.999E+003 -9.999E+003 -9.999E+003 -9.999E+003 -9.999E+003 -9.999E+003 -9.999E+003 -9.999E+003 -9.999E+003 -9.999E+003 -9.999E+003 -9.999E+003 -9.999E+003 -9.999E+003 -9.999E+003 -9.999E+003 -9.999E+003 -9.999E+003 -9.999E+003 -9.999E+003 -9.999E+003 -9.999E+003 -9.999E+003 -9.999E+003 -9.999E+003 -9.999E+003 -9.999E+003 -9.999E+003 -9.999E+003 -9.999E+003 -9.999E+003 -9.999E+003 -9.999E+003 -9.999E+003 -9.999E+003 -9.999E+003 -9.999E+003 -9.999E+003 -9.999E+003 -9.999E+003 -9.999E+003 -9.999E+003 -9.999E+003 -9.999E+003 -9.999E+003 -9.999E+003 -9.999E+003 -9.999E+003 -9.999E+003
 -9.999E+003 -9.999E+003 -9.999E+003 -9.999E+003 -9.999E+003 -9.999E+003 -9.999E+003 -9.999E+003 -9.999E+003 -9.999E+003 -9.999E+003 -9.999E+003 -9.999E+003 -9.999E+003 -9.999E+003 -9.999E+003 -9.999E+003 -9.999E+003 -9.999E+003 -9.999E+003 -9.999E+003 -9.999E+003 -9.999E+003 -9.999E+003 -9.999E+003 -9.999E+003 -9.999E+003 -9.999E+003 -9.999E+003 -9.999E+003 -9.999E+003 -9.999E+003 -9.999E+003 -9.999E+003 -9.999E+003 -9.999E+003 -9.999E+003 -9.999E+003 -9.999E+003 -9.999E+003 -9.999E+003 -9.999E+003 -9.999E+003 -9.999E+003 -9.999E+003 -9.999E+003 -9.999E+003 -9.999E+003 -9.999E+003 -9.999E+003 -9.999E+003 -9.999E+003 -9.999E+003 -9.999E+003 -9.999E+003 -9.999E+003 -9.999E+003 -9.999E+003 -9.999E+003 -9.999E+003 -9.999E+003 -9.999E+003 -9.999E+003 -9.999E+003 -9.999E+003 -9.999E+003 -9.999E+003 -9.999E+003 -9.999E+003 -9.999E+003 -9.999E+003 -9.999E+003 -9.999E+003 -9.999E+003 -9.999E+003 -9.999E+003 -9.999E+003 -9.999E+003 -9.999E+003 -9.999E+003 -9.999E+003 -9.999E+003 -9.999E+003 -9.999E+003 -9.999E+003 -9.999E+003 -9.999E+003 -9.999E+003 -9.999E+003 -9.999E+003 -9.999E+003 -9.999E+003 -9.999E+003 -9.999E+003 -9.999E+003 -9.999E+003 -9.999E+003 -9.999E+003 -9.999E+003 -9.999E+003 -9.999E+003 -9.999E+003 -9.999E+003 -9.999E+003 -9.999E+003 -9.999E+003 -9.999E+003 -9.999E+003 -9.999E+003 -9.999E+003 -9.999E+003 -9.999E+003 -9.999E+003 -9.999E+003 -9.999E+003 -9.999E+003 -9.999E+003 -9.999E+003 -9.999E+003 -9.999E+003 -9.999E+003 -9.999E+003 -9.999E+003 -9.999E+003 -9.999E+003 -9.999E+003 -9.999E+003 -9.999E+003 -9.999E+003 -9.999E+003 -9.999E+003 -9.999E+003 -9.999E+003 -9.999E+003 -9.999E+003 -9.999E+003 -9.999E+003 -9.999E+003 -9.999E+003 -9.999E+003 -9.999E+003 -9.999E+003 -9.999E+003 -9.999E+003 -9.999E+003 -9.999E+003 -9.999E+003 -9.999E+003 -9.999E+003 -9.999E+003
 -9.999E+003 -9.999E+003 -9.999E+003 -9.999E+003 -9.999E+003 -9.999E+003 -9.999E+003 -9.999E+003 -9.999E+003 -9.999E+003 -9.999E+003 -9.999E+003 -9.999E+003 -9.999E+003 -9.999E+003 -9.999E+003 -9.999E+003 -9.999E+003 -9.999E+003 -9.999E+003 -9.999E+003 -9.999E+003 -9.999E+003 -9.999E+003 -9.999E+003 -9.999E+003 -9.999E+003 -9.999E+003 -9.999E+003 -9.999E+003 -9.999E+003 -9.999E+003 -9.999E+003 -9.999E+003 -9.999E+003 -9.999E+003 -9.999E+003 -9.999E+003 -9.999E+003 -9.999E+003 -9.999E+003 -9.999E+003 -9.999E+003 -9.999E+003 -9.999E+003 -9.999E+003 -9.999E+003 -9.999E+003 -9.999E+003 -9.999E+003 -9.999E+003 -9.999E+003 -9.999E+003 -9.999E+003 -9.999E+003 -9.999E+003 -9.999E+003 -9.999E+003 -9.999E+003 -9.999E+003 -9.999E+003 -9.999E+003 -9.999E+003 -9.999E+003 -9.999E+003 -9.999E+003 -9.999E+003 -9.999E+003 -9.999E+003 -9.999E+003 -9.999E+003 -9.999E+003 -9.999E+003 -9.999E+003 -9.999E+003 -9.999E+003 -9.999E+003 -9.999E+003 -9.999E+003 -9.999E+003 -9.999E+003 -9.999E+003 -9.999E+003 -9.999E+003 -9.999E+003 -9.999E+003 -9.999E+003 -9.999E+003 -9.999E+003 -9.999E+003 -9.999E+003 -9.999E+003 -9.999E+003 -9.999E+003 -9.999E+003 -9.999E+003 -9.999E+003 -9.999E+003 -9.999E+003 -9.999E+003 -9.999E+003 -9.999E+003 -9.999E+003 -9.999E+003 -9.999E+003 -9.999E+003 -9.999E+003 -9.999E+003 -9.999E+003 -9.999E+003 -9.999E+003 -9.999E+003 -9.999E+003 -9.999E+003 -9.999E+003 -9.999E+003 -9.999E+003 -9.999E+003 -9.999E+003 -9.999E+003 -9.999E+003 -9.999E+003 -9.999E+003 -9.999E+003 -9.999E+003 -9.999E+003 -9.999E+003 -9.999E+003 -9.999E+003 -9.999E+003 -9.999E+003 -9.999E+003 -9.999E+003 -9.999E+003 -9.999E+003 -9.999E+003 -9.999E+003 -9.999E+003 -9.999E+003 -9.999E+003 -9.999E+003 -9.999E+003 -9.999E+003 -9.999E+003 -9.999E+003 -9.999E+003 -9.999E+003 -9.999E+003 -9.999E+003 -9.999E+003
 -9.999E+003 -9.999E+003 -9.999E+003 -9.999E+003 -9.999E+003 -9.999E+003 -9.999E+003 -9.999E+003 -9.999E+003 -9.999E+003 -9.999E+003 -9.999E+003 -9.999E+003 -9.999E+003 -9.999E+003 -9.999E+003 -9.999E+003 -9.999E+003 -9.999E+003 -9.999E+003 -9.999E+003 -9.999E+003 -9.999E+003 -9.999E+003 -9.999E+003 -9.999E+003 -9.999E+003 -9.999E+003 -9.999E+003 -9.999E+003 -9.999E+003 -9.999E+003 -9.999E+003 -9.999E+003 -9.999E+003 -9.999E+003 -9.999E+003 -9.999E+003 -9.999E+003 -9.999E+003 -9.999E+003 -9.999E+003 -9.999E+003 -9.999E+003 -9.999E+003 -9.999E+003 -9.999E+003 -9.999E+003 -9.999E+003 -9.999E+003 -9.999E+003 -9.999E+003 -9.999E+003 -9.999E+003 -9.999E+003 -9.999E+003 -9.999E+003 -9.999E+003 -9.999E+003 -9.999E+003 -9.999E+003 -9.999E+003 -9.999E+003 -9.999E+003 -9.999E+003 -9.999E+003 -9.999E+003 -9.999E+003 -9.999E+003 -9.999E+003 -9.999E+003 -9.999E+003 -9.999E+003 -9.999E+003 -9.999E+003 -9.999E+003 -9.999E+003 -9.999E+003 -9.999E+003 -9.999E+003 -9.999E+003 -9.999E+003 -9.999E+003 -9.999E+003 -9.999E+003 -9.999E+003 -9.999E+003 -9.999E+003 -9.999E+003 -9.999E+003 -9.999E+003 -9.999E+003 -9.999E+003 -9.999E+003 -9.999E+003 -9.999E+003 -9.999E+003 -9.999E+003 -9.999E+003 -9.999E+003 -9.999E+003 -9.999E+003 -9.999E+003 -9.999E+003 -9.999E+003 -9.999E+003 -9.999E+003 -9.999E+003 -9.999E+003 -9.999E+003 -9.999E+003 -9.999E+003 -9.999E+003 -9.999E+003 -9.999E+003 -9.999E+003 -9.999E+003 -9.999E+003 -9.999E+003 -9.999E+003 -9.999E+003 -9.999E+003 -9.999E+003 -9.999E+003 -9.999E+003 -9.999E+003 -9.999E+003 -9.999E+003 -9.999E+003 -9.999E+003 -9.999E+003 -9.999E+003 -9.999E+003 -9.999E+003 -9.999E+003 -9.999E+003 -9.999E+003 -9.999E+003 -9.999E+003 -9.999E+003 -9.999E+003 -9.999E+003 -9.999E+003 -9.999E+003 -9.999E+003 -9.999E+003 -9.999E+003 -9.999E+003 -9.999E+003 -9.999E+003
 -9.999E+003 -9.999E+003 -9.999E+003 -9.999E+003 -9.999E+003 -9.999E+003 -9.999E+003 -9.999E+003 -9.999E+003 -9.999E+003 -9.999E+003 -9.999E+003 -9.999E+003 -9.999E+003 -9.999E+003 -9.999E+003 -9.999E+003 -9.999E+003 -9.999E+003 -9.999E+003 -9.999E+003 -9.999E+003 -9.999E+003 -9.999E+003 -9.999E+003 -9.999E+003 -9.999E+003 -9.999E+003 -9.999E+003 -9.999E+003 -9.999E+003 -9.999E+003 -9.999E+003 -9.999E+003 -9.999E+003 -9.999E+003 -9.999E+003 -9.999E+003 -9.999E+003 -9.999E+003 -9.999E+003 -9.999E+003 -9.999E+003 -9.999E+003 -9.999E+003 -9.999E+003 -9.999E+003 -9.999E+003 -9.999E+003 -9.999E+003 -9.999E+003 -9.999E+003 -9.999E+003 -9.999E+003 -9.999E+003 -9.999E+003 -9.999E+003 -9.999E+003 -9.999E+003 -9.999E+003 -9.999E+003 -9.999E+003 -9.999E+003 -9.999E+003 -9.999E+003 -9.999E+003 -9.999E+003 -9.999E+003 -9.999E+003 -9.999E+003 -9.999E+003 -9.999E+003 -9.999E+003 -9.999E+003 -9.999E+003 -9.999E+003 -9.999E+003 -9.999E+003 -9.999E+003 -9.999E+003 -9.999E+003 -9.999E+003 -9.999E+003 -9.999E+003 -9.999E+003 -9.999E+003 -9.999E+003 -9.999E+003 -9.999E+003 -9.999E+003 -9.999E+003 -9.999E+003 -9.999E+003 -9.999E+003 -9.999E+003 -9.999E+003 -9.999E+003 -9.999E+003 -9.999E+003 -9.999E+003 -9.999E+003 -9.999E+003 -9.999E+003 -9.999E+003 -9.999E+003 -9.999E+003 -9.999E+003 -9.999E+003 -9.999E+003 -9.999E+003 -9.999E+003 -9.999E+003 -9.999E+003 -9.999E+003 -9.999E+003 -9.999E+003 -9.999E+003 -9.999E+003 -9.999E+003 -9.999E+003 -9.999E+003 -9.999E+003 -9.999E+003 -9.999E+003 -9.999E+003 -9.999E+003 -9.999E+003 -9.999E+003 -9.999E+003 -9.999E+003 -9.999E+003 -9.999E+003 -9.999E+003 -9.999E+003 -9.999E+003 -9.999E+003 -9.999E+003 -9.999E+003 -9.999E+003 -9.999E+003 -9.999E+003 -9.999E+003 -9.999E+003 -9.999E+003 -9.999E+003 -9.999E+003 -9.999E+003 -9.999E+003 -9.999E+003 -9.999E+003
 -9.999E+003 -9.999E+003 -9.999E+003 -9.999E+003 -9.999E+003 -9.999E+003 -9.999E+003 -9.999E+003 -9.999E+003 -9.999E+003 -9.999E+003 -9.999E+003 -9.999E+003 -9.999E+003 -9.999E+003 -9.999E+003 -9.999E+003 -9.999E+003 -9.999E+003 -9.999E+003 -9.999E+003 -9.999E+003 -9.999E+003 -9.999E+003 -9.999E+003 -9.999E+003 -9.999E+003 -9.999E+003 -9.999E+003 -9.999E+003 -9.999E+003 -9.999E+003 -9.999E+003 -9.999E+003 -9.999E+003 -9.999E+003 -9.999E+003 -9.999E+003 -9.999E+003 -9.999E+003 -9.999E+003 -9.999E+003 -9.999E+003 -9.999E+003 -9.999E+003 -9.999E+003 -9.999E+003 -9.999E+003 -9.999E+003 -9.999E+003 -9.999E+003 -9.999E+003 -9.999E+003 -9.999E+003 -9.999E+003 -9.999E+003 -9.999E+003 -9.999E+003 -9.999E+003 -9.999E+003 -9.999E+003 -9.999E+003 -9.999E+003 -9.999E+003 -9.999E+003 -9.999E+003 -9.999E+003 -9.999E+003 -9.999E+003 -9.999E+003 -9.999E+003 -9.999E+003 -9.999E+003 -9.999E+003 -9.999E+003 -9.999E+003 -9.999E+003 -9.999E+003 -9.999E+003 -9.999E+003 -9.999E+003 -9.999E+003 -9.999E+003 -9.999E+003 -9.999E+003 -9.999E+003 -9.999E+003 -9.999E+003 -9.999E+003 -9.999E+003 -9.999E+003 -9.999E+003 -9.999E+003 -9.999E+003 -9.999E+003 -9.999E+003 -9.999E+003 -9.999E+003 -9.999E+003 -9.999E+003 -9.999E+003 -9.999E+003 -9.999E+003 -9.999E+003 -9.999E+003 -9.999E+003 -9.999E+003 -9.999E+003 -9.999E+003 -9.999E+003 -9.999E+003 -9.999E+003 -9.999E+003 -9.999E+003 -9.999E+003 -9.999E+003 -9.999E+003 -9.999E+003 -9.999E+003 -9.999E+003 -9.999E+003 -9.999E+003 -9.999E+003 -9.999E+003 -9.999E+003 -9.999E+003 -9.999E+003 -9.999E+003 -9.999E+003 -9.999E+003 -9.999E+003 -9.999E+003 -9.999E+003 -9.999E+003 -9.999E+003 -9.999E+003 -9.999E+003 -9.999E+003 -9.999E+003 -9.999E+003 -9.999E+003 -9.999E+003 -9.999E+003 -9.999E+003 -9.999E+003 -9.999E+003 -9.999E+003 -9.999E+003 -9.999E+003 -9.999E+003
 -9.999E+003 -9.999E+003 -9.999E+003 -9.999E+003 -9.999E+003 -9.999E+003 -9.999E+003 -9.999E+003 -9.999E+003 -9.999E+003 -9.999E+003 -9.999E+003 -9.999E+003 -9.999E+003 -9.999E+003 -9.999E+003 -9.999E+003 -9.999E+003 -9.999E+003 -9.999E+003 -9.999E+003 -9.999E+003 -9.999E+003 -9.999E+003 -9.999E+003 -9.999E+003 -9.999E+003 -9.999E+003 -9.999E+003 -9.999E+003 -9.999E+003 -9.999E+003 -9.999E+003 -9.999E+003 -9.999E+003 -9.999E+003 -9.999E+003 -9.999E+003 -9.999E+003 -9.999E+003 -9.999E+003 -9.999E+003 -9.999E+003 -9.999E+003 -9.999E+003 -9.999E+003 -9.999E+003 -9.999E+003 -9.999E+003 -9.999E+003 -9.999E+003 -9.999E+003 -9.999E+003 -9.999E+003 -9.999E+003 -9.999E+003 -9.999E+003 -9.999E+003 -9.999E+003 -9.999E+003 -9.999E+003 -9.999E+003 -9.999E+003 -9.999E+003 -9.999E+003 -9.999E+003 -9.999E+003 -9.999E+003 -9.999E+003 -9.999E+003 -9.999E+003 -9.999E+003 -9.999E+003 -9.999E+003 -9.999E+003 -9.999E+003 -9.999E+003 -9.999E+003 -9.999E+003 -9.999E+003 -9.999E+003 -9.999E+003 -9.999E+003 -9.999E+003 -9.999E+003 -9.999E+003 -9.999E+003 -9.999E+003 -9.999E+003 -9.999E+003 -9.999E+003 -9.999E+003 -9.999E+003 -9.999E+003 -9.999E+003 -9.999E+003 -9.999E+003 -9.999E+003 -9.999E+003 -9.999E+003 -9.999E+003 -9.999E+003 -9.999E+003 -9.999E+003 -9.999E+003 -9.999E+003 -9.999E+003 -9.999E+003 -9.999E+003 -9.999E+003 -9.999E+003 -9.999E+003 -9.999E+003 -9.999E+003 -9.999E+003 -9.999E+003 -9.999E+003 -9.999E+003 -9.999E+003 -9.999E+003 -9.999E+003 -9.999E+003 -9.999E+003 -9.999E+003 -9.999E+003 -9.999E+003 -9.999E+003 -9.999E+003 -9.999E+003 -9.999E+003 -9.999E+003 -9.999E+003 -9.999E+003 -9.999E+003 -9.999E+003 -9.999E+003 -9.999E+003 -9.999E+003 -9.999E+003 -9.999E+003 -9.999E+003 -9.999E+003 -9.999E+003 -9.999E+003 -9.999E+003 -9.999E+003 -9.999E+003 -9.999E+003 -9.999E+003 -9.999E+003
 -9.999E+003 -9.999E+003 -9.999E+003 -9.999E+003 -9.999E+003 -9.999E+003 -9.999E+003 -9.999E+003 -9.999E+003 -9.999E+003 -9.999E+003 -9.999E+003 -9.999E+003 -9.999E+003 -9.999E+003 -9.999E+003 -9.999E+003 -9.999E+003 -9.999E+003 -9.999E+003 -9.999E+003 -9.999E+003 -9.999E+003 -9.999E+003 -9.999E+003 -9.999E+003 -9.999E+003 -9.999E+003 -9.999E+003 -9.999E+003 -9.999E+003 -9.999E+003 -9.999E+003 -9.999E+003 -9.999E+003 -9.999E+003 -9.999E+003 -9.999E+003 -9.999E+003 -9.999E+003 -9.999E+003 -9.999E+003 -9.999E+003 -9.999E+003 -9.999E+003 -9.999E+003 -9.999E+003 -9.999E+003 -9.999E+003 -9.999E+003 -9.999E+003 -9.999E+003 -9.999E+003 -9.999E+003 -9.999E+003 -9.999E+003 -9.999E+003 -9.999E+003 -9.999E+003 -9.999E+003 -9.999E+003 -9.999E+003 -9.999E+003 -9.999E+003 -9.999E+003 -9.999E+003 -9.999E+003 -9.999E+003 -9.999E+003 -9.999E+003 -9.999E+003 -9.999E+003 -9.999E+003 -9.999E+003 -9.999E+003 -9.999E+003 -9.999E+003 -9.999E+003 -9.999E+003 -9.999E+003 -9.999E+003 -9.999E+003 -9.999E+003 -9.999E+003 -9.999E+003 -9.999E+003 -9.999E+003 -9.999E+003 -9.999E+003 -9.999E+003 -9.999E+003 -9.999E+003 -9.999E+003 -9.999E+003 -9.999E+003 -9.999E+003 -9.999E+003 -9.999E+003 -9.999E+003 -9.999E+003 -9.999E+003 -9.999E+003 -9.999E+003 -9.999E+003 -9.999E+003 -9.999E+003 -9.999E+003 -9.999E+003 -9.999E+003 -9.999E+003 -9.999E+003 -9.999E+003 -9.999E+003 -9.999E+003 -9.999E+003 -9.999E+003 -9.999E+003 -9.999E+003 -9.999E+003 -9.999E+003 -9.999E+003 -9.999E+003 -9.999E+003 -9.999E+003 -9.999E+003 -9.999E+003 -9.999E+003 -9.999E+003 -9.999E+003 -9.999E+003 -9.999E+003 -9.999E+003 -9.999E+003 -9.999E+003 -9.999E+003 -9.999E+003 -9.999E+003 -9.999E+003 -9.999E+003 -9.999E+003 -9.999E+003 -9.999E+003 -9.999E+003 -9.999E+003 -9.999E+003 -9.999E+003 -9.999E+003 -9.999E+003 -9.999E+003 -9.999E+003
 -9.999E+003 -9.999E+003 -9.999E+003 -9.999E+003 -9.999E+003 -9.999E+003 -9.999E+003 -9.999E+003 -9.999E+003 -9.999E+003 -9.999E+003 -9.999E+003 -9.999E+003 -9.999E+003 -9.999E+003 -9.999E+003 -9.999E+003 -9.999E+003 -9.999E+003 -9.999E+003 -9.999E+003 -9.999E+003 -9.999E+003 -9.999E+003 -9.999E+003 -9.999E+003 -9.999E+003 -9.999E+003 -9.999E+003 -9.999E+003 -9.999E+003 -9.999E+003 -9.999E+003 -9.999E+003 -9.999E+003 -9.999E+003 -9.999E+003 -9.999E+003 -9.999E+003 -9.999E+003 -9.999E+003 -9.999E+003 -9.999E+003 -9.999E+003 -9.999E+003 -9.999E+003 -9.999E+003 -9.999E+003 -9.999E+003 -9.999E+003 -9.999E+003 -9.999E+003 -9.999E+003 -9.999E+003 -9.999E+003 -9.999E+003 -9.999E+003 -9.999E+003 -9.999E+003 -9.999E+003 -9.999E+003 -9.999E+003 -9.999E+003 -9.999E+003 -9.999E+003 -9.999E+003 -9.999E+003 -9.999E+003 -9.999E+003 -9.999E+003 -9.999E+003 -9.999E+003 -9.999E+003 -9.999E+003 -9.999E+003 -9.999E+003 -9.999E+003 -9.999E+003 -9.999E+003 -9.999E+003 -9.999E+003 -9.999E+003 -9.999E+003 -9.999E+003 -9.999E+003 -9.999E+003 -9.999E+003 -9.999E+003 -9.999E+003 -9.999E+003 -9.999E+003 -9.999E+003 -9.999E+003 -9.999E+003 -9.999E+003 -9.999E+003 -9.999E+003 -9.999E+003 -9.999E+003 -9.999E+003 -9.999E+003 -9.999E+003 -9.999E+003 -9.999E+003 -9.999E+003 -9.999E+003 -9.999E+003 -9.999E+003 -9.999E+003 -9.999E+003 -9.999E+003 -9.999E+003 -9.999E+003 -9.999E+003 -9.999E+003 -9.999E+003 -9.999E+003 -9.999E+003 -9.999E+003 -9.999E+003 -9.999E+003 -9.999E+003 -9.999E+003 -9.999E+003 -9.999E+003 -9.999E+003 -9.999E+003 -9.999E+003 -9.999E+003 -9.999E+003 -9.999E+003 -9.999E+003 -9.999E+003 -9.999E+003 -9.999E+003 -9.999E+003 -9.999E+003 -9.999E+003 -9.999E+003 -9.999E+003 -9.999E+003 -9.999E+003 -9.999E+003 -9.999E+003 -9.999E+003 -9.999E+003 -9.999E+003 -9.999E+003 -9.999E+003 -9.999E+003
 -9.999E+003 -9.999E+003 -9.999E+003 -9.999E+003 -9.999E+003 -9.999E+003 -9.999E+003 -9.999E+003 -9.999E+003 -9.999E+003 -9.999E+003 -9.999E+003 -9.999E+003 -9.999E+003 -9.999E+003 -9.999E+003 -9.999E+003 -9.999E+003 -9.999E+003 -9.999E+003 -9.999E+003 -9.999E+003 -9.999E+003 -9.999E+003 -9.999E+003 -9.999E+003 -9.999E+003 -9.999E+003 -9.999E+003 -9.999E+003 -9.999E+003 -9.999E+003 -9.999E+003 -9.999E+003 -9.999E+003 -9.999E+003 -9.999E+003 -9.999E+003 -9.999E+003 -9.999E+003 -9.999E+003 -9.999E+003 -9.999E+003 -9.999E+003 -9.999E+003 -9.999E+003 -9.999E+003 -9.999E+003 -9.999E+003 -9.999E+003 -9.999E+003 -9.999E+003 -9.999E+003 -9.999E+003 -9.999E+003 -9.999E+003 -9.999E+003 -9.999E+003 -9.999E+003 -9.999E+003 -9.999E+003 -9.999E+003 -9.999E+003 -9.999E+003 -9.999E+003 -9.999E+003 -9.999E+003 -9.999E+003 -9.999E+003 -9.999E+003 -9.999E+003 -9.999E+003 -9.999E+003 -9.999E+003 -9.999E+003 -9.999E+003 -9.999E+003 -9.999E+003 -9.999E+003 -9.999E+003 -9.999E+003 -9.999E+003 -9.999E+003 -9.999E+003 -9.999E+003 -9.999E+003 -9.999E+003 -9.999E+003 -9.999E+003 -9.999E+003 -9.999E+003 -9.999E+003 -9.999E+003 -9.999E+003 -9.999E+003 -9.999E+003 -9.999E+003 -9.999E+003 -9.999E+003 -9.999E+003 -9.999E+003 -9.999E+003 -9.999E+003 -9.999E+003 -9.999E+003 -9.999E+003 -9.999E+003 -9.999E+003 -9.999E+003 -9.999E+003 -9.999E+003 -9.999E+003 -9.999E+003 -9.999E+003 -9.999E+003 -9.999E+003 -9.999E+003 -9.999E+003 -9.999E+003 -9.999E+003 -9.999E+003 -9.999E+003 -9.999E+003 -9.999E+003 -9.999E+003 -9.999E+003 -9.999E+003 -9.999E+003 -9.999E+003 -9.999E+003 -9.999E+003 -9.999E+003 -9.999E+003 -9.999E+003 -9.999E+003 -9.999E+003 -9.999E+003 -9.999E+003 -9.999E+003 -9.999E+003 -9.999E+003 -9.999E+003 -9.999E+003 -9.999E+003 -9.999E+003 -9.999E+003 -9.999E+003 -9.999E+003 -9.999E+003 -9.999E+003
 -9.999E+003 -9.999E+003 -9.999E+003 -9.999E+003 -9.999E+003 -9.999E+003 -9.999E+003 -9.999E+003 -9.999E+003 -9.999E+003 -9.999E+003 -9.999E+003 -9.999E+003 -9.999E+003 -9.999E+003 -9.999E+003 -9.999E+003 -9.999E+003 -9.999E+003 -9.999E+003 -9.999E+003 -9.999E+003 -9.999E+003 -9.999E+003 -9.999E+003 -9.999E+003 -9.999E+003 -9.999E+003 -9.999E+003 -9.999E+003 -9.999E+003 -9.999E+003 -9.999E+003 -9.999E+003 -9.999E+003 -9.999E+003 -9.999E+003 -9.999E+003 -9.999E+003 -9.999E+003 -9.999E+003 -9.999E+003 -9.999E+003 -9.999E+003 -9.999E+003 -9.999E+003 -9.999E+003 -9.999E+003 -9.999E+003 -9.999E+003 -9.999E+003 -9.999E+003 -9.999E+003 -9.999E+003 -9.999E+003 -9.999E+003 -9.999E+003 -9.999E+003 -9.999E+003 -9.999E+003 -9.999E+003 -9.999E+003 -9.999E+003 -9.999E+003 -9.999E+003 -9.999E+003 -9.999E+003 -9.999E+003 -9.999E+003 -9.999E+003 -9.999E+003 -9.999E+003 -9.999E+003 -9.999E+003 -9.999E+003 -9.999E+003 -9.999E+003 -9.999E+003 -9.999E+003 -9.999E+003 -9.999E+003 -9.999E+003 -9.999E+003 -9.999E+003 -9.999E+003 -9.999E+003 -9.999E+003 -9.999E+003 -9.999E+003 -9.999E+003 -9.999E+003 -9.999E+003 -9.999E+003 -9.999E+003 -9.999E+003 -9.999E+003 -9.999E+003 -9.999E+003 -9.999E+003 -9.999E+003 -9.999E+003 -9.999E+003 -9.999E+003 -9.999E+003 -9.999E+003 -9.999E+003 -9.999E+003 -9.999E+003 -9.999E+003 -9.999E+003 -9.999E+003 -9.999E+003 -9.999E+003 -9.999E+003 -9.999E+003 -9.999E+003 -9.999E+003 -9.999E+003 -9.999E+003 -9.999E+003 -9.999E+003 -9.999E+003 -9.999E+003 -9.999E+003 -9.999E+003 -9.999E+003 -9.999E+003 -9.999E+003 -9.999E+003 -9.999E+003 -9.999E+003 -9.999E+003 -9.999E+003 -9.999E+003 -9.999E+003 -9.999E+003 -9.999E+003 -9.999E+003 -9.999E+003 -9.999E+003 -9.999E+003 -9.999E+003 -9.999E+003 -9.999E+003 -9.999E+003 -9.999E+003 -9.999E+003 -9.999E+003 -9.999E+003 -9.999E+003
 -9.999E+003 -9.999E+003 -9.999E+003 -9.999E+003 -9.999E+003 -9.999E+003 -9.999E+003 -9.999E+003 -9.999E+003 -9.999E+003 -9.999E+003 -9.999E+003 -9.999E+003 -9.999E+003 -9.999E+003 -9.999E+003 -9.999E+003 -9.999E+003 -9.999E+003 -9.999E+003 -9.999E+003 -9.999E+003 -9.999E+003 -9.999E+003 -9.999E+003 -9.999E+003 -9.999E+003 -9.999E+003 -9.999E+003 -9.999E+003 -9.999E+003 -9.999E+003 -9.999E+003 -9.999E+003 -9.999E+003 -9.999E+003 -9.999E+003 -9.999E+003 -9.999E+003 -9.999E+003 -9.999E+003 -9.999E+003 -9.999E+003 -9.999E+003 -9.999E+003 -9.999E+003 -9.999E+003 -9.999E+003 -9.999E+003 -9.999E+003 -9.999E+003 -9.999E+003 -9.999E+003 -9.999E+003 -9.999E+003 -9.999E+003 -9.999E+003 -9.999E+003 -9.999E+003 -9.999E+003 -9.999E+003 -9.999E+003 -9.999E+003 -9.999E+003 -9.999E+003 -9.999E+003 -9.999E+003 -9.999E+003 -9.999E+003 -9.999E+003 -9.999E+003 -9.999E+003 -9.999E+003 -9.999E+003 -9.999E+003 -9.999E+003 -9.999E+003 -9.999E+003 -9.999E+003 -9.999E+003 -9.999E+003 -9.999E+003 -9.999E+003 -9.999E+003 -9.999E+003 -9.999E+003 -9.999E+003 -9.999E+003 -9.999E+003 -9.999E+003 -9.999E+003 -9.999E+003 -9.999E+003 -9.999E+003 -9.999E+003 -9.999E+003 -9.999E+003 -9.999E+003 -9.999E+003 -9.999E+003 -9.999E+003 -9.999E+003 -9.999E+003 -9.999E+003 -9.999E+003 -9.999E+003 -9.999E+003 -9.999E+003 -9.999E+003 -9.999E+003 -9.999E+003 -9.999E+003 -9.999E+003 -9.999E+003 -9.999E+003 -9.999E+003 -9.999E+003 -9.999E+003 -9.999E+003 -9.999E+003 -9.999E+003 -9.999E+003 -9.999E+003 -9.999E+003 -9.999E+003 -9.999E+003 -9.999E+003 -9.999E+003 -9.999E+003 -9.999E+003 -9.999E+003 -9.999E+003 -9.999E+003 -9.999E+003 -9.999E+003 -9.999E+003 -9.999E+003 -9.999E+003 -9.999E+003 -9.999E+003 -9.999E+003 -9.999E+003 -9.999E+003 -9.999E+003 -9.999E+003 -9.999E+003 -9.999E+003 -9.999E+003 -9.999E+003 -9.999E+003
 -9.999E+003 -9.999E+003 -9.999E+003 -9.999E+003 -9.999E+003 -9.999E+003 -9.999E+003 -9.999E+003 -9.999E+003 -9.999E+003 -9.999E+003 -9.999E+003 -9.999E+003 -9.999E+003 -9.999E+003 -9.999E+003 -9.999E+003 -9.999E+003 -9.999E+003 -9.999E+003 -9.999E+003 -9.999E+003 -9.999E+003 -9.999E+003 -9.999E+003 -9.999E+003 -9.999E+003 -9.999E+003 -9.999E+003 -9.999E+003 -9.999E+003 -9.999E+003 -9.999E+003 -9.999E+003 -9.999E+003 -9.999E+003 -9.999E+003 -9.999E+003 -9.999E+003 -9.999E+003 -9.999E+003 -9.999E+003 -9.999E+003 -9.999E+003 -9.999E+003 -9.999E+003 -9.999E+003 -9.999E+003 -9.999E+003 -9.999E+003 -9.999E+003 -9.999E+003 -9.999E+003 -9.999E+003 -9.999E+003 -9.999E+003 -9.999E+003 -9.999E+003 -9.999E+003 -9.999E+003 -9.999E+003 -9.999E+003 -9.999E+003 -9.999E+003 -9.999E+003 -9.999E+003 -9.999E+003 -9.999E+003 -9.999E+003 -9.999E+003 -9.999E+003 -9.999E+003 -9.999E+003 -9.999E+003 -9.999E+003 -9.999E+003 -9.999E+003 -9.999E+003 -9.999E+003 -9.999E+003 -9.999E+003 -9.999E+003 -9.999E+003 -9.999E+003 -9.999E+003 -9.999E+003 -9.999E+003 -9.999E+003 -9.999E+003 -9.999E+003 -9.999E+003 -9.999E+003 -9.999E+003 -9.999E+003 -9.999E+003 -9.999E+003 -9.999E+003 -9.999E+003 -9.999E+003 -9.999E+003 -9.999E+003 -9.999E+003 -9.999E+003 -9.999E+003 -9.999E+003 -9.999E+003 -9.999E+003 -9.999E+003 -9.999E+003 -9.999E+003 -9.999E+003 -9.999E+003 -9.999E+003 -9.999E+003 -9.999E+003 -9.999E+003 -9.999E+003 -9.999E+003 -9.999E+003 -9.999E+003 -9.999E+003 -9.999E+003 -9.999E+003 -9.999E+003 -9.999E+003 -9.999E+003 -9.999E+003 -9.999E+003 -9.999E+003 -9.999E+003 -9.999E+003 -9.999E+003 -9.999E+003 -9.999E+003 -9.999E+003 -9.999E+003 -9.999E+003 -9.999E+003 -9.999E+003 -9.999E+003 -9.999E+003 -9.999E+003 -9.999E+003 -9.999E+003 -9.999E+003 -9.999E+003 -9.999E+003 -9.999E+003 -9.999E+003 -9.999E+003
 -9.999E+003 -9.999E+003 -9.999E+003 -9.999E+003 -9.999E+003 -9.999E+003 -9.999E+003 -9.999E+003 -9.999E+003 -9.999E+003 -9.999E+003 -9.999E+003 -9.999E+003 -9.999E+003 -9.999E+003 -9.999E+003 -9.999E+003 -9.999E+003 -9.999E+003 -9.999E+003 -9.999E+003 -9.999E+003 -9.999E+003 -9.999E+003 -9.999E+003 -9.999E+003 -9.999E+003 -9.999E+003 -9.999E+003 -9.999E+003 -9.999E+003 -9.999E+003 -9.999E+003 -9.999E+003 -9.999E+003 -9.999E+003 -9.999E+003 -9.999E+003 -9.999E+003 -9.999E+003 -9.999E+003 -9.999E+003 -9.999E+003 -9.999E+003 -9.999E+003 -9.999E+003 -9.999E+003 -9.999E+003 -9.999E+003 -9.999E+003 -9.999E+003 -9.999E+003 -9.999E+003 -9.999E+003 -9.999E+003 -9.999E+003 -9.999E+003 -9.999E+003 -9.999E+003 -9.999E+003 -9.999E+003 -9.999E+003 -9.999E+003 -9.999E+003 -9.999E+003 -9.999E+003 -9.999E+003 -9.999E+003 -9.999E+003 -9.999E+003 -9.999E+003 -9.999E+003 -9.999E+003 -9.999E+003 -9.999E+003 -9.999E+003 -9.999E+003 -9.999E+003 -9.999E+003 -9.999E+003 -9.999E+003 -9.999E+003 -9.999E+003 -9.999E+003 -9.999E+003 -9.999E+003 -9.999E+003 -9.999E+003 -9.999E+003 -9.999E+003 -9.999E+003 -9.999E+003 -9.999E+003 -9.999E+003 -9.999E+003 -9.999E+003 -9.999E+003 -9.999E+003 -9.999E+003 -9.999E+003 -9.999E+003 -9.999E+003 -9.999E+003 -9.999E+003 -9.999E+003 -9.999E+003 -9.999E+003 -9.999E+003 -9.999E+003 -9.999E+003 -9.999E+003 -9.999E+003 -9.999E+003 -9.999E+003 -9.999E+003 -9.999E+003 -9.999E+003 -9.999E+003 -9.999E+003 -9.999E+003 -9.999E+003 -9.999E+003 -9.999E+003 -9.999E+003 -9.999E+003 -9.999E+003 -9.999E+003 -9.999E+003 -9.999E+003 -9.999E+003 -9.999E+003 -9.999E+003 -9.999E+003 -9.999E+003 -9.999E+003 -9.999E+003 -9.999E+003 -9.999E+003 -9.999E+003 -9.999E+003 -9.999E+003 -9.999E+003 -9.999E+003 -9.999E+003 -9.999E+003 -9.999E+003 -9.999E+003 -9.999E+003 -9.999E+003 -9.999E+003
 -9.999E+003 -9.999E+003 -9.999E+003 -9.999E+003 -9.999E+003 -9.999E+003 -9.999E+003 -9.999E+003 -9.999E+003 -9.999E+003 -9.999E+003 -9.999E+003 -9.999E+003 -9.999E+003 -9.999E+003 -9.999E+003 -9.999E+003 -9.999E+003 -9.999E+003 -9.999E+003 -9.999E+003 -9.999E+003 -9.999E+003 -9.999E+003 -9.999E+003 -9.999E+003 -9.999E+003 -9.999E+003 -9.999E+003 -9.999E+003 -9.999E+003 -9.999E+003 -9.999E+003 -9.999E+003 -9.999E+003 -9.999E+003 -9.999E+003 -9.999E+003 -9.999E+003 -9.999E+003 -9.999E+003 -9.999E+003 -9.999E+003 -9.999E+003 -9.999E+003 -9.999E+003 -9.999E+003 -9.999E+003 -9.999E+003 -9.999E+003 -9.999E+003 -9.999E+003 -9.999E+003 -9.999E+003 -9.999E+003 -9.999E+003 -9.999E+003 -9.999E+003 -9.999E+003 -9.999E+003 -9.999E+003 -9.999E+003 -9.999E+003 -9.999E+003 -9.999E+003 -9.999E+003 -9.999E+003 -9.999E+003 -9.999E+003 -9.999E+003 -9.999E+003 -9.999E+003 -9.999E+003 -9.999E+003 -9.999E+003 -9.999E+003 -9.999E+003 -9.999E+003 -9.999E+003 -9.999E+003 -9.999E+003 -9.999E+003 -9.999E+003 -9.999E+003 -9.999E+003 -9.999E+003 -9.999E+003 -9.999E+003 -9.999E+003 -9.999E+003 -9.999E+003 -9.999E+003 -9.999E+003 -9.999E+003 -9.999E+003 -9.999E+003 -9.999E+003 -9.999E+003 -9.999E+003 -9.999E+003 -9.999E+003 -9.999E+003 -9.999E+003 -9.999E+003 -9.999E+003 -9.999E+003 -9.999E+003 -9.999E+003 -9.999E+003 -9.999E+003 -9.999E+003 -9.999E+003 -9.999E+003 -9.999E+003 -9.999E+003 -9.999E+003 -9.999E+003 -9.999E+003 -9.999E+003 -9.999E+003 -9.999E+003 -9.999E+003 -9.999E+003 -9.999E+003 -9.999E+003 -9.999E+003 -9.999E+003 -9.999E+003 -9.999E+003 -9.999E+003 -9.999E+003 -9.999E+003 -9.999E+003 -9.999E+003 -9.999E+003 -9.999E+003 -9.999E+003 -9.999E+003 -9.999E+003 -9.999E+003 -9.999E+003 -9.999E+003 -9.999E+003 -9.999E+003 -9.999E+003 -9.999E+003 -9.999E+003 -9.999E+003 -9.999E+003 -9.999E+003
 -9.999E+003 -9.999E+003 -9.999E+003 -9.999E+003 -9.999E+003 -9.999E+003 -9.999E+003 -9.999E+003 -9.999E+003 -9.999E+003 -9.999E+003 -9.999E+003 -9.999E+003 -9.999E+003 -9.999E+003 -9.999E+003 -9.999E+003 -9.999E+003 -9.999E+003 -9.999E+003 -9.999E+003 -9.999E+003 -9.999E+003 -9.999E+003 -9.999E+003 -9.999E+003 -9.999E+003 -9.999E+003 -9.999E+003 -9.999E+003 -9.999E+003 -9.999E+003 -9.999E+003 -9.999E+003 -9.999E+003 -9.999E+003 -9.999E+003 -9.999E+003 -9.999E+003 -9.999E+003 -9.999E+003 -9.999E+003 -9.999E+003 -9.999E+003 -9.999E+003 -9.999E+003 -9.999E+003 -9.999E+003 -9.999E+003 -9.999E+003 -9.999E+003 -9.999E+003 -9.999E+003 -9.999E+003 -9.999E+003 -9.999E+003 -9.999E+003 -9.999E+003 -9.999E+003 -9.999E+003 -9.999E+003 -9.999E+003 -9.999E+003 -9.999E+003 -9.999E+003 -9.999E+003 -9.999E+003 -9.999E+003 -9.999E+003 -9.999E+003 -9.999E+003 -9.999E+003 -9.999E+003 -9.999E+003 -9.999E+003 -9.999E+003 -9.999E+003 -9.999E+003 -9.999E+003 -9.999E+003 -9.999E+003 -9.999E+003 -9.999E+003 -9.999E+003 -9.999E+003 -9.999E+003 -9.999E+003 -9.999E+003 -9.999E+003 -9.999E+003 -9.999E+003 -9.999E+003 -9.999E+003 -9.999E+003 -9.999E+003 -9.999E+003 -9.999E+003 -9.999E+003 -9.999E+003 -9.999E+003 -9.999E+003 -9.999E+003 -9.999E+003 -9.999E+003 -9.999E+003 -9.999E+003 -9.999E+003 -9.999E+003 -9.999E+003 -9.999E+003 -9.999E+003 -9.999E+003 -9.999E+003 -9.999E+003 -9.999E+003 -9.999E+003 -9.999E+003 -9.999E+003 -9.999E+003 -9.999E+003 -9.999E+003 -9.999E+003 -9.999E+003 -9.999E+003 -9.999E+003 -9.999E+003 -9.999E+003 -9.999E+003 -9.999E+003 -9.999E+003 -9.999E+003 -9.999E+003 -9.999E+003 -9.999E+003 -9.999E+003 -9.999E+003 -9.999E+003 -9.999E+003 -9.999E+003 -9.999E+003 -9.999E+003 -9.999E+003 -9.999E+003 -9.999E+003 -9.999E+003 -9.999E+003 -9.999E+003 -9.999E+003 -9.999E+003 -9.999E+003
 -9.999E+003 -9.999E+003 -9.999E+003 -9.999E+003 -9.999E+003 -9.999E+003 -9.999E+003 -9.999E+003 -9.999E+003 -9.999E+003 -9.999E+003 -9.999E+003 -9.999E+003 -9.999E+003 -9.999E+003 -9.999E+003 -9.999E+003 -9.999E+003 -9.999E+003 -9.999E+003 -9.999E+003 -9.999E+003 -9.999E+003 -9.999E+003 -9.999E+003 -9.999E+003 -9.999E+003 -9.999E+003 -9.999E+003 -9.999E+003 -9.999E+003 -9.999E+003 -9.999E+003 -9.999E+003 -9.999E+003 -9.999E+003 -9.999E+003 -9.999E+003 -9.999E+003 -9.999E+003 -9.999E+003 -9.999E+003 -9.999E+003 -9.999E+003 -9.999E+003 -9.999E+003 -9.999E+003 -9.999E+003 -9.999E+003 -9.999E+003 -9.999E+003 -9.999E+003 -9.999E+003 -9.999E+003 -9.999E+003 -9.999E+003 -9.999E+003 -9.999E+003 -9.999E+003 -9.999E+003 -9.999E+003 -9.999E+003 -9.999E+003 -9.999E+003 -9.999E+003 -9.999E+003 -9.999E+003 -9.999E+003 -9.999E+003 -9.999E+003 -9.999E+003 -9.999E+003 -9.999E+003 -9.999E+003 -9.999E+003 -9.999E+003 -9.999E+003 -9.999E+003 -9.999E+003 -9.999E+003 -9.999E+003 -9.999E+003 -9.999E+003 -9.999E+003 -9.999E+003 -9.999E+003 -9.999E+003 -9.999E+003 -9.999E+003 -9.999E+003 -9.999E+003 -9.999E+003 -9.999E+003 -9.999E+003 -9.999E+003 -9.999E+003 -9.999E+003 -9.999E+003 -9.999E+003 -9.999E+003 -9.999E+003 -9.999E+003 -9.999E+003 -9.999E+003 -9.999E+003 -9.999E+003 -9.999E+003 -9.999E+003 -9.999E+003 -9.999E+003 -9.999E+003 -9.999E+003 -9.999E+003 -9.999E+003 -9.999E+003 -9.999E+003 -9.999E+003 -9.999E+003 -9.999E+003 -9.999E+003 -9.999E+003 -9.999E+003 -9.999E+003 -9.999E+003 -9.999E+003 -9.999E+003 -9.999E+003 -9.999E+003 -9.999E+003 -9.999E+003 -9.999E+003 -9.999E+003 -9.999E+003 -9.999E+003 -9.999E+003 -9.999E+003 -9.999E+003 -9.999E+003 -9.999E+003 -9.999E+003 -9.999E+003 -9.999E+003 -9.999E+003 -9.999E+003 -9.999E+003 -9.999E+003 -9.999E+003 -9.999E+003 -9.999E+003 -9.999E+003
 -9.999E+003 -9.999E+003 -9.999E+003 -9.999E+003 -9.999E+003 -9.999E+003 -9.999E+003 -9.999E+003 -9.999E+003 -9.999E+003 -9.999E+003 -9.999E+003 -9.999E+003 -9.999E+003 -9.999E+003 -9.999E+003 -9.999E+003 -9.999E+003 -9.999E+003 -9.999E+003 -9.999E+003 -9.999E+003 -9.999E+003 -9.999E+003 -9.999E+003 -9.999E+003 -9.999E+003 -9.999E+003 -9.999E+003 -9.999E+003 -9.999E+003 -9.999E+003 -9.999E+003 -9.999E+003 -9.999E+003 -9.999E+003 -9.999E+003 -9.999E+003 -9.999E+003 -9.999E+003 -9.999E+003 -9.999E+003 -9.999E+003 -9.999E+003 -9.999E+003 -9.999E+003 -9.999E+003 -9.999E+003 -9.999E+003 -9.999E+003 -9.999E+003 -9.999E+003 -9.999E+003 -9.999E+003 -9.999E+003 -9.999E+003 -9.999E+003 -9.999E+003 -9.999E+003 -9.999E+003 -9.999E+003 -9.999E+003 -9.999E+003 -9.999E+003 -9.999E+003 -9.999E+003 -9.999E+003 -9.999E+003 -9.999E+003 -9.999E+003 -9.999E+003 -9.999E+003 -9.999E+003 -9.999E+003 -9.999E+003 -9.999E+003 -9.999E+003 -9.999E+003 -9.999E+003 -9.999E+003 -9.999E+003 -9.999E+003 -9.999E+003 -9.999E+003 -9.999E+003 -9.999E+003 -9.999E+003 -9.999E+003 -9.999E+003 -9.999E+003 -9.999E+003 -9.999E+003 -9.999E+003 -9.999E+003 -9.999E+003 -9.999E+003 -9.999E+003 -9.999E+003 -9.999E+003 -9.999E+003 -9.999E+003 -9.999E+003 -9.999E+003 -9.999E+003 -9.999E+003 -9.999E+003 -9.999E+003 -9.999E+003 -9.999E+003 -9.999E+003 -9.999E+003 -9.999E+003 -9.999E+003 -9.999E+003 -9.999E+003 -9.999E+003 -9.999E+003 -9.999E+003 -9.999E+003 -9.999E+003 -9.999E+003 -9.999E+003 -9.999E+003 -9.999E+003 -9.999E+003 -9.999E+003 -9.999E+003 -9.999E+003 -9.999E+003 -9.999E+003 -9.999E+003 -9.999E+003 -9.999E+003 -9.999E+003 -9.999E+003 -9.999E+003 -9.999E+003 -9.999E+003 -9.999E+003 -9.999E+003 -9.999E+003 -9.999E+003 -9.999E+003 -9.999E+003 -9.999E+003 -9.999E+003 -9.999E+003 -9.999E+003 -9.999E+003 -9.999E+003
 -9.999E+003 -9.999E+003 -9.999E+003 -9.999E+003 -9.999E+003 -9.999E+003 -9.999E+003 -9.999E+003 -9.999E+003 -9.999E+003 -9.999E+003 -9.999E+003 -9.999E+003 -9.999E+003 -9.999E+003 -9.999E+003 -9.999E+003 -9.999E+003 -9.999E+003 -9.999E+003 -9.999E+003 -9.999E+003 -9.999E+003 -9.999E+003 -9.999E+003 -9.999E+003 -9.999E+003 -9.999E+003 -9.999E+003 -9.999E+003 -9.999E+003 -9.999E+003 -9.999E+003 -9.999E+003 -9.999E+003 -9.999E+003 -9.999E+003 -9.999E+003 -9.999E+003 -9.999E+003 -9.999E+003 -9.999E+003 -9.999E+003 -9.999E+003 -9.999E+003 -9.999E+003 -9.999E+003 -9.999E+003 -9.999E+003 -9.999E+003 -9.999E+003 -9.999E+003 -9.999E+003 -9.999E+003 -9.999E+003 -9.999E+003 -9.999E+003 -9.999E+003 -9.999E+003 -9.999E+003 -9.999E+003 -9.999E+003 -9.999E+003 -9.999E+003 -9.999E+003 -9.999E+003 -9.999E+003 -9.999E+003 -9.999E+003 -9.999E+003 -9.999E+003 -9.999E+003 -9.999E+003 -9.999E+003 -9.999E+003 -9.999E+003 -9.999E+003 -9.999E+003 -9.999E+003 -9.999E+003 -9.999E+003 -9.999E+003 -9.999E+003 -9.999E+003 -9.999E+003 -9.999E+003 -9.999E+003 -9.999E+003 -9.999E+003 -9.999E+003 -9.999E+003 -9.999E+003 -9.999E+003 -9.999E+003 -9.999E+003 -9.999E+003 -9.999E+003 -9.999E+003 -9.999E+003 -9.999E+003 -9.999E+003 -9.999E+003 -9.999E+003 -9.999E+003 -9.999E+003 -9.999E+003 -9.999E+003 -9.999E+003 -9.999E+003 -9.999E+003 -9.999E+003 -9.999E+003 -9.999E+003 -9.999E+003 -9.999E+003 -9.999E+003 -9.999E+003 -9.999E+003 -9.999E+003 -9.999E+003 -9.999E+003 -9.999E+003 -9.999E+003 -9.999E+003 -9.999E+003 -9.999E+003 -9.999E+003 -9.999E+003 -9.999E+003 -9.999E+003 -9.999E+003 -9.999E+003 -9.999E+003 -9.999E+003 -9.999E+003 -9.999E+003 -9.999E+003 -9.999E+003 -9.999E+003 -9.999E+003 -9.999E+003 -9.999E+003 -9.999E+003 -9.999E+003 -9.999E+003 -9.999E+003 -9.999E+003 -9.999E+003 -9.999E+003 -9.999E+003
 -9.999E+003 -9.999E+003 -9.999E+003 -9.999E+003 -9.999E+003 -9.999E+003 -9.999E+003 -9.999E+003 -9.999E+003 -9.999E+003 -9.999E+003 -9.999E+003 -9.999E+003 -9.999E+003 -9.999E+003 -9.999E+003 -9.999E+003 -9.999E+003 -9.999E+003 -9.999E+003 -9.999E+003 -9.999E+003 -9.999E+003 -9.999E+003 -9.999E+003 -9.999E+003 -9.999E+003 -9.999E+003 -9.999E+003 -9.999E+003 -9.999E+003 -9.999E+003 -9.999E+003 -9.999E+003 -9.999E+003 -9.999E+003 -9.999E+003 -9.999E+003 -9.999E+003 -9.999E+003 -9.999E+003 -9.999E+003 -9.999E+003 -9.999E+003 -9.999E+003 -9.999E+003 -9.999E+003 -9.999E+003 -9.999E+003 -9.999E+003 -9.999E+003 -9.999E+003 -9.999E+003 -9.999E+003 -9.999E+003 -9.999E+003 -9.999E+003 -9.999E+003 -9.999E+003 -9.999E+003 -9.999E+003 -9.999E+003 -9.999E+003 -9.999E+003 -9.999E+003 -9.999E+003 -9.999E+003 -9.999E+003 -9.999E+003 -9.999E+003 -9.999E+003 -9.999E+003 -9.999E+003 -9.999E+003 -9.999E+003 -9.999E+003 -9.999E+003 -9.999E+003 -9.999E+003 -9.999E+003 -9.999E+003 -9.999E+003 -9.999E+003 -9.999E+003 -9.999E+003 -9.999E+003 -9.999E+003 -9.999E+003 -9.999E+003 -9.999E+003 -9.999E+003 -9.999E+003 -9.999E+003 -9.999E+003 -9.999E+003 -9.999E+003 -9.999E+003 -9.999E+003 -9.999E+003 -9.999E+003 -9.999E+003 -9.999E+003 -9.999E+003 -9.999E+003 -9.999E+003 -9.999E+003 -9.999E+003 -9.999E+003 -9.999E+003 -9.999E+003 -9.999E+003 -9.999E+003 -9.999E+003 -9.999E+003 -9.999E+003 -9.999E+003 -9.999E+003 -9.999E+003 -9.999E+003 -9.999E+003 -9.999E+003 -9.999E+003 -9.999E+003 -9.999E+003 -9.999E+003 -9.999E+003 -9.999E+003 -9.999E+003 -9.999E+003 -9.999E+003 -9.999E+003 -9.999E+003 -9.999E+003 -9.999E+003 -9.999E+003 -9.999E+003 -9.999E+003 -9.999E+003 -9.999E+003 -9.999E+003 -9.999E+003 -9.999E+003 -9.999E+003 -9.999E+003 -9.999E+003 -9.999E+003 -9.999E+003 -9.999E+003 -9.999E+003 -9.999E+003
 -9.999E+003 -9.999E+003 -9.999E+003 -9.999E+003 -9.999E+003 -9.999E+003 -9.999E+003 -9.999E+003 -9.999E+003 -9.999E+003 -9.999E+003 -9.999E+003 -9.999E+003 -9.999E+003 -9.999E+003 -9.999E+003 -9.999E+003 -9.999E+003 -9.999E+003 -9.999E+003 -9.999E+003 -9.999E+003 -9.999E+003 -9.999E+003 -9.999E+003 -9.999E+003 -9.999E+003 -9.999E+003 -9.999E+003 -9.999E+003 -9.999E+003 -9.999E+003 -9.999E+003 -9.999E+003 -9.999E+003 -9.999E+003 -9.999E+003 -9.999E+003 -9.999E+003 -9.999E+003 -9.999E+003 -9.999E+003 -9.999E+003 -9.999E+003 -9.999E+003 -9.999E+003 -9.999E+003 -9.999E+003 -9.999E+003 -9.999E+003 -9.999E+003 -9.999E+003 -9.999E+003 -9.999E+003 -9.999E+003 -9.999E+003 -9.999E+003 -9.999E+003 -9.999E+003 -9.999E+003 -9.999E+003 -9.999E+003 -9.999E+003 -9.999E+003 -9.999E+003 -9.999E+003 -9.999E+003 -9.999E+003 -9.999E+003 -9.999E+003 -9.999E+003 -9.999E+003 -9.999E+003 -9.999E+003 -9.999E+003 -9.999E+003 -9.999E+003 -9.999E+003 -9.999E+003 -9.999E+003 -9.999E+003 -9.999E+003 -9.999E+003 -9.999E+003 -9.999E+003 -9.999E+003 -9.999E+003 -9.999E+003 -9.999E+003 -9.999E+003 -9.999E+003 -9.999E+003 -9.999E+003 -9.999E+003 -9.999E+003 -9.999E+003 -9.999E+003 -9.999E+003 -9.999E+003 -9.999E+003 -9.999E+003 -9.999E+003 -9.999E+003 -9.999E+003 -9.999E+003 -9.999E+003 -9.999E+003 -9.999E+003 -9.999E+003 -9.999E+003 -9.999E+003 -9.999E+003 -9.999E+003 -9.999E+003 -9.999E+003 -9.999E+003 -9.999E+003 -9.999E+003 -9.999E+003 -9.999E+003 -9.999E+003 -9.999E+003 -9.999E+003 -9.999E+003 -9.999E+003 -9.999E+003 -9.999E+003 -9.999E+003 -9.999E+003 -9.999E+003 -9.999E+003 -9.999E+003 -9.999E+003 -9.999E+003 -9.999E+003 -9.999E+003 -9.999E+003 -9.999E+003 -9.999E+003 -9.999E+003 -9.999E+003 -9.999E+003 -9.999E+003 -9.999E+003 -9.999E+003 -9.999E+003 -9.999E+003 -9.999E+003 -9.999E+003 -9.999E+003
 -9.999E+003 -9.999E+003 -9.999E+003 -9.999E+003 -9.999E+003 -9.999E+003 -9.999E+003 -9.999E+003 -9.999E+003 -9.999E+003 -9.999E+003 -9.999E+003 -9.999E+003 -9.999E+003 -9.999E+003 -9.999E+003 -9.999E+003 -9.999E+003 -9.999E+003 -9.999E+003 -9.999E+003 -9.999E+003 -9.999E+003 -9.999E+003 -9.999E+003 -9.999E+003 -9.999E+003 -9.999E+003 -9.999E+003 -9.999E+003 -9.999E+003 -9.999E+003 -9.999E+003 -9.999E+003 -9.999E+003 -9.999E+003 -9.999E+003 -9.999E+003 -9.999E+003 -9.999E+003 -9.999E+003 -9.999E+003 -9.999E+003 -9.999E+003 -9.999E+003 -9.999E+003 -9.999E+003 -9.999E+003 -9.999E+003 -9.999E+003 -9.999E+003 -9.999E+003 -9.999E+003 -9.999E+003 -9.999E+003 -9.999E+003 -9.999E+003 -9.999E+003 -9.999E+003 -9.999E+003 -9.999E+003 -9.999E+003 -9.999E+003 -9.999E+003 -9.999E+003 -9.999E+003 -9.999E+003 -9.999E+003 -9.999E+003 -9.999E+003 -9.999E+003 -9.999E+003 -9.999E+003 -9.999E+003 -9.999E+003 -9.999E+003 -9.999E+003 -9.999E+003 -9.999E+003 -9.999E+003 -9.999E+003 -9.999E+003 -9.999E+003 -9.999E+003 -9.999E+003 -9.999E+003 -9.999E+003 -9.999E+003 -9.999E+003 -9.999E+003 -9.999E+003 -9.999E+003 -9.999E+003 -9.999E+003 -9.999E+003 -9.999E+003 -9.999E+003 -9.999E+003 -9.999E+003 -9.999E+003 -9.999E+003 -9.999E+003 -9.999E+003 -9.999E+003 -9.999E+003 -9.999E+003 -9.999E+003 -9.999E+003 -9.999E+003 -9.999E+003 -9.999E+003 -9.999E+003 -9.999E+003 -9.999E+003 -9.999E+003 -9.999E+003 -9.999E+003 -9.999E+003 -9.999E+003 -9.999E+003 -9.999E+003 -9.999E+003 -9.999E+003 -9.999E+003 -9.999E+003 -9.999E+003 -9.999E+003 -9.999E+003 -9.999E+003 -9.999E+003 -9.999E+003 -9.999E+003 -9.999E+003 -9.999E+003 -9.999E+003 -9.999E+003 -9.999E+003 -9.999E+003 -9.999E+003 -9.999E+003 -9.999E+003 -9.999E+003 -9.999E+003 -9.999E+003 -9.999E+003 -9.999E+003 -9.999E+003 -9.999E+003 -9.999E+003 -9.999E+003
 -9.999E+003 -9.999E+003 -9.999E+003 -9.999E+003 -9.999E+003 -9.999E+003 -9.999E+003 -9.999E+003 -9.999E+003 -9.999E+003 -9.999E+003 -9.999E+003 -9.999E+003 -9.999E+003 -9.999E+003 -9.999E+003 -9.999E+003 -9.999E+003 -9.999E+003 -9.999E+003 -9.999E+003 -9.999E+003 -9.999E+003 -9.999E+003 -9.999E+003 -9.999E+003 -9.999E+003 -9.999E+003 -9.999E+003 -9.999E+003 -9.999E+003 -9.999E+003 -9.999E+003 -9.999E+003 -9.999E+003 -9.999E+003 -9.999E+003 -9.999E+003 -9.999E+003 -9.999E+003 -9.999E+003 -9.999E+003 -9.999E+003 -9.999E+003 -9.999E+003 -9.999E+003 -9.999E+003 -9.999E+003 -9.999E+003 -9.999E+003 -9.999E+003 -9.999E+003 -9.999E+003 -9.999E+003 -9.999E+003 -9.999E+003 -9.999E+003 -9.999E+003 -9.999E+003 -9.999E+003 -9.999E+003 -9.999E+003 -9.999E+003 -9.999E+003 -9.999E+003 -9.999E+003 -9.999E+003 -9.999E+003 -9.999E+003 -9.999E+003 -9.999E+003 -9.999E+003 -9.999E+003 -9.999E+003 -9.999E+003 -9.999E+003 -9.999E+003 -9.999E+003 -9.999E+003 -9.999E+003 -9.999E+003 -9.999E+003 -9.999E+003 -9.999E+003 -9.999E+003 -9.999E+003 -9.999E+003 -9.999E+003 -9.999E+003 -9.999E+003 -9.999E+003 -9.999E+003 -9.999E+003 -9.999E+003 -9.999E+003 -9.999E+003 -9.999E+003 -9.999E+003 -9.999E+003 -9.999E+003 -9.999E+003 -9.999E+003 -9.999E+003 -9.999E+003 -9.999E+003 -9.999E+003 -9.999E+003 -9.999E+003 -9.999E+003 -9.999E+003 -9.999E+003 -9.999E+003 -9.999E+003 -9.999E+003 -9.999E+003 -9.999E+003 -9.999E+003 -9.999E+003 -9.999E+003 -9.999E+003 -9.999E+003 -9.999E+003 -9.999E+003 -9.999E+003 -9.999E+003 -9.999E+003 -9.999E+003 -9.999E+003 -9.999E+003 -9.999E+003 -9.999E+003 -9.999E+003 -9.999E+003 -9.999E+003 -9.999E+003 -9.999E+003 -9.999E+003 -9.999E+003 -9.999E+003 -9.999E+003 -9.999E+003 -9.999E+003 -9.999E+003 -9.999E+003 -9.999E+003 -9.999E+003 -9.999E+003 -9.999E+003 -9.999E+003 -9.999E+003
 -9.999E+003 -9.999E+003 -9.999E+003 -9.999E+003 -9.999E+003 -9.999E+003 -9.999E+003 -9.999E+003 -9.999E+003 -9.999E+003 -9.999E+003 -9.999E+003 -9.999E+003 -9.999E+003 -9.999E+003 -9.999E+003 -9.999E+003 -9.999E+003 -9.999E+003 -9.999E+003 -9.999E+003 -9.999E+003 -9.999E+003 -9.999E+003 -9.999E+003 -9.999E+003 -9.999E+003 -9.999E+003 -9.999E+003 -9.999E+003 -9.999E+003 -9.999E+003 -9.999E+003 -9.999E+003 -9.999E+003 -9.999E+003 -9.999E+003 -9.999E+003 -9.999E+003 -9.999E+003 -9.999E+003 -9.999E+003 -9.999E+003 -9.999E+003 -9.999E+003 -9.999E+003 -9.999E+003 -9.999E+003 -9.999E+003 -9.999E+003 -9.999E+003 -9.999E+003 -9.999E+003 -9.999E+003 -9.999E+003 -9.999E+003 -9.999E+003 -9.999E+003 -9.999E+003 -9.999E+003 -9.999E+003 -9.999E+003 -9.999E+003 -9.999E+003 -9.999E+003 -9.999E+003 -9.999E+003 -9.999E+003 -9.999E+003 -9.999E+003 -9.999E+003 -9.999E+003 -9.999E+003 -9.999E+003 -9.999E+003 -9.999E+003 -9.999E+003 -9.999E+003 -9.999E+003 -9.999E+003 -9.999E+003 -9.999E+003 -9.999E+003 -9.999E+003 -9.999E+003 -9.999E+003 -9.999E+003 -9.999E+003 -9.999E+003 -9.999E+003 -9.999E+003 -9.999E+003 -9.999E+003 -9.999E+003 -9.999E+003 -9.999E+003 -9.999E+003 -9.999E+003 -9.999E+003 -9.999E+003 -9.999E+003 -9.999E+003 -9.999E+003 -9.999E+003 -9.999E+003 -9.999E+003 -9.999E+003 -9.999E+003 -9.999E+003 -9.999E+003 -9.999E+003 -9.999E+003 -9.999E+003 -9.999E+003 -9.999E+003 -9.999E+003 -9.999E+003 -9.999E+003 -9.999E+003 -9.999E+003 -9.999E+003 -9.999E+003 -9.999E+003 -9.999E+003 -9.999E+003 -9.999E+003 -9.999E+003 -9.999E+003 -9.999E+003 -9.999E+003 -9.999E+003 -9.999E+003 -9.999E+003 -9.999E+003 -9.999E+003 -9.999E+003 -9.999E+003 -9.999E+003 -9.999E+003 -9.999E+003 -9.999E+003 -9.999E+003 -9.999E+003 -9.999E+003 -9.999E+003 -9.999E+003 -9.999E+003 -9.999E+003 -9.999E+003 -9.999E+003
 -9.999E+003 -9.999E+003 -9.999E+003 -9.999E+003 -9.999E+003 -9.999E+003 -9.999E+003 -9.999E+003 -9.999E+003 -9.999E+003 -9.999E+003 -9.999E+003 -9.999E+003 -9.999E+003 -9.999E+003 -9.999E+003 -9.999E+003 -9.999E+003 -9.999E+003 -9.999E+003 -9.999E+003 -9.999E+003 -9.999E+003 -9.999E+003 -9.999E+003 -9.999E+003 -9.999E+003 -9.999E+003 -9.999E+003 -9.999E+003 -9.999E+003 -9.999E+003 -9.999E+003 -9.999E+003 -9.999E+003 -9.999E+003 -9.999E+003 -9.999E+003 -9.999E+003 -9.999E+003 -9.999E+003 -9.999E+003 -9.999E+003 -9.999E+003 -9.999E+003 -9.999E+003 -9.999E+003 -9.999E+003 -9.999E+003 -9.999E+003 -9.999E+003 -9.999E+003 -9.999E+003 -9.999E+003 -9.999E+003 -9.999E+003 -9.999E+003 -9.999E+003 -9.999E+003 -9.999E+003 -9.999E+003 -9.999E+003 -9.999E+003 -9.999E+003 -9.999E+003 -9.999E+003 -9.999E+003 -9.999E+003 -9.999E+003 -9.999E+003 -9.999E+003 -9.999E+003 -9.999E+003 -9.999E+003 -9.999E+003 -9.999E+003 -9.999E+003 -9.999E+003 -9.999E+003 -9.999E+003 -9.999E+003 -9.999E+003 -9.999E+003 -9.999E+003 -9.999E+003 -9.999E+003 -9.999E+003 -9.999E+003 -9.999E+003 -9.999E+003 -9.999E+003 -9.999E+003 -9.999E+003 -9.999E+003 -9.999E+003 -9.999E+003 -9.999E+003 -9.999E+003 -9.999E+003 -9.999E+003 -9.999E+003 -9.999E+003 -9.999E+003 -9.999E+003 -9.999E+003 -9.999E+003 -9.999E+003 -9.999E+003 -9.999E+003 -9.999E+003 -9.999E+003 -9.999E+003 -9.999E+003 -9.999E+003 -9.999E+003 -9.999E+003 -9.999E+003 -9.999E+003 -9.999E+003 -9.999E+003 -9.999E+003 -9.999E+003 -9.999E+003 -9.999E+003 -9.999E+003 -9.999E+003 -9.999E+003 -9.999E+003 -9.999E+003 -9.999E+003 -9.999E+003 -9.999E+003 -9.999E+003 -9.999E+003 -9.999E+003 -9.999E+003 -9.999E+003 -9.999E+003 -9.999E+003 -9.999E+003 -9.999E+003 -9.999E+003 -9.999E+003 -9.999E+003 -9.999E+003 -9.999E+003 -9.999E+003 -9.999E+003 -9.999E+003 -9.999E+003
 -9.999E+003 -9.999E+003 -9.999E+003 -9.999E+003 -9.999E+003 -9.999E+003 -9.999E+003 -9.999E+003 -9.999E+003 -9.999E+003 -9.999E+003 -9.999E+003 -9.999E+003 -9.999E+003 -9.999E+003 -9.999E+003 -9.999E+003 -9.999E+003 -9.999E+003 -9.999E+003 -9.999E+003 -9.999E+003 -9.999E+003 -9.999E+003 -9.999E+003 -9.999E+003 -9.999E+003 -9.999E+003 -9.999E+003 -9.999E+003 -9.999E+003 -9.999E+003 -9.999E+003 -9.999E+003 -9.999E+003 -9.999E+003 -9.999E+003 -9.999E+003 -9.999E+003 -9.999E+003 -9.999E+003 -9.999E+003 -9.999E+003 -9.999E+003 -9.999E+003 -9.999E+003 -9.999E+003 -9.999E+003 -9.999E+003 -9.999E+003 -9.999E+003 -9.999E+003 -9.999E+003 -9.999E+003 -9.999E+003 -9.999E+003 -9.999E+003 -9.999E+003 -9.999E+003 -9.999E+003 -9.999E+003 -9.999E+003 -9.999E+003 -9.999E+003 -9.999E+003 -9.999E+003 -9.999E+003 -9.999E+003 -9.999E+003 -9.999E+003 -9.999E+003 -9.999E+003 -9.999E+003 -9.999E+003 -9.999E+003 -9.999E+003 -9.999E+003 -9.999E+003 -9.999E+003 -9.999E+003 -9.999E+003 -9.999E+003 -9.999E+003 -9.999E+003 -9.999E+003 -9.999E+003 -9.999E+003 -9.999E+003 -9.999E+003 -9.999E+003 -9.999E+003 -9.999E+003 -9.999E+003 -9.999E+003 -9.999E+003 -9.999E+003 -9.999E+003 -9.999E+003 -9.999E+003 -9.999E+003 -9.999E+003 -9.999E+003 -9.999E+003 -9.999E+003 -9.999E+003 -9.999E+003 -9.999E+003 -9.999E+003 -9.999E+003 -9.999E+003 -9.999E+003 -9.999E+003 -9.999E+003 -9.999E+003 -9.999E+003 -9.999E+003 -9.999E+003 -9.999E+003 -9.999E+003 -9.999E+003 -9.999E+003 -9.999E+003 -9.999E+003 -9.999E+003 -9.999E+003 -9.999E+003 -9.999E+003 -9.999E+003 -9.999E+003 -9.999E+003 -9.999E+003 -9.999E+003 -9.999E+003 -9.999E+003 -9.999E+003 -9.999E+003 -9.999E+003 -9.999E+003 -9.999E+003 -9.999E+003 -9.999E+003 -9.999E+003 -9.999E+003 -9.999E+003 -9.999E+003 -9.999E+003 -9.999E+003 -9.999E+003 -9.999E+003 -9.999E+003
 -9.999E+003 -9.999E+003 -9.999E+003 -9.999E+003 -9.999E+003 -9.999E+003 -9.999E+003 -9.999E+003 -9.999E+003 -9.999E+003 -9.999E+003 -9.999E+003 -9.999E+003 -9.999E+003 -9.999E+003 -9.999E+003 -9.999E+003 -9.999E+003 -9.999E+003 -9.999E+003 -9.999E+003 -9.999E+003 -9.999E+003 -9.999E+003 -9.999E+003 -9.999E+003 -9.999E+003 -9.999E+003 -9.999E+003 -9.999E+003 -9.999E+003 -9.999E+003 -9.999E+003 -9.999E+003 -9.999E+003 -9.999E+003 -9.999E+003 -9.999E+003 -9.999E+003 -9.999E+003 -9.999E+003 -9.999E+003 -9.999E+003 -9.999E+003 -9.999E+003 -9.999E+003 -9.999E+003 -9.999E+003 -9.999E+003 -9.999E+003 -9.999E+003 -9.999E+003 -9.999E+003 -9.999E+003 -9.999E+003 -9.999E+003 -9.999E+003 -9.999E+003 -9.999E+003 -9.999E+003 -9.999E+003 -9.999E+003 -9.999E+003 -9.999E+003 -9.999E+003 -9.999E+003 -9.999E+003 -9.999E+003 -9.999E+003 -9.999E+003 -9.999E+003 -9.999E+003 -9.999E+003 -9.999E+003 -9.999E+003 -9.999E+003 -9.999E+003 -9.999E+003 -9.999E+003 -9.999E+003 -9.999E+003 -9.999E+003 -9.999E+003 -9.999E+003 -9.999E+003 -9.999E+003 -9.999E+003 -9.999E+003 -9.999E+003 -9.999E+003 -9.999E+003 -9.999E+003 -9.999E+003 -9.999E+003 -9.999E+003 -9.999E+003 -9.999E+003 -9.999E+003 -9.999E+003 -9.999E+003 -9.999E+003 -9.999E+003 -9.999E+003 -9.999E+003 -9.999E+003 -9.999E+003 -9.999E+003 -9.999E+003 -9.999E+003 -9.999E+003 -9.999E+003 -9.999E+003 -9.999E+003 -9.999E+003 -9.999E+003 -9.999E+003 -9.999E+003 -9.999E+003 -9.999E+003 -9.999E+003 -9.999E+003 -9.999E+003 -9.999E+003 -9.999E+003 -9.999E+003 -9.999E+003 -9.999E+003 -9.999E+003 -9.999E+003 -9.999E+003 -9.999E+003 -9.999E+003 -9.999E+003 -9.999E+003 -9.999E+003 -9.999E+003 -9.999E+003 -9.999E+003 -9.999E+003 -9.999E+003 -9.999E+003 -9.999E+003 -9.999E+003 -9.999E+003 -9.999E+003 -9.999E+003 -9.999E+003 -9.999E+003 -9.999E+003 -9.999E+003
 -9.999E+003 -9.999E+003 -9.999E+003 -9.999E+003 -9.999E+003 -9.999E+003 -9.999E+003 -9.999E+003 -9.999E+003 -9.999E+003 -9.999E+003 -9.999E+003 -9.999E+003 -9.999E+003 -9.999E+003 -9.999E+003 -9.999E+003 -9.999E+003 -9.999E+003 -9.999E+003 -9.999E+003 -9.999E+003 -9.999E+003 -9.999E+003 -9.999E+003 -9.999E+003 -9.999E+003 -9.999E+003 -9.999E+003 -9.999E+003 -9.999E+003 -9.999E+003 -9.999E+003 -9.999E+003 -9.999E+003 -9.999E+003 -9.999E+003 -9.999E+003 -9.999E+003 -9.999E+003 -9.999E+003 -9.999E+003 -9.999E+003 -9.999E+003 -9.999E+003 -9.999E+003 -9.999E+003 -9.999E+003 -9.999E+003 -9.999E+003 -9.999E+003 -9.999E+003 -9.999E+003 -9.999E+003 -9.999E+003 -9.999E+003 -9.999E+003 -9.999E+003 -9.999E+003 -9.999E+003 -9.999E+003 -9.999E+003 -9.999E+003 -9.999E+003 -9.999E+003 -9.999E+003 -9.999E+003 -9.999E+003 -9.999E+003 -9.999E+003 -9.999E+003 -9.999E+003 -9.999E+003 -9.999E+003 -9.999E+003 -9.999E+003 -9.999E+003 -9.999E+003 -9.999E+003 -9.999E+003 -9.999E+003 -9.999E+003 -9.999E+003 -9.999E+003 -9.999E+003 -9.999E+003 -9.999E+003 -9.999E+003 -9.999E+003 -9.999E+003 -9.999E+003 -9.999E+003 -9.999E+003 -9.999E+003 -9.999E+003 -9.999E+003 -9.999E+003 -9.999E+003 -9.999E+003 -9.999E+003 -9.999E+003 -9.999E+003 -9.999E+003 -9.999E+003 -9.999E+003 -9.999E+003 -9.999E+003 -9.999E+003 -9.999E+003 -9.999E+003 -9.999E+003 -9.999E+003 -9.999E+003 -9.999E+003 -9.999E+003 -9.999E+003 -9.999E+003 -9.999E+003 -9.999E+003 -9.999E+003 -9.999E+003 -9.999E+003 -9.999E+003 -9.999E+003 -9.999E+003 -9.999E+003 -9.999E+003 -9.999E+003 -9.999E+003 -9.999E+003 -9.999E+003 -9.999E+003 -9.999E+003 -9.999E+003 -9.999E+003 -9.999E+003 -9.999E+003 -9.999E+003 -9.999E+003 -9.999E+003 -9.999E+003 -9.999E+003 -9.999E+003 -9.999E+003 -9.999E+003 -9.999E+003 -9.999E+003 -9.999E+003 -9.999E+003 -9.999E+003
 -9.999E+003 -9.999E+003 -9.999E+003 -9.999E+003 -9.999E+003 -9.999E+003 -9.999E+003 -9.999E+003 -9.999E+003 -9.999E+003 -9.999E+003 -9.999E+003 -9.999E+003 -9.999E+003 -9.999E+003 -9.999E+003 -9.999E+003 -9.999E+003 -9.999E+003 -9.999E+003 -9.999E+003 -9.999E+003 -9.999E+003 -9.999E+003 -9.999E+003 -9.999E+003 -9.999E+003 -9.999E+003 -9.999E+003 -9.999E+003 -9.999E+003 -9.999E+003 -9.999E+003 -9.999E+003 -9.999E+003 -9.999E+003 -9.999E+003 -9.999E+003 -9.999E+003 -9.999E+003 -9.999E+003 -9.999E+003 -9.999E+003 -9.999E+003 -9.999E+003 -9.999E+003 -9.999E+003 -9.999E+003 -9.999E+003 -9.999E+003 -9.999E+003 -9.999E+003 -9.999E+003 -9.999E+003 -9.999E+003 -9.999E+003 -9.999E+003 -9.999E+003 -9.999E+003 -9.999E+003 -9.999E+003 -9.999E+003 -9.999E+003 -9.999E+003 -9.999E+003 -9.999E+003 -9.999E+003 -9.999E+003 -9.999E+003 -9.999E+003 -9.999E+003 -9.999E+003 -9.999E+003 -9.999E+003 -9.999E+003 -9.999E+003 -9.999E+003 -9.999E+003 -9.999E+003 -9.999E+003 -9.999E+003 -9.999E+003 -9.999E+003 -9.999E+003 -9.999E+003 -9.999E+003 -9.999E+003 -9.999E+003 -9.999E+003 -9.999E+003 -9.999E+003 -9.999E+003 -9.999E+003 -9.999E+003 -9.999E+003 -9.999E+003 -9.999E+003 -9.999E+003 -9.999E+003 -9.999E+003 -9.999E+003 -9.999E+003 -9.999E+003 -9.999E+003 -9.999E+003 -9.999E+003 -9.999E+003 -9.999E+003 -9.999E+003 -9.999E+003 -9.999E+003 -9.999E+003 -9.999E+003 -9.999E+003 -9.999E+003 -9.999E+003 -9.999E+003 -9.999E+003 -9.999E+003 -9.999E+003 -9.999E+003 -9.999E+003 -9.999E+003 -9.999E+003 -9.999E+003 -9.999E+003 -9.999E+003 -9.999E+003 -9.999E+003 -9.999E+003 -9.999E+003 -9.999E+003 -9.999E+003 -9.999E+003 -9.999E+003 -9.999E+003 -9.999E+003 -9.999E+003 -9.999E+003 -9.999E+003 -9.999E+003 -9.999E+003 -9.999E+003 -9.999E+003 -9.999E+003 -9.999E+003 -9.999E+003 -9.999E+003 -9.999E+003 -9.999E+003
 -9.999E+003 -9.999E+003 -9.999E+003 -9.999E+003 -9.999E+003 -9.999E+003 -9.999E+003 -9.999E+003 -9.999E+003 -9.999E+003 -9.999E+003 -9.999E+003 -9.999E+003 -9.999E+003 -9.999E+003 -9.999E+003 -9.999E+003 -9.999E+003 -9.999E+003 -9.999E+003 -9.999E+003 -9.999E+003 -9.999E+003 -9.999E+003 -9.999E+003 -9.999E+003 -9.999E+003 -9.999E+003 -9.999E+003 -9.999E+003 -9.999E+003 -9.999E+003 -9.999E+003 -9.999E+003 -9.999E+003 -9.999E+003 -9.999E+003 -9.999E+003 -9.999E+003 -9.999E+003 -9.999E+003 -9.999E+003 -9.999E+003 -9.999E+003 -9.999E+003 -9.999E+003 -9.999E+003 -9.999E+003 -9.999E+003 -9.999E+003 -9.999E+003 -9.999E+003 -9.999E+003 -9.999E+003 -9.999E+003 -9.999E+003 -9.999E+003 -9.999E+003 -9.999E+003 -9.999E+003 -9.999E+003 -9.999E+003 -9.999E+003 -9.999E+003 -9.999E+003 -9.999E+003 -9.999E+003 -9.999E+003 -9.999E+003 -9.999E+003 -9.999E+003 -9.999E+003 -9.999E+003 -9.999E+003 -9.999E+003 -9.999E+003 -9.999E+003 -9.999E+003 -9.999E+003 -9.999E+003 -9.999E+003 -9.999E+003 -9.999E+003 -9.999E+003 -9.999E+003 -9.999E+003 -9.999E+003 -9.999E+003 -9.999E+003 -9.999E+003 -9.999E+003 -9.999E+003 -9.999E+003 -9.999E+003 -9.999E+003 -9.999E+003 -9.999E+003 -9.999E+003 -9.999E+003 -9.999E+003 -9.999E+003 -9.999E+003 -9.999E+003 -9.999E+003 -9.999E+003 -9.999E+003 -9.999E+003 -9.999E+003 -9.999E+003 -9.999E+003 -9.999E+003 -9.999E+003 -9.999E+003 -9.999E+003 -9.999E+003 -9.999E+003 -9.999E+003 -9.999E+003 -9.999E+003 -9.999E+003 -9.999E+003 -9.999E+003 -9.999E+003 -9.999E+003 -9.999E+003 -9.999E+003 -9.999E+003 -9.999E+003 -9.999E+003 -9.999E+003 -9.999E+003 -9.999E+003 -9.999E+003 -9.999E+003 -9.999E+003 -9.999E+003 -9.999E+003 -9.999E+003 -9.999E+003 -9.999E+003 -9.999E+003 -9.999E+003 -9.999E+003 -9.999E+003 -9.999E+003 -9.999E+003 -9.999E+003 -9.999E+003 -9.999E+003 -9.999E+003
 -9.999E+003 -9.999E+003 -9.999E+003 -9.999E+003 -9.999E+003 -9.999E+003 -9.999E+003 -9.999E+003 -9.999E+003 -9.999E+003 -9.999E+003 -9.999E+003 -9.999E+003 -9.999E+003 -9.999E+003 -9.999E+003 -9.999E+003 -9.999E+003 -9.999E+003 -9.999E+003 -9.999E+003 -9.999E+003 -9.999E+003 -9.999E+003 -9.999E+003 -9.999E+003 -9.999E+003 -9.999E+003 -9.999E+003 -9.999E+003 -9.999E+003 -9.999E+003 -9.999E+003 -9.999E+003 -9.999E+003 -9.999E+003 -9.999E+003 -9.999E+003 -9.999E+003 -9.999E+003 -9.999E+003 -9.999E+003 -9.999E+003 -9.999E+003 -9.999E+003 -9.999E+003 -9.999E+003 -9.999E+003 -9.999E+003 -9.999E+003 -9.999E+003 -9.999E+003 -9.999E+003 -9.999E+003 -9.999E+003 -9.999E+003 -9.999E+003 -9.999E+003 -9.999E+003 -9.999E+003 -9.999E+003 -9.999E+003 -9.999E+003 -9.999E+003 -9.999E+003 -9.999E+003 -9.999E+003 -9.999E+003 -9.999E+003 -9.999E+003 -9.999E+003 -9.999E+003 -9.999E+003 -9.999E+003 -9.999E+003 -9.999E+003 -9.999E+003 -9.999E+003 -9.999E+003 -9.999E+003 -9.999E+003 -9.999E+003 -9.999E+003 -9.999E+003 -9.999E+003 -9.999E+003 -9.999E+003 -9.999E+003 -9.999E+003 -9.999E+003 -9.999E+003 -9.999E+003 -9.999E+003 -9.999E+003 -9.999E+003 -9.999E+003 -9.999E+003 -9.999E+003 -9.999E+003 -9.999E+003 -9.999E+003 -9.999E+003 -9.999E+003 -9.999E+003 -9.999E+003 -9.999E+003 -9.999E+003 -9.999E+003 -9.999E+003 -9.999E+003 -9.999E+003 -9.999E+003 -9.999E+003 -9.999E+003 -9.999E+003 -9.999E+003 -9.999E+003 -9.999E+003 -9.999E+003 -9.999E+003 -9.999E+003 -9.999E+003 -9.999E+003 -9.999E+003 -9.999E+003 -9.999E+003 -9.999E+003 -9.999E+003 -9.999E+003 -9.999E+003 -9.999E+003 -9.999E+003 -9.999E+003 -9.999E+003 -9.999E+003 -9.999E+003 -9.999E+003 -9.999E+003 -9.999E+003 -9.999E+003 -9.999E+003 -9.999E+003 -9.999E+003 -9.999E+003 -9.999E+003 -9.999E+003 -9.999E+003 -9.999E+003 -9.999E+003 -9.999E+003
 -9.999E+003 -9.999E+003 -9.999E+003 -9.999E+003 -9.999E+003 -9.999E+003 -9.999E+003 -9.999E+003 -9.999E+003 -9.999E+003 -9.999E+003 -9.999E+003 -9.999E+003 -9.999E+003 -9.999E+003 -9.999E+003 -9.999E+003 -9.999E+003 -9.999E+003 -9.999E+003 -9.999E+003 -9.999E+003 -9.999E+003 -9.999E+003 -9.999E+003 -9.999E+003 -9.999E+003 -9.999E+003 -9.999E+003 -9.999E+003 -9.999E+003 -9.999E+003 -9.999E+003 -9.999E+003 -9.999E+003 -9.999E+003 -9.999E+003 -9.999E+003 -9.999E+003 -9.999E+003 -9.999E+003 -9.999E+003 -9.999E+003 -9.999E+003 -9.999E+003 -9.999E+003 -9.999E+003 -9.999E+003 -9.999E+003 -9.999E+003 -9.999E+003 -9.999E+003 -9.999E+003 -9.999E+003 -9.999E+003 -9.999E+003 -9.999E+003 -9.999E+003 -9.999E+003 -9.999E+003 -9.999E+003 -9.999E+003 -9.999E+003 -9.999E+003 -9.999E+003 -9.999E+003 -9.999E+003 -9.999E+003 -9.999E+003 -9.999E+003 -9.999E+003 -9.999E+003 -9.999E+003 -9.999E+003 -9.999E+003 -9.999E+003 -9.999E+003 -9.999E+003 -9.999E+003 -9.999E+003 -9.999E+003 -9.999E+003 -9.999E+003 -9.999E+003 -9.999E+003 -9.999E+003 -9.999E+003 -9.999E+003 -9.999E+003 -9.999E+003 -9.999E+003 -9.999E+003 -9.999E+003 -9.999E+003 -9.999E+003 -9.999E+003 -9.999E+003 -9.999E+003 -9.999E+003 -9.999E+003 -9.999E+003 -9.999E+003 -9.999E+003 -9.999E+003 -9.999E+003 -9.999E+003 -9.999E+003 -9.999E+003 -9.999E+003 -9.999E+003 -9.999E+003 -9.999E+003 -9.999E+003 -9.999E+003 -9.999E+003 -9.999E+003 -9.999E+003 -9.999E+003 -9.999E+003 -9.999E+003 -9.999E+003 -9.999E+003 -9.999E+003 -9.999E+003 -9.999E+003 -9.999E+003 -9.999E+003 -9.999E+003 -9.999E+003 -9.999E+003 -9.999E+003 -9.999E+003 -9.999E+003 -9.999E+003 -9.999E+003 -9.999E+003 -9.999E+003 -9.999E+003 -9.999E+003 -9.999E+003 -9.999E+003 -9.999E+003 -9.999E+003 -9.999E+003 -9.999E+003 -9.999E+003 -9.999E+003 -9.999E+003 -9.999E+003 -9.999E+003
 -9.999E+003 -9.999E+003 -9.999E+003 -9.999E+003 -9.999E+003 -9.999E+003 -9.999E+003 -9.999E+003 -9.999E+003 -9.999E+003 -9.999E+003 -9.999E+003 -9.999E+003 -9.999E+003 -9.999E+003 -9.999E+003 -9.999E+003 -9.999E+003 -9.999E+003 -9.999E+003 -9.999E+003 -9.999E+003 -9.999E+003 -9.999E+003 -9.999E+003 -9.999E+003 -9.999E+003 -9.999E+003 -9.999E+003 -9.999E+003 -9.999E+003 -9.999E+003 -9.999E+003 -9.999E+003 -9.999E+003 -9.999E+003 -9.999E+003 -9.999E+003 -9.999E+003 -9.999E+003 -9.999E+003 -9.999E+003 -9.999E+003 -9.999E+003 -9.999E+003 -9.999E+003 -9.999E+003 -9.999E+003 -9.999E+003 -9.999E+003 -9.999E+003 -9.999E+003 -9.999E+003 -9.999E+003 -9.999E+003 -9.999E+003 -9.999E+003 -9.999E+003 -9.999E+003 -9.999E+003 -9.999E+003 -9.999E+003 -9.999E+003 -9.999E+003 -9.999E+003 -9.999E+003 -9.999E+003 -9.999E+003 -9.999E+003 -9.999E+003 -9.999E+003 -9.999E+003 -9.999E+003 -9.999E+003 -9.999E+003 -9.999E+003 -9.999E+003 -9.999E+003 -9.999E+003 -9.999E+003 -9.999E+003 -9.999E+003 -9.999E+003 -9.999E+003 -9.999E+003 -9.999E+003 -9.999E+003 -9.999E+003 -9.999E+003 -9.999E+003 -9.999E+003 -9.999E+003 -9.999E+003 -9.999E+003 -9.999E+003 -9.999E+003 -9.999E+003 -9.999E+003 -9.999E+003 -9.999E+003 -9.999E+003 -9.999E+003 -9.999E+003 -9.999E+003 -9.999E+003 -9.999E+003 -9.999E+003 -9.999E+003 -9.999E+003 -9.999E+003 -9.999E+003 -9.999E+003 -9.999E+003 -9.999E+003 -9.999E+003 -9.999E+003 -9.999E+003 -9.999E+003 -9.999E+003 -9.999E+003 -9.999E+003 -9.999E+003 -9.999E+003 -9.999E+003 -9.999E+003 -9.999E+003 -9.999E+003 -9.999E+003 -9.999E+003 -9.999E+003 -9.999E+003 -9.999E+003 -9.999E+003 -9.999E+003 -9.999E+003 -9.999E+003 -9.999E+003 -9.999E+003 -9.999E+003 -9.999E+003 -9.999E+003 -9.999E+003 -9.999E+003 -9.999E+003 -9.999E+003 -9.999E+003 -9.999E+003 -9.999E+003 -9.999E+003 -9.999E+003
 -9.999E+003 -9.999E+003 -9.999E+003 -9.999E+003 -9.999E+003 -9.999E+003 -9.999E+003 -9.999E+003 -9.999E+003 -9.999E+003 -9.999E+003 -9.999E+003 -9.999E+003 -9.999E+003 -9.999E+003 -9.999E+003 -9.999E+003 -9.999E+003 -9.999E+003 -9.999E+003 -9.999E+003 -9.999E+003 -9.999E+003 -9.999E+003 -9.999E+003 -9.999E+003 -9.999E+003 -9.999E+003 -9.999E+003 -9.999E+003 -9.999E+003 -9.999E+003 -9.999E+003 -9.999E+003 -9.999E+003 -9.999E+003 -9.999E+003 -9.999E+003 -9.999E+003 -9.999E+003 -9.999E+003 -9.999E+003 -9.999E+003 -9.999E+003 -9.999E+003 -9.999E+003 -9.999E+003 -9.999E+003 -9.999E+003 -9.999E+003 -9.999E+003 -9.999E+003 -9.999E+003 -9.999E+003 -9.999E+003 -9.999E+003 -9.999E+003 -9.999E+003 -9.999E+003 -9.999E+003 -9.999E+003 -9.999E+003 -9.999E+003 -9.999E+003 -9.999E+003 -9.999E+003 -9.999E+003 -9.999E+003 -9.999E+003 -9.999E+003 -9.999E+003 -9.999E+003 -9.999E+003 -9.999E+003 -9.999E+003 -9.999E+003 -9.999E+003 -9.999E+003 -9.999E+003 -9.999E+003 -9.999E+003 -9.999E+003 -9.999E+003 -9.999E+003 -9.999E+003 -9.999E+003 -9.999E+003 -9.999E+003 -9.999E+003 -9.999E+003 -9.999E+003 -9.999E+003 -9.999E+003 -9.999E+003 -9.999E+003 -9.999E+003 -9.999E+003 -9.999E+003 -9.999E+003 -9.999E+003 -9.999E+003 -9.999E+003 -9.999E+003 -9.999E+003 -9.999E+003 -9.999E+003 -9.999E+003 -9.999E+003 -9.999E+003 -9.999E+003 -9.999E+003 -9.999E+003 -9.999E+003 -9.999E+003 -9.999E+003 -9.999E+003 -9.999E+003 -9.999E+003 -9.999E+003 -9.999E+003 -9.999E+003 -9.999E+003 -9.999E+003 -9.999E+003 -9.999E+003 -9.999E+003 -9.999E+003 -9.999E+003 -9.999E+003 -9.999E+003 -9.999E+003 -9.999E+003 -9.999E+003 -9.999E+003 -9.999E+003 -9.999E+003 -9.999E+003 -9.999E+003 -9.999E+003 -9.999E+003 -9.999E+003 -9.999E+003 -9.999E+003 -9.999E+003 -9.999E+003 -9.999E+003 -9.999E+003 -9.999E+003 -9.999E+003 -9.999E+003
 -9.999E+003 -9.999E+003 -9.999E+003 -9.999E+003 -9.999E+003 -9.999E+003 -9.999E+003 -9.999E+003 -9.999E+003 -9.999E+003 -9.999E+003 -9.999E+003 -9.999E+003 -9.999E+003 -9.999E+003 -9.999E+003 -9.999E+003 -9.999E+003 -9.999E+003 -9.999E+003 -9.999E+003 -9.999E+003 -9.999E+003 -9.999E+003 -9.999E+003 -9.999E+003 -9.999E+003 -9.999E+003 -9.999E+003 -9.999E+003 -9.999E+003 -9.999E+003 -9.999E+003 -9.999E+003 -9.999E+003 -9.999E+003 -9.999E+003 -9.999E+003 -9.999E+003 -9.999E+003 -9.999E+003 -9.999E+003 -9.999E+003 -9.999E+003 -9.999E+003 -9.999E+003 -9.999E+003 -9.999E+003 -9.999E+003 -9.999E+003 -9.999E+003 -9.999E+003 -9.999E+003 -9.999E+003 -9.999E+003 -9.999E+003 -9.999E+003 -9.999E+003 -9.999E+003 -9.999E+003 -9.999E+003 -9.999E+003 -9.999E+003 -9.999E+003 -9.999E+003 -9.999E+003 -9.999E+003 -9.999E+003 -9.999E+003 -9.999E+003 -9.999E+003 -9.999E+003 -9.999E+003 -9.999E+003 -9.999E+003 -9.999E+003 -9.999E+003 -9.999E+003 -9.999E+003 -9.999E+003 -9.999E+003 -9.999E+003 -9.999E+003 -9.999E+003 -9.999E+003 -9.999E+003 -9.999E+003 -9.999E+003 -9.999E+003 -9.999E+003 -9.999E+003 -9.999E+003 -9.999E+003 -9.999E+003 -9.999E+003 -9.999E+003 -9.999E+003 -9.999E+003 -9.999E+003 -9.999E+003 -9.999E+003 -9.999E+003 -9.999E+003 -9.999E+003 -9.999E+003 -9.999E+003 -9.999E+003 -9.999E+003 -9.999E+003 -9.999E+003 -9.999E+003 -9.999E+003 -9.999E+003 -9.999E+003 -9.999E+003 -9.999E+003 -9.999E+003 -9.999E+003 -9.999E+003 -9.999E+003 -9.999E+003 -9.999E+003 -9.999E+003 -9.999E+003 -9.999E+003 -9.999E+003 -9.999E+003 -9.999E+003 -9.999E+003 -9.999E+003 -9.999E+003 -9.999E+003 -9.999E+003 -9.999E+003 -9.999E+003 -9.999E+003 -9.999E+003 -9.999E+003 -9.999E+003 -9.999E+003 -9.999E+003 -9.999E+003 -9.999E+003 -9.999E+003 -9.999E+003 -9.999E+003 -9.999E+003 -9.999E+003 -9.999E+003 -9.999E+003
 -9.999E+003 -9.999E+003 -9.999E+003 -9.999E+003 -9.999E+003 -9.999E+003 -9.999E+003 -9.999E+003 -9.999E+003 -9.999E+003 -9.999E+003 -9.999E+003 -9.999E+003 -9.999E+003 -9.999E+003 -9.999E+003 -9.999E+003 -9.999E+003 -9.999E+003 -9.999E+003 -9.999E+003 -9.999E+003 -9.999E+003 -9.999E+003 -9.999E+003 -9.999E+003 -9.999E+003 -9.999E+003 -9.999E+003 -9.999E+003 -9.999E+003 -9.999E+003 -9.999E+003 -9.999E+003 -9.999E+003 -9.999E+003 -9.999E+003 -9.999E+003 -9.999E+003 -9.999E+003 -9.999E+003 -9.999E+003 -9.999E+003 -9.999E+003 -9.999E+003 -9.999E+003 -9.999E+003 -9.999E+003 -9.999E+003 -9.999E+003 -9.999E+003 -9.999E+003 -9.999E+003 -9.999E+003 -9.999E+003 -9.999E+003 -9.999E+003 -9.999E+003 -9.999E+003 -9.999E+003 -9.999E+003 -9.999E+003 -9.999E+003 -9.999E+003 -9.999E+003 -9.999E+003 -9.999E+003 -9.999E+003 -9.999E+003 -9.999E+003 -9.999E+003 -9.999E+003 -9.999E+003 -9.999E+003 -9.999E+003 -9.999E+003 -9.999E+003 -9.999E+003 -9.999E+003 -9.999E+003 -9.999E+003 -9.999E+003 -9.999E+003 -9.999E+003 -9.999E+003 -9.999E+003 -9.999E+003 -9.999E+003 -9.999E+003 -9.999E+003 -9.999E+003 -9.999E+003 -9.999E+003 -9.999E+003 -9.999E+003 -9.999E+003 -9.999E+003 -9.999E+003 -9.999E+003 -9.999E+003 -9.999E+003 -9.999E+003 -9.999E+003 -9.999E+003 -9.999E+003 -9.999E+003 -9.999E+003 -9.999E+003 -9.999E+003 -9.999E+003 -9.999E+003 -9.999E+003 -9.999E+003 -9.999E+003 -9.999E+003 -9.999E+003 -9.999E+003 -9.999E+003 -9.999E+003 -9.999E+003 -9.999E+003 -9.999E+003 -9.999E+003 -9.999E+003 -9.999E+003 -9.999E+003 -9.999E+003 -9.999E+003 -9.999E+003 -9.999E+003 -9.999E+003 -9.999E+003 -9.999E+003 -9.999E+003 -9.999E+003 -9.999E+003 -9.999E+003 -9.999E+003 -9.999E+003 -9.999E+003 -9.999E+003 -9.999E+003 -9.999E+003 -9.999E+003 -9.999E+003 -9.999E+003 -9.999E+003 -9.999E+003 -9.999E+003 -9.999E+003
 -9.999E+003 -9.999E+003 -9.999E+003 -9.999E+003 -9.999E+003 -9.999E+003 -9.999E+003 -9.999E+003 -9.999E+003 -9.999E+003 -9.999E+003 -9.999E+003 -9.999E+003 -9.999E+003 -9.999E+003 -9.999E+003 -9.999E+003 -9.999E+003 -9.999E+003 -9.999E+003 -9.999E+003 -9.999E+003 -9.999E+003 -9.999E+003 -9.999E+003 -9.999E+003 -9.999E+003 -9.999E+003 -9.999E+003 -9.999E+003 -9.999E+003 -9.999E+003 -9.999E+003 -9.999E+003 -9.999E+003 -9.999E+003 -9.999E+003 -9.999E+003 -9.999E+003 -9.999E+003 -9.999E+003 -9.999E+003 -9.999E+003 -9.999E+003 -9.999E+003 -9.999E+003 -9.999E+003 -9.999E+003 -9.999E+003 -9.999E+003 -9.999E+003 -9.999E+003 -9.999E+003 -9.999E+003 -9.999E+003 -9.999E+003 -9.999E+003 -9.999E+003 -9.999E+003 -9.999E+003 -9.999E+003 -9.999E+003 -9.999E+003 -9.999E+003 -9.999E+003 -9.999E+003 -9.999E+003 -9.999E+003 -9.999E+003 -9.999E+003 -9.999E+003 -9.999E+003 -9.999E+003 -9.999E+003 -9.999E+003 -9.999E+003 -9.999E+003 -9.999E+003 -9.999E+003 -9.999E+003 -9.999E+003 -9.999E+003 -9.999E+003 -9.999E+003 -9.999E+003 -9.999E+003 -9.999E+003 -9.999E+003 -9.999E+003 -9.999E+003 -9.999E+003 -9.999E+003 -9.999E+003 -9.999E+003 -9.999E+003 -9.999E+003 -9.999E+003 -9.999E+003 -9.999E+003 -9.999E+003 -9.999E+003 -9.999E+003 -9.999E+003 -9.999E+003 -9.999E+003 -9.999E+003 -9.999E+003 -9.999E+003 -9.999E+003 -9.999E+003 -9.999E+003 -9.999E+003 -9.999E+003 -9.999E+003 -9.999E+003 -9.999E+003 -9.999E+003 -9.999E+003 -9.999E+003 -9.999E+003 -9.999E+003 -9.999E+003 -9.999E+003 -9.999E+003 -9.999E+003 -9.999E+003 -9.999E+003 -9.999E+003 -9.999E+003 -9.999E+003 -9.999E+003 -9.999E+003 -9.999E+003 -9.999E+003 -9.999E+003 -9.999E+003 -9.999E+003 -9.999E+003 -9.999E+003 -9.999E+003 -9.999E+003 -9.999E+003 -9.999E+003 -9.999E+003 -9.999E+003 -9.999E+003 -9.999E+003 -9.999E+003 -9.999E+003 -9.999E+003
 -9.999E+003 -9.999E+003 -9.999E+003 -9.999E+003 -9.999E+003 -9.999E+003 -9.999E+003 -9.999E+003 -9.999E+003 -9.999E+003 -9.999E+003 -9.999E+003 -9.999E+003 -9.999E+003 -9.999E+003 -9.999E+003 -9.999E+003 -9.999E+003 -9.999E+003 -9.999E+003 -9.999E+003 -9.999E+003 -9.999E+003 -9.999E+003 -9.999E+003 -9.999E+003 -9.999E+003 -9.999E+003 -9.999E+003 -9.999E+003 -9.999E+003 -9.999E+003 -9.999E+003 -9.999E+003 -9.999E+003 -9.999E+003 -9.999E+003 -9.999E+003 -9.999E+003 -9.999E+003 -9.999E+003 -9.999E+003 -9.999E+003 -9.999E+003 -9.999E+003 -9.999E+003 -9.999E+003 -9.999E+003 -9.999E+003 -9.999E+003 -9.999E+003 -9.999E+003 -9.999E+003 -9.999E+003 -9.999E+003 -9.999E+003 -9.999E+003 -9.999E+003 -9.999E+003 -9.999E+003 -9.999E+003 -9.999E+003 -9.999E+003 -9.999E+003 -9.999E+003 -9.999E+003 -9.999E+003 -9.999E+003 -9.999E+003 -9.999E+003 -9.999E+003 -9.999E+003 -9.999E+003 -9.999E+003 -9.999E+003 -9.999E+003 -9.999E+003 -9.999E+003 -9.999E+003 -9.999E+003 -9.999E+003 -9.999E+003 -9.999E+003 -9.999E+003 -9.999E+003 -9.999E+003 -9.999E+003 -9.999E+003 -9.999E+003 -9.999E+003 -9.999E+003 -9.999E+003 -9.999E+003 -9.999E+003 -9.999E+003 -9.999E+003 -9.999E+003 -9.999E+003 -9.999E+003 -9.999E+003 -9.999E+003 -9.999E+003 -9.999E+003 -9.999E+003 -9.999E+003 -9.999E+003 -9.999E+003 -9.999E+003 -9.999E+003 -9.999E+003 -9.999E+003 -9.999E+003 -9.999E+003 -9.999E+003 -9.999E+003 -9.999E+003 -9.999E+003 -9.999E+003 -9.999E+003 -9.999E+003 -9.999E+003 -9.999E+003 -9.999E+003 -9.999E+003 -9.999E+003 -9.999E+003 -9.999E+003 -9.999E+003 -9.999E+003 -9.999E+003 -9.999E+003 -9.999E+003 -9.999E+003 -9.999E+003 -9.999E+003 -9.999E+003 -9.999E+003 -9.999E+003 -9.999E+003 -9.999E+003 -9.999E+003 -9.999E+003 -9.999E+003 -9.999E+003 -9.999E+003 -9.999E+003 -9.999E+003 -9.999E+003 -9.999E+003 -9.999E+003
 -9.999E+003 -9.999E+003 -9.999E+003 -9.999E+003 -9.999E+003 -9.999E+003 -9.999E+003 -9.999E+003 -9.999E+003 -9.999E+003 -9.999E+003 -9.999E+003 -9.999E+003 -9.999E+003 -9.999E+003 -9.999E+003 -9.999E+003 -9.999E+003 -9.999E+003 -9.999E+003 -9.999E+003 -9.999E+003 -9.999E+003 -9.999E+003 -9.999E+003 -9.999E+003 -9.999E+003 -9.999E+003 -9.999E+003 -9.999E+003 -9.999E+003 -9.999E+003 -9.999E+003 -9.999E+003 -9.999E+003 -9.999E+003 -9.999E+003 -9.999E+003 -9.999E+003 -9.999E+003 -9.999E+003 -9.999E+003 -9.999E+003 -9.999E+003 -9.999E+003 -9.999E+003 -9.999E+003 -9.999E+003 -9.999E+003 -9.999E+003 -9.999E+003 -9.999E+003 -9.999E+003 -9.999E+003 -9.999E+003 -9.999E+003 -9.999E+003 -9.999E+003 -9.999E+003 -9.999E+003 -9.999E+003 -9.999E+003 -9.999E+003 -9.999E+003 -9.999E+003 -9.999E+003 -9.999E+003 -9.999E+003 -9.999E+003 -9.999E+003 -9.999E+003 -9.999E+003 -9.999E+003 -9.999E+003 -9.999E+003 -9.999E+003 -9.999E+003 -9.999E+003 -9.999E+003 -9.999E+003 -9.999E+003 -9.999E+003 -9.999E+003 -9.999E+003 -9.999E+003 -9.999E+003 -9.999E+003 -9.999E+003 -9.999E+003 -9.999E+003 -9.999E+003 -9.999E+003 -9.999E+003 -9.999E+003 -9.999E+003 -9.999E+003 -9.999E+003 -9.999E+003 -9.999E+003 -9.999E+003 -9.999E+003 -9.999E+003 -9.999E+003 -9.999E+003 -9.999E+003 -9.999E+003 -9.999E+003 -9.999E+003 -9.999E+003 -9.999E+003 -9.999E+003 -9.999E+003 -9.999E+003 -9.999E+003 -9.999E+003 -9.999E+003 -9.999E+003 -9.999E+003 -9.999E+003 -9.999E+003 -9.999E+003 -9.999E+003 -9.999E+003 -9.999E+003 -9.999E+003 -9.999E+003 -9.999E+003 -9.999E+003 -9.999E+003 -9.999E+003 -9.999E+003 -9.999E+003 -9.999E+003 -9.999E+003 -9.999E+003 -9.999E+003 -9.999E+003 -9.999E+003 -9.999E+003 -9.999E+003 -9.999E+003 -9.999E+003 -9.999E+003 -9.999E+003 -9.999E+003 -9.999E+003 -9.999E+003 -9.999E+003 -9.999E+003 -9.999E+003
 -9.999E+003 -9.999E+003 -9.999E+003 -9.999E+003 -9.999E+003 -9.999E+003 -9.999E+003 -9.999E+003 -9.999E+003 -9.999E+003 -9.999E+003 -9.999E+003 -9.999E+003 -9.999E+003 -9.999E+003 -9.999E+003 -9.999E+003 -9.999E+003 -9.999E+003 -9.999E+003 -9.999E+003 -9.999E+003 -9.999E+003 -9.999E+003 -9.999E+003 -9.999E+003 -9.999E+003 -9.999E+003 -9.999E+003 -9.999E+003 -9.999E+003 -9.999E+003 -9.999E+003 -9.999E+003 -9.999E+003 -9.999E+003 -9.999E+003 -9.999E+003 -9.999E+003 -9.999E+003 -9.999E+003 -9.999E+003 -9.999E+003 -9.999E+003 -9.999E+003 -9.999E+003 -9.999E+003 -9.999E+003 -9.999E+003 -9.999E+003 -9.999E+003 -9.999E+003 -9.999E+003 -9.999E+003 -9.999E+003 -9.999E+003 -9.999E+003 -9.999E+003 -9.999E+003 -9.999E+003 -9.999E+003 -9.999E+003 -9.999E+003 -9.999E+003 -9.999E+003 -9.999E+003 -9.999E+003 -9.999E+003 -9.999E+003 -9.999E+003 -9.999E+003 -9.999E+003 -9.999E+003 -9.999E+003 -9.999E+003 -9.999E+003 -9.999E+003 -9.999E+003 -9.999E+003 -9.999E+003 -9.999E+003 -9.999E+003 -9.999E+003 -9.999E+003 -9.999E+003 -9.999E+003 -9.999E+003 -9.999E+003 -9.999E+003 -9.999E+003 -9.999E+003 -9.999E+003 -9.999E+003 -9.999E+003 -9.999E+003 -9.999E+003 -9.999E+003 -9.999E+003 -9.999E+003 -9.999E+003 -9.999E+003 -9.999E+003 -9.999E+003 -9.999E+003 -9.999E+003 -9.999E+003 -9.999E+003 -9.999E+003 -9.999E+003 -9.999E+003 -9.999E+003 -9.999E+003 -9.999E+003 -9.999E+003 -9.999E+003 -9.999E+003 -9.999E+003 -9.999E+003 -9.999E+003 -9.999E+003 -9.999E+003 -9.999E+003 -9.999E+003 -9.999E+003 -9.999E+003 -9.999E+003 -9.999E+003 -9.999E+003 -9.999E+003 -9.999E+003 -9.999E+003 -9.999E+003 -9.999E+003 -9.999E+003 -9.999E+003 -9.999E+003 -9.999E+003 -9.999E+003 -9.999E+003 -9.999E+003 -9.999E+003 -9.999E+003 -9.999E+003 -9.999E+003 -9.999E+003 -9.999E+003 -9.999E+003 -9.999E+003 -9.999E+003 -9.999E+003
 -9.999E+003 -9.999E+003 -9.999E+003 -9.999E+003 -9.999E+003 -9.999E+003 -9.999E+003 -9.999E+003 -9.999E+003 -9.999E+003 -9.999E+003 -9.999E+003 -9.999E+003 -9.999E+003 -9.999E+003 -9.999E+003 -9.999E+003 -9.999E+003 -9.999E+003 -9.999E+003 -9.999E+003 -9.999E+003 -9.999E+003 -9.999E+003 -9.999E+003 -9.999E+003 -9.999E+003 -9.999E+003 -9.999E+003 -9.999E+003 -9.999E+003 -9.999E+003 -9.999E+003 -9.999E+003 -9.999E+003 -9.999E+003 -9.999E+003 -9.999E+003 -9.999E+003 -9.999E+003 -9.999E+003 -9.999E+003 -9.999E+003 -9.999E+003 -9.999E+003 -9.999E+003 -9.999E+003 -9.999E+003 -9.999E+003 -9.999E+003 -9.999E+003 -9.999E+003 -9.999E+003 -9.999E+003 -9.999E+003 -9.999E+003 -9.999E+003 -9.999E+003 -9.999E+003 -9.999E+003 -9.999E+003 -9.999E+003 -9.999E+003 -9.999E+003 -9.999E+003 -9.999E+003 -9.999E+003 -9.999E+003 -9.999E+003 -9.999E+003 -9.999E+003 -9.999E+003 -9.999E+003 -9.999E+003 -9.999E+003 -9.999E+003 -9.999E+003 -9.999E+003 -9.999E+003 -9.999E+003 -9.999E+003 -9.999E+003 -9.999E+003 -9.999E+003 -9.999E+003 -9.999E+003 -9.999E+003 -9.999E+003 -9.999E+003 -9.999E+003 -9.999E+003 -9.999E+003 -9.999E+003 -9.999E+003 -9.999E+003 -9.999E+003 -9.999E+003 -9.999E+003 -9.999E+003 -9.999E+003 -9.999E+003 -9.999E+003 -9.999E+003 -9.999E+003 -9.999E+003 -9.999E+003 -9.999E+003 -9.999E+003 -9.999E+003 -9.999E+003 -9.999E+003 -9.999E+003 -9.999E+003 -9.999E+003 -9.999E+003 -9.999E+003 -9.999E+003 -9.999E+003 -9.999E+003 -9.999E+003 -9.999E+003 -9.999E+003 -9.999E+003 -9.999E+003 -9.999E+003 -9.999E+003 -9.999E+003 -9.999E+003 -9.999E+003 -9.999E+003 -9.999E+003 -9.999E+003 -9.999E+003 -9.999E+003 -9.999E+003 -9.999E+003 -9.999E+003 -9.999E+003 -9.999E+003 -9.999E+003 -9.999E+003 -9.999E+003 -9.999E+003 -9.999E+003 -9.999E+003 -9.999E+003 -9.999E+003 -9.999E+003 -9.999E+003 -9.999E+003
 -9.999E+003 -9.999E+003 -9.999E+003 -9.999E+003 -9.999E+003 -9.999E+003 -9.999E+003 -9.999E+003 -9.999E+003 -9.999E+003 -9.999E+003 -9.999E+003 -9.999E+003 -9.999E+003 -9.999E+003 -9.999E+003 -9.999E+003 -9.999E+003 -9.999E+003 -9.999E+003 -9.999E+003 -9.999E+003 -9.999E+003 -9.999E+003 -9.999E+003 -9.999E+003 -9.999E+003 -9.999E+003 -9.999E+003 -9.999E+003 -9.999E+003 -9.999E+003 -9.999E+003 -9.999E+003 -9.999E+003 -9.999E+003 -9.999E+003 -9.999E+003 -9.999E+003 -9.999E+003 -9.999E+003 -9.999E+003 -9.999E+003 -9.999E+003 -9.999E+003 -9.999E+003 -9.999E+003 -9.999E+003 -9.999E+003 -9.999E+003 -9.999E+003 -9.999E+003 -9.999E+003 -9.999E+003 -9.999E+003 -9.999E+003 -9.999E+003 -9.999E+003 -9.999E+003 -9.999E+003 -9.999E+003 -9.999E+003 -9.999E+003 -9.999E+003 -9.999E+003 -9.999E+003 -9.999E+003 -9.999E+003 -9.999E+003 -9.999E+003 -9.999E+003 -9.999E+003 -9.999E+003 -9.999E+003 -9.999E+003 -9.999E+003 -9.999E+003 -9.999E+003 -9.999E+003 -9.999E+003 -9.999E+003 -9.999E+003 -9.999E+003 -9.999E+003 -9.999E+003 -9.999E+003 -9.999E+003 -9.999E+003 -9.999E+003 -9.999E+003 -9.999E+003 -9.999E+003 -9.999E+003 -9.999E+003 -9.999E+003 -9.999E+003 -9.999E+003 -9.999E+003 -9.999E+003 -9.999E+003 -9.999E+003 -9.999E+003 -9.999E+003 -9.999E+003 -9.999E+003 -9.999E+003 -9.999E+003 -9.999E+003 -9.999E+003 -9.999E+003 -9.999E+003 -9.999E+003 -9.999E+003 -9.999E+003 -9.999E+003 -9.999E+003 -9.999E+003 -9.999E+003 -9.999E+003 -9.999E+003 -9.999E+003 -9.999E+003 -9.999E+003 -9.999E+003 -9.999E+003 -9.999E+003 -9.999E+003 -9.999E+003 -9.999E+003 -9.999E+003 -9.999E+003 -9.999E+003 -9.999E+003 -9.999E+003 -9.999E+003 -9.999E+003 -9.999E+003 -9.999E+003 -9.999E+003 -9.999E+003 -9.999E+003 -9.999E+003 -9.999E+003 -9.999E+003 -9.999E+003 -9.999E+003 -9.999E+003 -9.999E+003 -9.999E+003 -9.999E+003
 -9.999E+003 -9.999E+003 -9.999E+003 -9.999E+003 -9.999E+003 -9.999E+003 -9.999E+003 -9.999E+003 -9.999E+003 -9.999E+003 -9.999E+003 -9.999E+003 -9.999E+003 -9.999E+003 -9.999E+003 -9.999E+003 -9.999E+003 -9.999E+003 -9.999E+003 -9.999E+003 -9.999E+003 -9.999E+003 -9.999E+003 -9.999E+003 -9.999E+003 -9.999E+003 -9.999E+003 -9.999E+003 -9.999E+003 -9.999E+003 -9.999E+003 -9.999E+003 -9.999E+003 -9.999E+003 -9.999E+003 -9.999E+003 -9.999E+003 -9.999E+003 -9.999E+003 -9.999E+003 -9.999E+003 -9.999E+003 -9.999E+003 -9.999E+003 -9.999E+003 -9.999E+003 -9.999E+003 -9.999E+003 -9.999E+003 -9.999E+003 -9.999E+003 -9.999E+003 -9.999E+003 -9.999E+003 -9.999E+003 -9.999E+003 -9.999E+003 -9.999E+003 -9.999E+003 -9.999E+003 -9.999E+003 -9.999E+003 -9.999E+003 -9.999E+003 -9.999E+003 -9.999E+003 -9.999E+003 -9.999E+003 -9.999E+003 -9.999E+003 -9.999E+003 -9.999E+003 -9.999E+003 -9.999E+003 -9.999E+003 -9.999E+003 -9.999E+003 -9.999E+003 -9.999E+003 -9.999E+003 -9.999E+003 -9.999E+003 -9.999E+003 -9.999E+003 -9.999E+003 -9.999E+003 -9.999E+003 -9.999E+003 -9.999E+003 -9.999E+003 -9.999E+003 -9.999E+003 -9.999E+003 -9.999E+003 -9.999E+003 -9.999E+003 -9.999E+003 -9.999E+003 -9.999E+003 -9.999E+003 -9.999E+003 -9.999E+003 -9.999E+003 -9.999E+003 -9.999E+003 -9.999E+003 -9.999E+003 -9.999E+003 -9.999E+003 -9.999E+003 -9.999E+003 -9.999E+003 -9.999E+003 -9.999E+003 -9.999E+003 -9.999E+003 -9.999E+003 -9.999E+003 -9.999E+003 -9.999E+003 -9.999E+003 -9.999E+003 -9.999E+003 -9.999E+003 -9.999E+003 -9.999E+003 -9.999E+003 -9.999E+003 -9.999E+003 -9.999E+003 -9.999E+003 -9.999E+003 -9.999E+003 -9.999E+003 -9.999E+003 -9.999E+003 -9.999E+003 -9.999E+003 -9.999E+003 -9.999E+003 -9.999E+003 -9.999E+003 -9.999E+003 -9.999E+003 -9.999E+003 -9.999E+003 -9.999E+003 -9.999E+003 -9.999E+003 -9.999E+003
 -9.999E+003 -9.999E+003 -9.999E+003 -9.999E+003 -9.999E+003 -9.999E+003 -9.999E+003 -9.999E+003 -9.999E+003 -9.999E+003 -9.999E+003 -9.999E+003 -9.999E+003 -9.999E+003 -9.999E+003 -9.999E+003 -9.999E+003 -9.999E+003 -9.999E+003 -9.999E+003 -9.999E+003 -9.999E+003 -9.999E+003 -9.999E+003 -9.999E+003 -9.999E+003 -9.999E+003 -9.999E+003 -9.999E+003 -9.999E+003 -9.999E+003 -9.999E+003 -9.999E+003 -9.999E+003 -9.999E+003 -9.999E+003 -9.999E+003 -9.999E+003 -9.999E+003 -9.999E+003 -9.999E+003 -9.999E+003 -9.999E+003 -9.999E+003 -9.999E+003 -9.999E+003 -9.999E+003 -9.999E+003 -9.999E+003 -9.999E+003 -9.999E+003 -9.999E+003 -9.999E+003 -9.999E+003 -9.999E+003 -9.999E+003 -9.999E+003 -9.999E+003 -9.999E+003 -9.999E+003 -9.999E+003 -9.999E+003 -9.999E+003 -9.999E+003 -9.999E+003 -9.999E+003 -9.999E+003 -9.999E+003 -9.999E+003 -9.999E+003 -9.999E+003 -9.999E+003 -9.999E+003 -9.999E+003 -9.999E+003 -9.999E+003 -9.999E+003 -9.999E+003 -9.999E+003 -9.999E+003 -9.999E+003 -9.999E+003 -9.999E+003 -9.999E+003 -9.999E+003 -9.999E+003 -9.999E+003 -9.999E+003 -9.999E+003 -9.999E+003 -9.999E+003 -9.999E+003 -9.999E+003 -9.999E+003 -9.999E+003 -9.999E+003 -9.999E+003 -9.999E+003 -9.999E+003 -9.999E+003 -9.999E+003 -9.999E+003 -9.999E+003 -9.999E+003 -9.999E+003 -9.999E+003 -9.999E+003 -9.999E+003 -9.999E+003 -9.999E+003 -9.999E+003 -9.999E+003 -9.999E+003 -9.999E+003 -9.999E+003 -9.999E+003 -9.999E+003 -9.999E+003 -9.999E+003 -9.999E+003 -9.999E+003 -9.999E+003 -9.999E+003 -9.999E+003 -9.999E+003 -9.999E+003 -9.999E+003 -9.999E+003 -9.999E+003 -9.999E+003 -9.999E+003 -9.999E+003 -9.999E+003 -9.999E+003 -9.999E+003 -9.999E+003 -9.999E+003 -9.999E+003 -9.999E+003 -9.999E+003 -9.999E+003 -9.999E+003 -9.999E+003 -9.999E+003 -9.999E+003 -9.999E+003 -9.999E+003 -9.999E+003 -9.999E+003 -9.999E+003
 -9.999E+003 -9.999E+003 -9.999E+003 -9.999E+003 -9.999E+003 -9.999E+003 -9.999E+003 -9.999E+003 -9.999E+003 -9.999E+003 -9.999E+003 -9.999E+003 -9.999E+003 -9.999E+003 -9.999E+003 -9.999E+003 -9.999E+003 -9.999E+003 -9.999E+003 -9.999E+003 -9.999E+003 -9.999E+003 -9.999E+003 -9.999E+003 -9.999E+003 -9.999E+003 -9.999E+003 -9.999E+003 -9.999E+003 -9.999E+003 -9.999E+003 -9.999E+003 -9.999E+003 -9.999E+003 -9.999E+003 -9.999E+003 -9.999E+003 -9.999E+003 -9.999E+003 -9.999E+003 -9.999E+003 -9.999E+003 -9.999E+003 -9.999E+003 -9.999E+003 -9.999E+003 -9.999E+003 -9.999E+003 -9.999E+003 -9.999E+003 -9.999E+003 -9.999E+003 -9.999E+003 -9.999E+003 -9.999E+003 -9.999E+003 -9.999E+003 -9.999E+003 -9.999E+003 -9.999E+003 -9.999E+003 -9.999E+003 -9.999E+003 -9.999E+003 -9.999E+003 -9.999E+003 -9.999E+003 -9.999E+003 -9.999E+003 -9.999E+003 -9.999E+003 -9.999E+003 -9.999E+003 -9.999E+003 -9.999E+003 -9.999E+003 -9.999E+003 -9.999E+003 -9.999E+003 -9.999E+003 -9.999E+003 -9.999E+003 -9.999E+003 -9.999E+003 -9.999E+003 -9.999E+003 -9.999E+003 -9.999E+003 -9.999E+003 -9.999E+003 -9.999E+003 -9.999E+003 -9.999E+003 -9.999E+003 -9.999E+003 -9.999E+003 -9.999E+003 -9.999E+003 -9.999E+003 -9.999E+003 -9.999E+003 -9.999E+003 -9.999E+003 -9.999E+003 -9.999E+003 -9.999E+003 -9.999E+003 -9.999E+003 -9.999E+003 -9.999E+003 -9.999E+003 -9.999E+003 -9.999E+003 -9.999E+003 -9.999E+003 -9.999E+003 -9.999E+003 -9.999E+003 -9.999E+003 -9.999E+003 -9.999E+003 -9.999E+003 -9.999E+003 -9.999E+003 -9.999E+003 -9.999E+003 -9.999E+003 -9.999E+003 -9.999E+003 -9.999E+003 -9.999E+003 -9.999E+003 -9.999E+003 -9.999E+003 -9.999E+003 -9.999E+003 -9.999E+003 -9.999E+003 -9.999E+003 -9.999E+003 -9.999E+003 -9.999E+003 -9.999E+003 -9.999E+003 -9.999E+003 -9.999E+003 -9.999E+003 -9.999E+003 -9.999E+003 -9.999E+003
 -9.999E+003 -9.999E+003 -9.999E+003 -9.999E+003 -9.999E+003 -9.999E+003 -9.999E+003 -9.999E+003 -9.999E+003 -9.999E+003 -9.999E+003 -9.999E+003 -9.999E+003 -9.999E+003 -9.999E+003 -9.999E+003 -9.999E+003 -9.999E+003 -9.999E+003 -9.999E+003 -9.999E+003 -9.999E+003 -9.999E+003 -9.999E+003 -9.999E+003 -9.999E+003 -9.999E+003 -9.999E+003 -9.999E+003 -9.999E+003 -9.999E+003 -9.999E+003 -9.999E+003 -9.999E+003 -9.999E+003 -9.999E+003 -9.999E+003 -9.999E+003 -9.999E+003 -9.999E+003 -9.999E+003 -9.999E+003 -9.999E+003 -9.999E+003 -9.999E+003 -9.999E+003 -9.999E+003 -9.999E+003 -9.999E+003 -9.999E+003 -9.999E+003 -9.999E+003 -9.999E+003 -9.999E+003 -9.999E+003 -9.999E+003 -9.999E+003 -9.999E+003 -9.999E+003 -9.999E+003 -9.999E+003 -9.999E+003 -9.999E+003 -9.999E+003 -9.999E+003 -9.999E+003 -9.999E+003 -9.999E+003 -9.999E+003  1.338E+003  1.332E+003  1.325E+003  3.000E+002 -9.999E+003 -9.999E+003 -9.999E+003 -9.999E+003 -9.999E+003 -9.999E+003 -9.999E+003 -9.999E+003 -9.999E+003 -9.999E+003 -9.999E+003 -9.999E+003 -9.999E+003 -9.999E+003 -9.999E+003 -9.999E+003 -9.999E+003 -9.999E+003 -9.999E+003 -9.999E+003 -9.999E+003 -9.999E+003 -9.999E+003 -9.999E+003 -9.999E+003 -9.999E+003 -9.999E+003 -9.999E+003 -9.999E+003 -9.999E+003 -9.999E+003 -9.999E+003 -9.999E+003 -9.999E+003 -9.999E+003 -9.999E+003 -9.999E+003 -9.999E+003 -9.999E+003 -9.999E+003 -9.999E+003 -9.999E+003 -9.999E+003 -9.999E+003 -9.999E+003 -9.999E+003 -9.999E+003 -9.999E+003 -9.999E+003 -9.999E+003 -9.999E+003 -9.999E+003 -9.999E+003 -9.999E+003 -9.999E+003 -9.999E+003 -9.999E+003 -9.999E+003 -9.999E+003 -9.999E+003 -9.999E+003 -9.999E+003 -9.999E+003 -9.999E+003 -9.999E+003 -9.999E+003 -9.999E+003 -9.999E+003 -9.999E+003 -9.999E+003 -9.999E+003 -9.999E+003 -9.999E+003 -9.999E+003 -9.999E+003 -9.999E+003 -9.999E+003
 -9.999E+003 -9.999E+003 -9.999E+003 -9.999E+003 -9.999E+003 -9.999E+003 -9.999E+003 -9.999E+003 -9.999E+003 -9.999E+003 -9.999E+003 -9.999E+003 -9.999E+003 -9.999E+003 -9.999E+003 -9.999E+003 -9.999E+003 -9.999E+003 -9.999E+003 -9.999E+003 -9.999E+003 -9.999E+003 -9.999E+003 -9.999E+003 -9.999E+003 -9.999E+003 -9.999E+003 -9.999E+003 -9.999E+003 -9.999E+003 -9.999E+003 -9.999E+003 -9.999E+003 -9.999E+003 -9.999E+003 -9.999E+003 -9.999E+003 -9.999E+003 -9.999E+003 -9.999E+003 -9.999E+003 -9.999E+003 -9.999E+003 -9.999E+003 -9.999E+003 -9.999E+003 -9.999E+003 -9.999E+003 -9.999E+003 -9.999E+003 -9.999E+003 -9.999E+003 -9.999E+003 -9.999E+003 -9.999E+003 -9.999E+003 -9.999E+003 -9.999E+003 -9.999E+003 -9.999E+003 -9.999E+003 -9.999E+003 -9.999E+003 -9.999E+003 -9.999E+003 -9.999E+003 -9.999E+003 -9.999E+003  1.349E+003  1.357E+003  1.358E+003  1.356E+003  1.344E+003  3.000E+002 -9.999E+003  3.000E+002 -9.999E+003 -9.999E+003 -9.999E+003 -9.999E+003 -9.999E+003 -9.999E+003 -9.999E+003 -9.999E+003 -9.999E+003 -9.999E+003 -9.999E+003 -9.999E+003 -9.999E+003 -9.999E+003 -9.999E+003 -9.999E+003 -9.999E+003 -9.999E+003 -9.999E+003 -9.999E+003 -9.999E+003 -9.999E+003 -9.999E+003 -9.999E+003 -9.999E+003 -9.999E+003 -9.999E+003 -9.999E+003 -9.999E+003 -9.999E+003 -9.999E+003 -9.999E+003 -9.999E+003 -9.999E+003 -9.999E+003 -9.999E+003 -9.999E+003 -9.999E+003 -9.999E+003 -9.999E+003 -9.999E+003 -9.999E+003 -9.999E+003 -9.999E+003 -9.999E+003 -9.999E+003 -9.999E+003 -9.999E+003 -9.999E+003 -9.999E+003 -9.999E+003 -9.999E+003 -9.999E+003 -9.999E+003 -9.999E+003 -9.999E+003 -9.999E+003 -9.999E+003 -9.999E+003 -9.999E+003 -9.999E+003 -9.999E+003 -9.999E+003 -9.999E+003 -9.999E+003 -9.999E+003 -9.999E+003 -9.999E+003 -9.999E+003 -9.999E+003 -9.999E+003 -9.999E+003 -9.999E+003 -9.999E+003
 -9.999E+003 -9.999E+003 -9.999E+003 -9.999E+003 -9.999E+003 -9.999E+003 -9.999E+003 -9.999E+003 -9.999E+003 -9.999E+003 -9.999E+003 -9.999E+003 -9.999E+003 -9.999E+003 -9.999E+003 -9.999E+003 -9.999E+003 -9.999E+003 -9.999E+003 -9.999E+003 -9.999E+003 -9.999E+003 -9.999E+003 -9.999E+003 -9.999E+003 -9.999E+003 -9.999E+003 -9.999E+003 -9.999E+003 -9.999E+003 -9.999E+003 -9.999E+003 -9.999E+003 -9.999E+003 -9.999E+003 -9.999E+003 -9.999E+003 -9.999E+003 -9.999E+003 -9.999E+003 -9.999E+003 -9.999E+003 -9.999E+003 -9.999E+003 -9.999E+003 -9.999E+003 -9.999E+003 -9.999E+003 -9.999E+003 -9.999E+003 -9.999E+003 -9.999E+003 -9.999E+003 -9.999E+003 -9.999E+003 -9.999E+003 -9.999E+003 -9.999E+003 -9.999E+003 -9.999E+003 -9.999E+003 -9.999E+003 -9.999E+003 -9.999E+003 -9.999E+003 -9.999E+003 -9.999E+003 -9.999E+003  1.367E+003  1.373E+003  1.375E+003  1.375E+003  1.370E+003  1.360E+003  1.349E+003  1.331E+003  3.000E+002 -9.999E+003 -9.999E+003 -9.999E+003 -9.999E+003 -9.999E+003 -9.999E+003 -9.999E+003 -9.999E+003 -9.999E+003 -9.999E+003 -9.999E+003 -9.999E+003 -9.999E+003 -9.999E+003 -9.999E+003 -9.999E+003 -9.999E+003 -9.999E+003 -9.999E+003 -9.999E+003 -9.999E+003 -9.999E+003 -9.999E+003 -9.999E+003 -9.999E+003 -9.999E+003 -9.999E+003 -9.999E+003 -9.999E+003 -9.999E+003 -9.999E+003 -9.999E+003 -9.999E+003 -9.999E+003 -9.999E+003 -9.999E+003 -9.999E+003 -9.999E+003 -9.999E+003 -9.999E+003 -9.999E+003 -9.999E+003 -9.999E+003 -9.999E+003 -9.999E+003 -9.999E+003 -9.999E+003 -9.999E+003 -9.999E+003 -9.999E+003 -9.999E+003 -9.999E+003 -9.999E+003 -9.999E+003 -9.999E+003 -9.999E+003 -9.999E+003 -9.999E+003 -9.999E+003 -9.999E+003 -9.999E+003 -9.999E+003 -9.999E+003 -9.999E+003 -9.999E+003 -9.999E+003 -9.999E+003 -9.999E+003 -9.999E+003 -9.999E+003 -9.999E+003 -9.999E+003 -9.999E+003
 -9.999E+003 -9.999E+003 -9.999E+003 -9.999E+003 -9.999E+003 -9.999E+003 -9.999E+003 -9.999E+003 -9.999E+003 -9.999E+003 -9.999E+003 -9.999E+003 -9.999E+003 -9.999E+003 -9.999E+003 -9.999E+003 -9.999E+003 -9.999E+003 -9.999E+003 -9.999E+003 -9.999E+003 -9.999E+003 -9.999E+003 -9.999E+003 -9.999E+003 -9.999E+003 -9.999E+003 -9.999E+003 -9.999E+003 -9.999E+003 -9.999E+003 -9.999E+003 -9.999E+003 -9.999E+003 -9.999E+003 -9.999E+003 -9.999E+003 -9.999E+003 -9.999E+003 -9.999E+003 -9.999E+003 -9.999E+003 -9.999E+003 -9.999E+003 -9.999E+003 -9.999E+003 -9.999E+003 -9.999E+003 -9.999E+003 -9.999E+003 -9.999E+003 -9.999E+003 -9.999E+003 -9.999E+003 -9.999E+003 -9.999E+003 -9.999E+003 -9.999E+003 -9.999E+003 -9.999E+003 -9.999E+003 -9.999E+003 -9.999E+003 -9.999E+003 -9.999E+003 -9.999E+003 -9.999E+003  1.360E+003  1.377E+003  1.384E+003  1.386E+003  1.386E+003  1.384E+003  1.379E+003  1.370E+003  1.355E+003  1.264E+003 -9.999E+003 -9.999E+003 -9.999E+003 -9.999E+003 -9.999E+003 -9.999E+003 -9.999E+003 -9.999E+003 -9.999E+003 -9.999E+003 -9.999E+003 -9.999E+003 -9.999E+003 -9.999E+003 -9.999E+003 -9.999E+003 -9.999E+003 -9.999E+003 -9.999E+003 -9.999E+003 -9.999E+003 -9.999E+003 -9.999E+003 -9.999E+003 -9.999E+003 -9.999E+003 -9.999E+003 -9.999E+003 -9.999E+003 -9.999E+003 -9.999E+003 -9.999E+003 -9.999E+003 -9.999E+003 -9.999E+003 -9.999E+003 -9.999E+003 -9.999E+003 -9.999E+003 -9.999E+003 -9.999E+003 -9.999E+003 -9.999E+003 -9.999E+003 -9.999E+003 -9.999E+003 -9.999E+003 -9.999E+003 -9.999E+003 -9.999E+003 -9.999E+003 -9.999E+003 -9.999E+003 -9.999E+003 -9.999E+003 -9.999E+003 -9.999E+003 -9.999E+003 -9.999E+003 -9.999E+003 -9.999E+003 -9.999E+003 -9.999E+003 -9.999E+003 -9.999E+003 -9.999E+003 -9.999E+003 -9.999E+003 -9.999E+003 -9.999E+003 -9.999E+003 -9.999E+003 -9.999E+003
 -9.999E+003 -9.999E+003 -9.999E+003 -9.999E+003 -9.999E+003 -9.999E+003 -9.999E+003 -9.999E+003 -9.999E+003 -9.999E+003 -9.999E+003 -9.999E+003 -9.999E+003 -9.999E+003 -9.999E+003 -9.999E+003 -9.999E+003 -9.999E+003 -9.999E+003 -9.999E+003 -9.999E+003 -9.999E+003 -9.999E+003 -9.999E+003 -9.999E+003 -9.999E+003 -9.999E+003 -9.999E+003 -9.999E+003 -9.999E+003 -9.999E+003 -9.999E+003 -9.999E+003 -9.999E+003 -9.999E+003 -9.999E+003 -9.999E+003 -9.999E+003 -9.999E+003 -9.999E+003 -9.999E+003 -9.999E+003 -9.999E+003 -9.999E+003 -9.999E+003 -9.999E+003 -9.999E+003 -9.999E+003 -9.999E+003 -9.999E+003 -9.999E+003 -9.999E+003 -9.999E+003 -9.999E+003 -9.999E+003 -9.999E+003 -9.999E+003 -9.999E+003 -9.999E+003 -9.999E+003 -9.999E+003 -9.999E+003 -9.999E+003 -9.999E+003 -9.999E+003 -9.999E+003  3.000E+002  1.363E+003  1.380E+003  1.389E+003  1.393E+003  1.393E+003  1.392E+003  1.389E+003  1.381E+003  1.362E+003  1.319E+003 -9.999E+003 -9.999E+003 -9.999E+003 -9.999E+003 -9.999E+003 -9.999E+003 -9.999E+003 -9.999E+003 -9.999E+003 -9.999E+003 -9.999E+003 -9.999E+003 -9.999E+003 -9.999E+003 -9.999E+003 -9.999E+003 -9.999E+003 -9.999E+003 -9.999E+003 -9.999E+003 -9.999E+003 -9.999E+003 -9.999E+003 -9.999E+003 -9.999E+003 -9.999E+003 -9.999E+003 -9.999E+003 -9.999E+003 -9.999E+003 -9.999E+003 -9.999E+003 -9.999E+003 -9.999E+003 -9.999E+003 -9.999E+003 -9.999E+003 -9.999E+003 -9.999E+003 -9.999E+003 -9.999E+003 -9.999E+003 -9.999E+003 -9.999E+003 -9.999E+003 -9.999E+003 -9.999E+003 -9.999E+003 -9.999E+003 -9.999E+003 -9.999E+003 -9.999E+003 -9.999E+003 -9.999E+003 -9.999E+003 -9.999E+003 -9.999E+003 -9.999E+003 -9.999E+003 -9.999E+003 -9.999E+003 -9.999E+003 -9.999E+003 -9.999E+003 -9.999E+003 -9.999E+003 -9.999E+003 -9.999E+003 -9.999E+003 -9.999E+003 -9.999E+003 -9.999E+003 -9.999E+003
 -9.999E+003 -9.999E+003 -9.999E+003 -9.999E+003 -9.999E+003 -9.999E+003 -9.999E+003 -9.999E+003 -9.999E+003 -9.999E+003 -9.999E+003 -9.999E+003 -9.999E+003 -9.999E+003 -9.999E+003 -9.999E+003 -9.999E+003 -9.999E+003 -9.999E+003 -9.999E+003 -9.999E+003 -9.999E+003 -9.999E+003 -9.999E+003 -9.999E+003 -9.999E+003 -9.999E+003 -9.999E+003 -9.999E+003 -9.999E+003 -9.999E+003 -9.999E+003 -9.999E+003 -9.999E+003 -9.999E+003 -9.999E+003 -9.999E+003 -9.999E+003 -9.999E+003 -9.999E+003 -9.999E+003 -9.999E+003 -9.999E+003 -9.999E+003 -9.999E+003 -9.999E+003 -9.999E+003 -9.999E+003 -9.999E+003 -9.999E+003 -9.999E+003 -9.999E+003 -9.999E+003 -9.999E+003 -9.999E+003 -9.999E+003 -9.999E+003 -9.999E+003 -9.999E+003 -9.999E+003 -9.999E+003 -9.999E+003 -9.999E+003 -9.999E+003 -9.999E+003 -9.999E+003 -9.999E+003  1.266E+003  1.381E+003  1.392E+003  1.397E+003  1.398E+003  1.397E+003  1.394E+003  1.386E+003  1.364E+003 -9.999E+003 -9.999E+003 -9.999E+003 -9.999E+003 -9.999E+003 -9.999E+003 -9.999E+003 -9.999E+003 -9.999E+003 -9.999E+003 -9.999E+003 -9.999E+003 -9.999E+003 -9.999E+003 -9.999E+003 -9.999E+003 -9.999E+003 -9.999E+003 -9.999E+003 -9.999E+003 -9.999E+003 -9.999E+003 -9.999E+003 -9.999E+003 -9.999E+003 -9.999E+003 -9.999E+003 -9.999E+003 -9.999E+003 -9.999E+003 -9.999E+003 -9.999E+003 -9.999E+003 -9.999E+003 -9.999E+003 -9.999E+003 -9.999E+003 -9.999E+003 -9.999E+003 -9.999E+003 -9.999E+003 -9.999E+003 -9.999E+003 -9.999E+003 -9.999E+003 -9.999E+003 -9.999E+003 -9.999E+003 -9.999E+003 -9.999E+003 -9.999E+003 -9.999E+003 -9.999E+003 -9.999E+003 -9.999E+003 -9.999E+003 -9.999E+003 -9.999E+003 -9.999E+003 -9.999E+003 -9.999E+003 -9.999E+003 -9.999E+003 -9.999E+003 -9.999E+003 -9.999E+003 -9.999E+003 -9.999E+003 -9.999E+003 -9.999E+003 -9.999E+003 -9.999E+003 -9.999E+003 -9.999E+003
 -9.999E+003 -9.999E+003 -9.999E+003 -9.999E+003 -9.999E+003 -9.999E+003 -9.999E+003 -9.999E+003 -9.999E+003 -9.999E+003 -9.999E+003 -9.999E+003 -9.999E+003 -9.999E+003 -9.999E+003 -9.999E+003 -9.999E+003 -9.999E+003 -9.999E+003 -9.999E+003 -9.999E+003 -9.999E+003 -9.999E+003 -9.999E+003 -9.999E+003 -9.999E+003 -9.999E+003 -9.999E+003 -9.999E+003 -9.999E+003 -9.999E+003 -9.999E+003 -9.999E+003 -9.999E+003 -9.999E+003 -9.999E+003 -9.999E+003 -9.999E+003 -9.999E+003 -9.999E+003 -9.999E+003 -9.999E+003 -9.999E+003 -9.999E+003 -9.999E+003 -9.999E+003 -9.999E+003 -9.999E+003 -9.999E+003 -9.999E+003 -9.999E+003 -9.999E+003 -9.999E+003 -9.999E+003 -9.999E+003 -9.999E+003 -9.999E+003 -9.999E+003 -9.999E+003 -9.999E+003 -9.999E+003 -9.999E+003 -9.999E+003 -9.999E+003 -9.999E+003 -9.999E+003 -9.999E+003  1.211E+003  1.381E+003  1.394E+003  1.400E+003  1.401E+003  1.400E+003  1.398E+003  1.388E+003  1.361E+003 -9.999E+003 -9.999E+003 -9.999E+003 -9.999E+003 -9.999E+003 -9.999E+003 -9.999E+003 -9.999E+003 -9.999E+003 -9.999E+003 -9.999E+003 -9.999E+003 -9.999E+003 -9.999E+003 -9.999E+003 -9.999E+003 -9.999E+003 -9.999E+003 -9.999E+003 -9.999E+003 -9.999E+003 -9.999E+003 -9.999E+003 -9.999E+003 -9.999E+003 -9.999E+003 -9.999E+003 -9.999E+003 -9.999E+003 -9.999E+003 -9.999E+003 -9.999E+003 -9.999E+003 -9.999E+003 -9.999E+003 -9.999E+003 -9.999E+003 -9.999E+003 -9.999E+003 -9.999E+003 -9.999E+003 -9.999E+003 -9.999E+003 -9.999E+003 -9.999E+003 -9.999E+003 -9.999E+003 -9.999E+003 -9.999E+003 -9.999E+003 -9.999E+003 -9.999E+003 -9.999E+003 -9.999E+003 -9.999E+003 -9.999E+003 -9.999E+003 -9.999E+003 -9.999E+003 -9.999E+003 -9.999E+003 -9.999E+003 -9.999E+003 -9.999E+003 -9.999E+003 -9.999E+003 -9.999E+003 -9.999E+003 -9.999E+003 -9.999E+003 -9.999E+003 -9.999E+003 -9.999E+003 -9.999E+003
 -9.999E+003 -9.999E+003 -9.999E+003 -9.999E+003 -9.999E+003 -9.999E+003 -9.999E+003 -9.999E+003 -9.999E+003 -9.999E+003 -9.999E+003 -9.999E+003 -9.999E+003 -9.999E+003 -9.999E+003 -9.999E+003 -9.999E+003 -9.999E+003 -9.999E+003 -9.999E+003 -9.999E+003 -9.999E+003 -9.999E+003 -9.999E+003 -9.999E+003 -9.999E+003 -9.999E+003 -9.999E+003 -9.999E+003 -9.999E+003 -9.999E+003 -9.999E+003 -9.999E+003 -9.999E+003 -9.999E+003 -9.999E+003 -9.999E+003 -9.999E+003 -9.999E+003 -9.999E+003 -9.999E+003 -9.999E+003 -9.999E+003 -9.999E+003 -9.999E+003 -9.999E+003 -9.999E+003 -9.999E+003 -9.999E+003 -9.999E+003 -9.999E+003 -9.999E+003 -9.999E+003 -9.999E+003 -9.999E+003 -9.999E+003 -9.999E+003 -9.999E+003 -9.999E+003 -9.999E+003 -9.999E+003 -9.999E+003 -9.999E+003 -9.999E+003 -9.999E+003 -9.999E+003 -9.999E+003  1.175E+003  1.382E+003  1.397E+003  1.402E+003  1.404E+003  1.403E+003  1.400E+003  1.390E+003 -9.999E+003 -9.999E+003 -9.999E+003 -9.999E+003 -9.999E+003 -9.999E+003 -9.999E+003 -9.999E+003 -9.999E+003 -9.999E+003 -9.999E+003 -9.999E+003 -9.999E+003 -9.999E+003 -9.999E+003 -9.999E+003 -9.999E+003 -9.999E+003 -9.999E+003 -9.999E+003 -9.999E+003 -9.999E+003 -9.999E+003 -9.999E+003 -9.999E+003 -9.999E+003 -9.999E+003 -9.999E+003 -9.999E+003 -9.999E+003 -9.999E+003 -9.999E+003 -9.999E+003 -9.999E+003 -9.999E+003 -9.999E+003 -9.999E+003 -9.999E+003 -9.999E+003 -9.999E+003 -9.999E+003 -9.999E+003 -9.999E+003 -9.999E+003 -9.999E+003 -9.999E+003 -9.999E+003 -9.999E+003 -9.999E+003 -9.999E+003 -9.999E+003 -9.999E+003 -9.999E+003 -9.999E+003 -9.999E+003 -9.999E+003 -9.999E+003 -9.999E+003 -9.999E+003 -9.999E+003 -9.999E+003 -9.999E+003 -9.999E+003 -9.999E+003 -9.999E+003 -9.999E+003 -9.999E+003 -9.999E+003 -9.999E+003 -9.999E+003 -9.999E+003 -9.999E+003 -9.999E+003 -9.999E+003 -9.999E+003
 -9.999E+003 -9.999E+003 -9.999E+003 -9.999E+003 -9.999E+003 -9.999E+003 -9.999E+003 -9.999E+003 -9.999E+003 -9.999E+003 -9.999E+003 -9.999E+003 -9.999E+003 -9.999E+003 -9.999E+003 -9.999E+003 -9.999E+003 -9.999E+003 -9.999E+003 -9.999E+003 -9.999E+003 -9.999E+003 -9.999E+003 -9.999E+003 -9.999E+003 -9.999E+003 -9.999E+003 -9.999E+003 -9.999E+003 -9.999E+003 -9.999E+003 -9.999E+003 -9.999E+003 -9.999E+003 -9.999E+003 -9.999E+003 -9.999E+003 -9.999E+003 -9.999E+003 -9.999E+003 -9.999E+003 -9.999E+003 -9.999E+003 -9.999E+003 -9.999E+003 -9.999E+003 -9.999E+003 -9.999E+003 -9.999E+003 -9.999E+003 -9.999E+003 -9.999E+003 -9.999E+003 -9.999E+003 -9.999E+003 -9.999E+003 -9.999E+003 -9.999E+003 -9.999E+003 -9.999E+003 -9.999E+003 -9.999E+003 -9.999E+003 -9.999E+003 -9.999E+003 -9.999E+003 -9.999E+003  3.000E+002  1.385E+003  1.399E+003  1.405E+003  1.407E+003  1.407E+003  1.403E+003  1.393E+003 -9.999E+003 -9.999E+003 -9.999E+003 -9.999E+003 -9.999E+003 -9.999E+003 -9.999E+003 -9.999E+003 -9.999E+003 -9.999E+003 -9.999E+003 -9.999E+003 -9.999E+003 -9.999E+003 -9.999E+003 -9.999E+003 -9.999E+003 -9.999E+003 -9.999E+003 -9.999E+003 -9.999E+003 -9.999E+003 -9.999E+003 -9.999E+003 -9.999E+003 -9.999E+003 -9.999E+003 -9.999E+003 -9.999E+003 -9.999E+003 -9.999E+003 -9.999E+003 -9.999E+003 -9.999E+003 -9.999E+003 -9.999E+003 -9.999E+003 -9.999E+003 -9.999E+003 -9.999E+003 -9.999E+003 -9.999E+003 -9.999E+003 -9.999E+003 -9.999E+003 -9.999E+003 -9.999E+003 -9.999E+003 -9.999E+003 -9.999E+003 -9.999E+003 -9.999E+003 -9.999E+003 -9.999E+003 -9.999E+003 -9.999E+003 -9.999E+003 -9.999E+003 -9.999E+003 -9.999E+003 -9.999E+003 -9.999E+003 -9.999E+003 -9.999E+003 -9.999E+003 -9.999E+003 -9.999E+003 -9.999E+003 -9.999E+003 -9.999E+003 -9.999E+003 -9.999E+003 -9.999E+003 -9.999E+003 -9.999E+003
 -9.999E+003 -9.999E+003 -9.999E+003 -9.999E+003 -9.999E+003 -9.999E+003 -9.999E+003 -9.999E+003 -9.999E+003 -9.999E+003 -9.999E+003 -9.999E+003 -9.999E+003 -9.999E+003 -9.999E+003 -9.999E+003 -9.999E+003 -9.999E+003 -9.999E+003 -9.999E+003 -9.999E+003 -9.999E+003 -9.999E+003 -9.999E+003 -9.999E+003 -9.999E+003 -9.999E+003 -9.999E+003 -9.999E+003 -9.999E+003 -9.999E+003 -9.999E+003 -9.999E+003 -9.999E+003 -9.999E+003 -9.999E+003 -9.999E+003 -9.999E+003 -9.999E+003 -9.999E+003 -9.999E+003 -9.999E+003 -9.999E+003 -9.999E+003 -9.999E+003 -9.999E+003 -9.999E+003 -9.999E+003 -9.999E+003 -9.999E+003 -9.999E+003 -9.999E+003 -9.999E+003 -9.999E+003 -9.999E+003 -9.999E+003 -9.999E+003 -9.999E+003 -9.999E+003 -9.999E+003 -9.999E+003 -9.999E+003 -9.999E+003 -9.999E+003 -9.999E+003 -9.999E+003 -9.999E+003 -9.999E+003  1.386E+003  1.402E+003  1.408E+003  1.410E+003  1.410E+003  1.407E+003  1.396E+003  1.374E+003 -9.999E+003 -9.999E+003 -9.999E+003 -9.999E+003 -9.999E+003 -9.999E+003 -9.999E+003 -9.999E+003 -9.999E+003 -9.999E+003 -9.999E+003 -9.999E+003 -9.999E+003 -9.999E+003 -9.999E+003 -9.999E+003 -9.999E+003 -9.999E+003 -9.999E+003  3.000E+002 -9.999E+003 -9.999E+003 -9.999E+003 -9.999E+003 -9.999E+003 -9.999E+003 -9.999E+003 -9.999E+003 -9.999E+003 -9.999E+003 -9.999E+003 -9.999E+003 -9.999E+003 -9.999E+003 -9.999E+003 -9.999E+003 -9.999E+003 -9.999E+003 -9.999E+003 -9.999E+003 -9.999E+003 -9.999E+003 -9.999E+003 -9.999E+003 -9.999E+003 -9.999E+003 -9.999E+003 -9.999E+003 -9.999E+003 -9.999E+003 -9.999E+003 -9.999E+003 -9.999E+003 -9.999E+003 -9.999E+003 -9.999E+003 -9.999E+003 -9.999E+003 -9.999E+003 -9.999E+003 -9.999E+003 -9.999E+003 -9.999E+003 -9.999E+003 -9.999E+003 -9.999E+003 -9.999E+003 -9.999E+003 -9.999E+003 -9.999E+003 -9.999E+003 -9.999E+003 -9.999E+003 -9.999E+003
 -9.999E+003 -9.999E+003 -9.999E+003 -9.999E+003 -9.999E+003 -9.999E+003 -9.999E+003 -9.999E+003 -9.999E+003 -9.999E+003 -9.999E+003 -9.999E+003 -9.999E+003 -9.999E+003 -9.999E+003 -9.999E+003 -9.999E+003 -9.999E+003 -9.999E+003 -9.999E+003 -9.999E+003 -9.999E+003 -9.999E+003 -9.999E+003 -9.999E+003 -9.999E+003 -9.999E+003 -9.999E+003 -9.999E+003 -9.999E+003 -9.999E+003 -9.999E+003 -9.999E+003 -9.999E+003 -9.999E+003 -9.999E+003 -9.999E+003 -9.999E+003 -9.999E+003 -9.999E+003 -9.999E+003 -9.999E+003 -9.999E+003 -9.999E+003 -9.999E+003 -9.999E+003 -9.999E+003 -9.999E+003 -9.999E+003 -9.999E+003 -9.999E+003 -9.999E+003 -9.999E+003 -9.999E+003 -9.999E+003 -9.999E+003 -9.999E+003 -9.999E+003 -9.999E+003 -9.999E+003 -9.999E+003 -9.999E+003 -9.999E+003 -9.999E+003 -9.999E+003 -9.999E+003 -9.999E+003 -9.999E+003  3.000E+002  1.402E+003  1.411E+003  1.414E+003  1.414E+003  1.411E+003  1.401E+003  1.380E+003  3.000E+002  3.000E+002  1.206E+003 -9.999E+003 -9.999E+003 -9.999E+003 -9.999E+003 -9.999E+003 -9.999E+003 -9.999E+003 -9.999E+003 -9.999E+003 -9.999E+003 -9.999E+003 -9.999E+003 -9.999E+003  3.000E+002 -9.999E+003  1.277E+003  1.288E+003  3.187E+002 -9.999E+003 -9.999E+003 -9.999E+003 -9.999E+003 -9.999E+003 -9.999E+003 -9.999E+003 -9.999E+003 -9.999E+003 -9.999E+003 -9.999E+003 -9.999E+003 -9.999E+003 -9.999E+003 -9.999E+003 -9.999E+003 -9.999E+003 -9.999E+003 -9.999E+003 -9.999E+003 -9.999E+003 -9.999E+003 -9.999E+003 -9.999E+003 -9.999E+003 -9.999E+003 -9.999E+003 -9.999E+003 -9.999E+003 -9.999E+003 -9.999E+003 -9.999E+003 -9.999E+003 -9.999E+003 -9.999E+003 -9.999E+003 -9.999E+003 -9.999E+003 -9.999E+003 -9.999E+003 -9.999E+003 -9.999E+003 -9.999E+003 -9.999E+003 -9.999E+003 -9.999E+003 -9.999E+003 -9.999E+003 -9.999E+003 -9.999E+003 -9.999E+003 -9.999E+003 -9.999E+003
 -9.999E+003 -9.999E+003 -9.999E+003 -9.999E+003 -9.999E+003 -9.999E+003 -9.999E+003 -9.999E+003 -9.999E+003 -9.999E+003 -9.999E+003 -9.999E+003 -9.999E+003 -9.999E+003 -9.999E+003 -9.999E+003 -9.999E+003 -9.999E+003 -9.999E+003 -9.999E+003 -9.999E+003 -9.999E+003 -9.999E+003 -9.999E+003 -9.999E+003 -9.999E+003 -9.999E+003 -9.999E+003 -9.999E+003 -9.999E+003 -9.999E+003 -9.999E+003 -9.999E+003 -9.999E+003 -9.999E+003 -9.999E+003 -9.999E+003 -9.999E+003 -9.999E+003 -9.999E+003 -9.999E+003 -9.999E+003 -9.999E+003 -9.999E+003 -9.999E+003 -9.999E+003 -9.999E+003 -9.999E+003 -9.999E+003 -9.999E+003 -9.999E+003 -9.999E+003 -9.999E+003 -9.999E+003 -9.999E+003 -9.999E+003 -9.999E+003 -9.999E+003 -9.999E+003 -9.999E+003 -9.999E+003 -9.999E+003 -9.999E+003 -9.999E+003 -9.999E+003 -9.999E+003 -9.999E+003 -9.999E+003 -9.999E+003  1.400E+003  1.412E+003  1.417E+003  1.418E+003  1.416E+003  1.407E+003  1.388E+003  1.354E+003  1.310E+003  1.237E+003  1.112E+003 -9.999E+003 -9.999E+003 -9.999E+003 -9.999E+003 -9.999E+003 -9.999E+003 -9.999E+003 -9.999E+003 -9.999E+003 -9.999E+003 -9.999E+003  3.000E+002  1.337E+003  1.322E+003  1.343E+003  1.350E+003  1.339E+003  3.000E+002 -9.999E+003 -9.999E+003 -9.999E+003 -9.999E+003 -9.999E+003 -9.999E+003 -9.999E+003 -9.999E+003 -9.999E+003 -9.999E+003 -9.999E+003 -9.999E+003 -9.999E+003 -9.999E+003 -9.999E+003 -9.999E+003 -9.999E+003 -9.999E+003 -9.999E+003 -9.999E+003 -9.999E+003 -9.999E+003 -9.999E+003 -9.999E+003 -9.999E+003 -9.999E+003 -9.999E+003 -9.999E+003 -9.999E+003 -9.999E+003 -9.999E+003 -9.999E+003 -9.999E+003 -9.999E+003 -9.999E+003 -9.999E+003 -9.999E+003 -9.999E+003 -9.999E+003 -9.999E+003 -9.999E+003 -9.999E+003 -9.999E+003 -9.999E+003 -9.999E+003 -9.999E+003 -9.999E+003 -9.999E+003 -9.999E+003 -9.999E+003 -9.999E+003 -9.999E+003
 -9.999E+003 -9.999E+003 -9.999E+003 -9.999E+003 -9.999E+003 -9.999E+003 -9.999E+003 -9.999E+003 -9.999E+003 -9.999E+003 -9.999E+003 -9.999E+003 -9.999E+003 -9.999E+003 -9.999E+003 -9.999E+003 -9.999E+003 -9.999E+003 -9.999E+003 -9.999E+003 -9.999E+003 -9.999E+003 -9.999E+003 -9.999E+003 -9.999E+003 -9.999E+003 -9.999E+003 -9.999E+003 -9.999E+003 -9.999E+003 -9.999E+003 -9.999E+003 -9.999E+003 -9.999E+003 -9.999E+003 -9.999E+003 -9.999E+003 -9.999E+003 -9.999E+003 -9.999E+003 -9.999E+003 -9.999E+003 -9.999E+003 -9.999E+003 -9.999E+003 -9.999E+003 -9.999E+003 -9.999E+003 -9.999E+003 -9.999E+003 -9.999E+003 -9.999E+003 -9.999E+003 -9.999E+003 -9.999E+003 -9.999E+003 -9.999E+003 -9.999E+003 -9.999E+003 -9.999E+003 -9.999E+003 -9.999E+003 -9.999E+003 -9.999E+003 -9.999E+003 -9.999E+003 -9.999E+003 -9.999E+003 -9.999E+003  1.394E+003  1.412E+003  1.420E+003  1.422E+003  1.421E+003  1.415E+003  1.399E+003  1.371E+003  1.324E+003  1.235E+003  1.057E+003  5.165E+002 -9.999E+003 -9.999E+003 -9.999E+003 -9.999E+003 -9.999E+003 -9.999E+003 -9.999E+003 -9.999E+003 -9.999E+003  3.000E+002  1.394E+003  1.399E+003  1.399E+003  1.399E+003  1.399E+003  1.394E+003 -9.999E+003 -9.999E+003 -9.999E+003 -9.999E+003 -9.999E+003 -9.999E+003 -9.999E+003 -9.999E+003 -9.999E+003 -9.999E+003 -9.999E+003 -9.999E+003 -9.999E+003 -9.999E+003 -9.999E+003 -9.999E+003 -9.999E+003 -9.999E+003 -9.999E+003 -9.999E+003 -9.999E+003 -9.999E+003 -9.999E+003 -9.999E+003 -9.999E+003 -9.999E+003 -9.999E+003 -9.999E+003 -9.999E+003 -9.999E+003 -9.999E+003 -9.999E+003 -9.999E+003 -9.999E+003 -9.999E+003 -9.999E+003 -9.999E+003 -9.999E+003 -9.999E+003 -9.999E+003 -9.999E+003 -9.999E+003 -9.999E+003 -9.999E+003 -9.999E+003 -9.999E+003 -9.999E+003 -9.999E+003 -9.999E+003 -9.999E+003 -9.999E+003 -9.999E+003 -9.999E+003
 -9.999E+003 -9.999E+003 -9.999E+003 -9.999E+003 -9.999E+003 -9.999E+003 -9.999E+003 -9.999E+003 -9.999E+003 -9.999E+003 -9.999E+003 -9.999E+003 -9.999E+003 -9.999E+003 -9.999E+003 -9.999E+003 -9.999E+003 -9.999E+003 -9.999E+003 -9.999E+003 -9.999E+003 -9.999E+003 -9.999E+003 -9.999E+003 -9.999E+003 -9.999E+003 -9.999E+003 -9.999E+003 -9.999E+003 -9.999E+003 -9.999E+003 -9.999E+003 -9.999E+003 -9.999E+003 -9.999E+003 -9.999E+003 -9.999E+003 -9.999E+003 -9.999E+003 -9.999E+003 -9.999E+003 -9.999E+003 -9.999E+003 -9.999E+003 -9.999E+003 -9.999E+003 -9.999E+003 -9.999E+003 -9.999E+003 -9.999E+003 -9.999E+003 -9.999E+003 -9.999E+003 -9.999E+003 -9.999E+003 -9.999E+003 -9.999E+003 -9.999E+003 -9.999E+003 -9.999E+003 -9.999E+003 -9.999E+003 -9.999E+003 -9.999E+003 -9.999E+003 -9.999E+003 -9.999E+003 -9.999E+003  3.000E+002  1.388E+003  1.413E+003  1.423E+003  1.426E+003  1.425E+003  1.421E+003  1.408E+003  1.383E+003  1.332E+003  1.225E+003  1.003E+003 -9.999E+003 -9.999E+003 -9.999E+003 -9.999E+003 -9.999E+003 -9.999E+003 -9.999E+003 -9.999E+003 -9.999E+003 -9.999E+003 -9.999E+003  1.295E+003  1.438E+003  1.440E+003  1.439E+003  1.436E+003  1.261E+003  3.000E+002 -9.999E+003 -9.999E+003 -9.999E+003 -9.999E+003 -9.999E+003 -9.999E+003 -9.999E+003 -9.999E+003 -9.999E+003 -9.999E+003 -9.999E+003 -9.999E+003 -9.999E+003 -9.999E+003 -9.999E+003 -9.999E+003 -9.999E+003 -9.999E+003 -9.999E+003 -9.999E+003 -9.999E+003 -9.999E+003 -9.999E+003 -9.999E+003 -9.999E+003 -9.999E+003 -9.999E+003 -9.999E+003 -9.999E+003 -9.999E+003 -9.999E+003 -9.999E+003 -9.999E+003 -9.999E+003 -9.999E+003 -9.999E+003 -9.999E+003 -9.999E+003 -9.999E+003 -9.999E+003 -9.999E+003 -9.999E+003 -9.999E+003 -9.999E+003 -9.999E+003 -9.999E+003 -9.999E+003 -9.999E+003 -9.999E+003 -9.999E+003 -9.999E+003 -9.999E+003
 -9.999E+003 -9.999E+003 -9.999E+003 -9.999E+003 -9.999E+003 -9.999E+003 -9.999E+003 -9.999E+003 -9.999E+003 -9.999E+003 -9.999E+003 -9.999E+003 -9.999E+003 -9.999E+003 -9.999E+003 -9.999E+003 -9.999E+003 -9.999E+003 -9.999E+003 -9.999E+003 -9.999E+003 -9.999E+003 -9.999E+003 -9.999E+003 -9.999E+003 -9.999E+003 -9.999E+003 -9.999E+003 -9.999E+003 -9.999E+003 -9.999E+003 -9.999E+003 -9.999E+003 -9.999E+003 -9.999E+003 -9.999E+003 -9.999E+003 -9.999E+003 -9.999E+003 -9.999E+003 -9.999E+003 -9.999E+003 -9.999E+003 -9.999E+003 -9.999E+003 -9.999E+003 -9.999E+003 -9.999E+003 -9.999E+003 -9.999E+003 -9.999E+003 -9.999E+003 -9.999E+003 -9.999E+003 -9.999E+003 -9.999E+003 -9.999E+003 -9.999E+003 -9.999E+003 -9.999E+003 -9.999E+003 -9.999E+003 -9.999E+003 -9.999E+003 -9.999E+003 -9.999E+003 -9.999E+003 -9.999E+003 -9.999E+003  1.383E+003  1.413E+003  1.425E+003  1.428E+003  1.428E+003  1.425E+003  1.415E+003  1.391E+003  1.339E+003  1.215E+003  9.310E+002 -9.999E+003 -9.999E+003 -9.999E+003 -9.999E+003 -9.999E+003 -9.999E+003 -9.999E+003 -9.999E+003 -9.999E+003 -9.999E+003  3.000E+002  1.448E+003  1.460E+003  1.463E+003  1.463E+003  1.460E+003  1.450E+003 -9.999E+003 -9.999E+003 -9.999E+003 -9.999E+003 -9.999E+003 -9.999E+003 -9.999E+003 -9.999E+003 -9.999E+003 -9.999E+003 -9.999E+003 -9.999E+003 -9.999E+003 -9.999E+003 -9.999E+003 -9.999E+003 -9.999E+003 -9.999E+003 -9.999E+003 -9.999E+003 -9.999E+003 -9.999E+003 -9.999E+003 -9.999E+003 -9.999E+003 -9.999E+003 -9.999E+003 -9.999E+003 -9.999E+003 -9.999E+003 -9.999E+003 -9.999E+003 -9.999E+003 -9.999E+003 -9.999E+003 -9.999E+003 -9.999E+003 -9.999E+003 -9.999E+003 -9.999E+003 -9.999E+003 -9.999E+003 -9.999E+003 -9.999E+003 -9.999E+003 -9.999E+003 -9.999E+003 -9.999E+003 -9.999E+003 -9.999E+003 -9.999E+003 -9.999E+003 -9.999E+003
 -9.999E+003 -9.999E+003 -9.999E+003 -9.999E+003 -9.999E+003 -9.999E+003 -9.999E+003 -9.999E+003 -9.999E+003 -9.999E+003 -9.999E+003 -9.999E+003 -9.999E+003 -9.999E+003 -9.999E+003 -9.999E+003 -9.999E+003 -9.999E+003 -9.999E+003 -9.999E+003 -9.999E+003 -9.999E+003 -9.999E+003 -9.999E+003 -9.999E+003 -9.999E+003 -9.999E+003 -9.999E+003 -9.999E+003 -9.999E+003 -9.999E+003 -9.999E+003 -9.999E+003 -9.999E+003 -9.999E+003 -9.999E+003 -9.999E+003 -9.999E+003 -9.999E+003 -9.999E+003 -9.999E+003 -9.999E+003 -9.999E+003 -9.999E+003 -9.999E+003 -9.999E+003 -9.999E+003 -9.999E+003 -9.999E+003 -9.999E+003 -9.999E+003 -9.999E+003 -9.999E+003 -9.999E+003 -9.999E+003 -9.999E+003 -9.999E+003 -9.999E+003 -9.999E+003 -9.999E+003 -9.999E+003 -9.999E+003 -9.999E+003 -9.999E+003 -9.999E+003 -9.999E+003 -9.999E+003 -9.999E+003 -9.999E+003 -9.999E+003  1.412E+003  1.426E+003  1.431E+003  1.432E+003  1.429E+003  1.420E+003  1.398E+003  1.347E+003  1.212E+003 -9.999E+003 -9.999E+003 -9.999E+003 -9.999E+003 -9.999E+003 -9.999E+003 -9.999E+003 -9.999E+003 -9.999E+003 -9.999E+003 -9.999E+003 -9.999E+003  1.464E+003  1.474E+003  1.478E+003  1.478E+003  1.475E+003  1.464E+003  3.000E+002 -9.999E+003 -9.999E+003 -9.999E+003 -9.999E+003 -9.999E+003 -9.999E+003 -9.999E+003 -9.999E+003 -9.999E+003 -9.999E+003 -9.999E+003 -9.999E+003 -9.999E+003 -9.999E+003 -9.999E+003 -9.999E+003 -9.999E+003 -9.999E+003 -9.999E+003 -9.999E+003 -9.999E+003 -9.999E+003 -9.999E+003 -9.999E+003 -9.999E+003 -9.999E+003 -9.999E+003 -9.999E+003 -9.999E+003 -9.999E+003 -9.999E+003 -9.999E+003 -9.999E+003 -9.999E+003 -9.999E+003 -9.999E+003 -9.999E+003 -9.999E+003 -9.999E+003 -9.999E+003 -9.999E+003 -9.999E+003 -9.999E+003 -9.999E+003 -9.999E+003 -9.999E+003 -9.999E+003 -9.999E+003 -9.999E+003 -9.999E+003 -9.999E+003 -9.999E+003
 -9.999E+003 -9.999E+003 -9.999E+003 -9.999E+003 -9.999E+003 -9.999E+003 -9.999E+003 -9.999E+003 -9.999E+003 -9.999E+003 -9.999E+003 -9.999E+003 -9.999E+003 -9.999E+003 -9.999E+003 -9.999E+003 -9.999E+003 -9.999E+003 -9.999E+003 -9.999E+003 -9.999E+003 -9.999E+003 -9.999E+003 -9.999E+003 -9.999E+003 -9.999E+003 -9.999E+003 -9.999E+003 -9.999E+003 -9.999E+003 -9.999E+003 -9.999E+003 -9.999E+003 -9.999E+003 -9.999E+003 -9.999E+003 -9.999E+003 -9.999E+003 -9.999E+003 -9.999E+003 -9.999E+003 -9.999E+003 -9.999E+003 -9.999E+003 -9.999E+003 -9.999E+003 -9.999E+003 -9.999E+003 -9.999E+003 -9.999E+003 -9.999E+003 -9.999E+003 -9.999E+003 -9.999E+003 -9.999E+003 -9.999E+003 -9.999E+003 -9.999E+003 -9.999E+003 -9.999E+003 -9.999E+003 -9.999E+003 -9.999E+003 -9.999E+003 -9.999E+003 -9.999E+003 -9.999E+003 -9.999E+003 -9.999E+003  3.000E+002  1.409E+003  1.427E+003  1.434E+003  1.435E+003  1.433E+003  1.426E+003  1.406E+003  1.360E+003  1.225E+003 -9.999E+003 -9.999E+003 -9.999E+003 -9.999E+003 -9.999E+003 -9.999E+003 -9.999E+003 -9.999E+003 -9.999E+003 -9.999E+003 -9.999E+003  3.000E+002  1.473E+003  1.484E+003  1.488E+003  1.488E+003  1.486E+003  1.363E+003 -9.999E+003 -9.999E+003 -9.999E+003 -9.999E+003 -9.999E+003 -9.999E+003 -9.999E+003 -9.999E+003 -9.999E+003 -9.999E+003 -9.999E+003 -9.999E+003 -9.999E+003 -9.999E+003 -9.999E+003 -9.999E+003 -9.999E+003 -9.999E+003 -9.999E+003 -9.999E+003 -9.999E+003 -9.999E+003 -9.999E+003 -9.999E+003 -9.999E+003 -9.999E+003 -9.999E+003 -9.999E+003 -9.999E+003 -9.999E+003 -9.999E+003 -9.999E+003 -9.999E+003 -9.999E+003 -9.999E+003 -9.999E+003 -9.999E+003 -9.999E+003 -9.999E+003 -9.999E+003 -9.999E+003 -9.999E+003 -9.999E+003 -9.999E+003 -9.999E+003 -9.999E+003 -9.999E+003 -9.999E+003 -9.999E+003 -9.999E+003 -9.999E+003 -9.999E+003 -9.999E+003
 -9.999E+003 -9.999E+003 -9.999E+003 -9.999E+003 -9.999E+003 -9.999E+003 -9.999E+003 -9.999E+003 -9.999E+003 -9.999E+003 -9.999E+003 -9.999E+003 -9.999E+003 -9.999E+003 -9.999E+003 -9.999E+003 -9.999E+003 -9.999E+003 -9.999E+003 -9.999E+003 -9.999E+003 -9.999E+003 -9.999E+003 -9.999E+003 -9.999E+003 -9.999E+003 -9.999E+003 -9.999E+003 -9.999E+003 -9.999E+003 -9.999E+003 -9.999E+003 -9.999E+003 -9.999E+003 -9.999E+003 -9.999E+003 -9.999E+003 -9.999E+003 -9.999E+003 -9.999E+003 -9.999E+003 -9.999E+003 -9.999E+003 -9.999E+003 -9.999E+003 -9.999E+003 -9.999E+003 -9.999E+003 -9.999E+003 -9.999E+003 -9.999E+003 -9.999E+003 -9.999E+003 -9.999E+003 -9.999E+003 -9.999E+003 -9.999E+003 -9.999E+003 -9.999E+003 -9.999E+003 -9.999E+003 -9.999E+003 -9.999E+003 -9.999E+003 -9.999E+003 -9.999E+003 -9.999E+003 -9.999E+003 -9.999E+003 -9.999E+003  1.408E+003  1.429E+003  1.436E+003  1.438E+003  1.437E+003  1.432E+003  1.415E+003  1.376E+003  1.253E+003  9.094E+002 -9.999E+003 -9.999E+003 -9.999E+003 -9.999E+003 -9.999E+003 -9.999E+003 -9.999E+003 -9.999E+003 -9.999E+003  1.382E+003  1.443E+003  1.480E+003  1.491E+003  1.495E+003 -1.496E+003 -1.494E+003 -9.999E+003 -9.999E+003 -9.999E+003 -9.999E+003 -9.999E+003 -9.999E+003 -9.999E+003 -9.999E+003 -9.999E+003 -9.999E+003 -9.999E+003 -9.999E+003 -9.999E+003 -9.999E+003 -9.999E+003 -9.999E+003 -9.999E+003 -9.999E+003 -9.999E+003 -9.999E+003 -9.999E+003 -9.999E+003 -9.999E+003 -9.999E+003 -9.999E+003 -9.999E+003 -9.999E+003 -9.999E+003 -9.999E+003 -9.999E+003 -9.999E+003 -9.999E+003 -9.999E+003 -9.999E+003 -9.999E+003 -9.999E+003 -9.999E+003 -9.999E+003 -9.999E+003 -9.999E+003 -9.999E+003 -9.999E+003 -9.999E+003 -9.999E+003 -9.999E+003 -9.999E+003 -9.999E+003 -9.999E+003 -9.999E+003 -9.999E+003 -9.999E+003 -9.999E+003 -9.999E+003 -9.999E+003
 -9.999E+003 -9.999E+003 -9.999E+003 -9.999E+003 -9.999E+003 -9.999E+003 -9.999E+003 -9.999E+003 -9.999E+003 -9.999E+003 -9.999E+003 -9.999E+003 -9.999E+003 -9.999E+003 -9.999E+003 -9.999E+003 -9.999E+003 -9.999E+003 -9.999E+003 -9.999E+003 -9.999E+003 -9.999E+003 -9.999E+003 -9.999E+003 -9.999E+003 -9.999E+003 -9.999E+003 -9.999E+003 -9.999E+003 -9.999E+003 -9.999E+003 -9.999E+003 -9.999E+003 -9.999E+003 -9.999E+003 -9.999E+003 -9.999E+003 -9.999E+003 -9.999E+003 -9.999E+003 -9.999E+003 -9.999E+003 -9.999E+003 -9.999E+003 -9.999E+003 -9.999E+003 -9.999E+003 -9.999E+003 -9.999E+003 -9.999E+003 -9.999E+003 -9.999E+003 -9.999E+003 -9.999E+003 -9.999E+003 -9.999E+003 -9.999E+003 -9.999E+003 -9.999E+003 -9.999E+003 -9.999E+003 -9.999E+003 -9.999E+003 -9.999E+003 -9.999E+003 -9.999E+003 -9.999E+003 -9.999E+003 -9.999E+003 -9.999E+003  3.000E+002  1.430E+003  1.439E+003  1.441E+003  1.441E+003  1.437E+003  1.424E+003  1.394E+003  1.299E+003  1.044E+003 -9.999E+003 -9.999E+003 -9.999E+003 -9.999E+003 -9.999E+003 -9.999E+003 -9.999E+003 -9.999E+003  1.385E+003  1.447E+003  1.473E+003  1.488E+003  1.496E+003 -1.500E+003 -1.501E+003 -1.348E+003 -9.999E+003 -9.999E+003 -9.999E+003 -9.999E+003 -9.999E+003 -9.999E+003 -9.999E+003 -9.999E+003 -9.999E+003 -9.999E+003 -9.999E+003 -9.999E+003 -9.999E+003 -9.999E+003 -9.999E+003 -9.999E+003 -9.999E+003 -9.999E+003 -9.999E+003 -9.999E+003 -9.999E+003 -9.999E+003 -9.999E+003 -9.999E+003 -9.999E+003 -9.999E+003 -9.999E+003 -9.999E+003 -9.999E+003 -9.999E+003 -9.999E+003 -9.999E+003 -9.999E+003 -9.999E+003 -9.999E+003 -9.999E+003 -9.999E+003 -9.999E+003 -9.999E+003 -9.999E+003 -9.999E+003 -9.999E+003 -9.999E+003 -9.999E+003 -9.999E+003 -9.999E+003 -9.999E+003 -9.999E+003 -9.999E+003 -9.999E+003 -9.999E+003 -9.999E+003 -9.999E+003 -9.999E+003
 -9.999E+003 -9.999E+003 -9.999E+003 -9.999E+003 -9.999E+003 -9.999E+003 -9.999E+003 -9.999E+003 -9.999E+003 -9.999E+003 -9.999E+003 -9.999E+003 -9.999E+003 -9.999E+003 -9.999E+003 -9.999E+003 -9.999E+003 -9.999E+003 -9.999E+003 -9.999E+003 -9.999E+003 -9.999E+003 -9.999E+003 -9.999E+003 -9.999E+003 -9.999E+003 -9.999E+003 -9.999E+003 -9.999E+003 -9.999E+003 -9.999E+003 -9.999E+003 -9.999E+003 -9.999E+003 -9.999E+003 -9.999E+003 -9.999E+003 -9.999E+003 -9.999E+003 -9.999E+003 -9.999E+003 -9.999E+003 -9.999E+003 -9.999E+003 -9.999E+003 -9.999E+003 -9.999E+003 -9.999E+003 -9.999E+003 -9.999E+003 -9.999E+003 -9.999E+003 -9.999E+003 -9.999E+003 -9.999E+003 -9.999E+003 -9.999E+003 -9.999E+003 -9.999E+003 -9.999E+003 -9.999E+003 -9.999E+003 -9.999E+003 -9.999E+003 -9.999E+003 -9.999E+003 -9.999E+003 -9.999E+003 -9.999E+003 -9.999E+003  1.394E+003  1.431E+003  1.441E+003  1.445E+003  1.445E+003  1.443E+003  1.433E+003  1.407E+003  1.334E+003  1.175E+003 -9.999E+003 -9.999E+003 -9.999E+003 -9.999E+003 -9.999E+003 -9.999E+003 -9.999E+003 -9.999E+003 -9.999E+003  1.465E+003  1.485E+003  1.494E+003 -1.499E+003 -1.501E+003 -1.362E+003 -9.999E+003 -9.999E+003 -9.999E+003 -9.999E+003 -9.999E+003 -9.999E+003 -9.999E+003 -9.999E+003 -9.999E+003 -9.999E+003 -9.999E+003 -9.999E+003 -9.999E+003 -9.999E+003 -9.999E+003 -9.999E+003 -9.999E+003 -9.999E+003 -9.999E+003 -9.999E+003 -9.999E+003 -9.999E+003 -9.999E+003 -9.999E+003 -9.999E+003 -9.999E+003 -9.999E+003 -9.999E+003 -9.999E+003 -9.999E+003 -9.999E+003 -9.999E+003 -9.999E+003 -9.999E+003 -9.999E+003 -9.999E+003 -9.999E+003 -9.999E+003 -9.999E+003 -9.999E+003 -9.999E+003 -9.999E+003 -9.999E+003 -9.999E+003 -9.999E+003 -9.999E+003 -9.999E+003 -9.999E+003 -9.999E+003 -9.999E+003 -9.999E+003 -9.999E+003 -9.999E+003 -9.999E+003 -9.999E+003
 -9.999E+003 -9.999E+003 -9.999E+003 -9.999E+003 -9.999E+003 -9.999E+003 -9.999E+003 -9.999E+003 -9.999E+003 -9.999E+003 -9.999E+003 -9.999E+003 -9.999E+003 -9.999E+003 -9.999E+003 -9.999E+003 -9.999E+003 -9.999E+003 -9.999E+003 -9.999E+003 -9.999E+003 -9.999E+003 -9.999E+003 -9.999E+003 -9.999E+003 -9.999E+003 -9.999E+003 -9.999E+003 -9.999E+003 -9.999E+003 -9.999E+003 -9.999E+003 -9.999E+003 -9.999E+003 -9.999E+003 -9.999E+003 -9.999E+003 -9.999E+003 -9.999E+003 -9.999E+003 -9.999E+003 -9.999E+003 -9.999E+003 -9.999E+003 -9.999E+003 -9.999E+003 -9.999E+003 -9.999E+003 -9.999E+003 -9.999E+003 -9.999E+003 -9.999E+003 -9.999E+003 -9.999E+003 -9.999E+003 -9.999E+003 -9.999E+003 -9.999E+003 -9.999E+003 -9.999E+003 -9.999E+003 -9.999E+003 -9.999E+003 -9.999E+003 -9.999E+003 -9.999E+003 -9.999E+003 -9.999E+003 -9.999E+003 -9.999E+003  1.400E+003  1.431E+003  1.443E+003  1.448E+003  1.449E+003  1.447E+003  1.439E+003  1.419E+003  1.368E+003  1.269E+003  1.033E+003 -9.999E+003 -9.999E+003 -9.999E+003 -9.999E+003 -9.999E+003 -9.999E+003 -9.999E+003  1.313E+003  1.455E+003  1.491E+003 -1.498E+003 -1.500E+003 -1.473E+003  1.374E+003  3.000E+002 -9.999E+003 -9.999E+003 -9.999E+003 -9.999E+003 -9.999E+003 -9.999E+003 -9.999E+003 -9.999E+003 -9.999E+003 -9.999E+003 -9.999E+003 -9.999E+003 -9.999E+003 -9.999E+003 -9.999E+003 -9.999E+003 -9.999E+003 -9.999E+003 -9.999E+003 -9.999E+003 -9.999E+003 -9.999E+003 -9.999E+003 -9.999E+003 -9.999E+003 -9.999E+003 -9.999E+003 -9.999E+003 -9.999E+003 -9.999E+003 -9.999E+003 -9.999E+003 -9.999E+003 -9.999E+003 -9.999E+003 -9.999E+003 -9.999E+003 -9.999E+003 -9.999E+003 -9.999E+003 -9.999E+003 -9.999E+003 -9.999E+003 -9.999E+003 -9.999E+003 -9.999E+003 -9.999E+003 -9.999E+003 -9.999E+003 -9.999E+003 -9.999E+003 -9.999E+003 -9.999E+003 -9.999E+003
 -9.999E+003 -9.999E+003 -9.999E+003 -9.999E+003 -9.999E+003 -9.999E+003 -9.999E+003 -9.999E+003 -9.999E+003 -9.999E+003 -9.999E+003 -9.999E+003 -9.999E+003 -9.999E+003 -9.999E+003 -9.999E+003 -9.999E+003 -9.999E+003 -9.999E+003 -9.999E+003 -9.999E+003 -9.999E+003 -9.999E+003 -9.999E+003 -9.999E+003 -9.999E+003 -9.999E+003 -9.999E+003 -9.999E+003 -9.999E+003 -9.999E+003 -9.999E+003 -9.999E+003 -9.999E+003 -9.999E+003 -9.999E+003 -9.999E+003 -9.999E+003 -9.999E+003 -9.999E+003 -9.999E+003 -9.999E+003 -9.999E+003 -9.999E+003 -9.999E+003 -9.999E+003 -9.999E+003 -9.999E+003 -9.999E+003 -9.999E+003 -9.999E+003 -9.999E+003 -9.999E+003 -9.999E+003 -9.999E+003 -9.999E+003 -9.999E+003 -9.999E+003 -9.999E+003 -9.999E+003 -9.999E+003 -9.999E+003 -9.999E+003 -9.999E+003 -9.999E+003 -9.999E+003 -9.999E+003 -9.999E+003  1.170E+003  1.339E+003  1.402E+003  1.431E+003  1.445E+003  1.451E+003  1.452E+003  1.451E+003  1.446E+003  1.430E+003  1.396E+003  1.310E+003  1.091E+003 -9.999E+003 -9.999E+003 -9.999E+003 -9.999E+003 -9.999E+003 -9.999E+003 -9.999E+003  1.402E+003  1.471E+003 -1.491E+003 -1.501E+003 -1.476E+003  1.402E+003  7.252E+002 -9.999E+003 -9.999E+003 -9.999E+003 -9.999E+003 -9.999E+003 -9.999E+003 -9.999E+003 -9.999E+003 -9.999E+003 -9.999E+003 -9.999E+003 -9.999E+003 -9.999E+003 -9.999E+003 -9.999E+003 -9.999E+003 -9.999E+003 -9.999E+003 -9.999E+003 -9.999E+003 -9.999E+003 -9.999E+003 -9.999E+003 -9.999E+003 -9.999E+003 -9.999E+003 -9.999E+003 -9.999E+003 -9.999E+003 -9.999E+003 -9.999E+003 -9.999E+003 -9.999E+003 -9.999E+003 -9.999E+003 -9.999E+003 -9.999E+003 -9.999E+003 -9.999E+003 -9.999E+003 -9.999E+003 -9.999E+003 -9.999E+003 -9.999E+003 -9.999E+003 -9.999E+003 -9.999E+003 -9.999E+003 -9.999E+003 -9.999E+003 -9.999E+003 -9.999E+003 -9.999E+003 -9.999E+003 -9.999E+003
 -9.999E+003 -9.999E+003 -9.999E+003 -9.999E+003 -9.999E+003 -9.999E+003 -9.999E+003 -9.999E+003 -9.999E+003 -9.999E+003 -9.999E+003 -9.999E+003 -9.999E+003 -9.999E+003 -9.999E+003 -9.999E+003 -9.999E+003 -9.999E+003 -9.999E+003 -9.999E+003 -9.999E+003 -9.999E+003 -9.999E+003 -9.999E+003 -9.999E+003 -9.999E+003 -9.999E+003 -9.999E+003 -9.999E+003 -9.999E+003 -9.999E+003 -9.999E+003 -9.999E+003 -9.999E+003 -9.999E+003 -9.999E+003 -9.999E+003 -9.999E+003 -9.999E+003 -9.999E+003 -9.999E+003 -9.999E+003 -9.999E+003 -9.999E+003 -9.999E+003 -9.999E+003 -9.999E+003 -9.999E+003 -9.999E+003 -9.999E+003 -9.999E+003 -9.999E+003 -9.999E+003 -9.999E+003 -9.999E+003 -9.999E+003 -9.999E+003 -9.999E+003 -9.999E+003 -9.999E+003 -9.999E+003 -9.999E+003 -9.999E+003 -9.999E+003 -9.999E+003 -9.999E+003 -9.999E+003  3.000E+002  1.286E+003  1.353E+003  1.400E+003  1.431E+003  1.447E+003  1.454E+003  1.455E+003  1.455E+003  1.451E+003  1.440E+003  1.414E+003  1.309E+003  1.037E+003 -9.999E+003 -9.999E+003 -9.999E+003 -9.999E+003 -9.999E+003 -9.999E+003  3.000E+002  1.311E+003 -1.499E+003 -1.503E+003 -1.466E+003  1.430E+003  1.300E+003  3.000E+002 -9.999E+003 -9.999E+003 -9.999E+003 -9.999E+003 -9.999E+003 -9.999E+003 -9.999E+003 -9.999E+003 -9.999E+003 -9.999E+003 -9.999E+003 -9.999E+003 -9.999E+003 -9.999E+003 -9.999E+003 -9.999E+003 -9.999E+003 -9.999E+003 -9.999E+003 -9.999E+003 -9.999E+003 -9.999E+003 -9.999E+003 -9.999E+003 -9.999E+003 -9.999E+003 -9.999E+003 -9.999E+003 -9.999E+003 -9.999E+003 -9.999E+003 -9.999E+003 -9.999E+003 -9.999E+003 -9.999E+003 -9.999E+003 -9.999E+003 -9.999E+003 -9.999E+003 -9.999E+003 -9.999E+003 -9.999E+003 -9.999E+003 -9.999E+003 -9.999E+003 -9.999E+003 -9.999E+003 -9.999E+003 -9.999E+003 -9.999E+003 -9.999E+003 -9.999E+003 -9.999E+003 -9.999E+003 -9.999E+003
 -9.999E+003 -9.999E+003 -9.999E+003 -9.999E+003 -9.999E+003 -9.999E+003 -9.999E+003 -9.999E+003 -9.999E+003 -9.999E+003 -9.999E+003 -9.999E+003 -9.999E+003 -9.999E+003 -9.999E+003 -9.999E+003 -9.999E+003 -9.999E+003 -9.999E+003 -9.999E+003 -9.999E+003 -9.999E+003 -9.999E+003 -9.999E+003 -9.999E+003 -9.999E+003 -9.999E+003 -9.999E+003 -9.999E+003 -9.999E+003 -9.999E+003 -9.999E+003 -9.999E+003 -9.999E+003 -9.999E+003 -9.999E+003 -9.999E+003 -9.999E+003 -9.999E+003 -9.999E+003 -9.999E+003 -9.999E+003 -9.999E+003 -9.999E+003 -9.999E+003 -9.999E+003 -9.999E+003 -9.999E+003 -9.999E+003 -9.999E+003 -9.999E+003 -9.999E+003 -9.999E+003 -9.999E+003 -9.999E+003 -9.999E+003 -9.999E+003 -9.999E+003 -9.999E+003 -9.999E+003 -9.999E+003 -9.999E+003 -9.999E+003 -9.999E+003 -9.999E+003 -9.999E+003 -9.999E+003 -9.999E+003  3.173E+002  1.331E+003  1.393E+003  1.430E+003  1.448E+003  1.457E+003  1.459E+003  1.459E+003  1.456E+003  1.448E+003  1.426E+003  1.321E+003  1.012E+003 -9.999E+003 -9.999E+003 -9.999E+003 -9.999E+003 -9.999E+003  3.000E+002 -9.999E+003 -1.501E+003 -1.501E+003 -1.501E+003  1.498E+003  1.349E+003  3.632E+002 -9.999E+003 -9.999E+003 -9.999E+003 -9.999E+003 -9.999E+003 -9.999E+003 -9.999E+003 -9.999E+003 -9.999E+003 -9.999E+003 -9.999E+003 -9.999E+003 -9.999E+003 -9.999E+003 -9.999E+003 -9.999E+003 -9.999E+003 -9.999E+003 -9.999E+003 -9.999E+003 -9.999E+003 -9.999E+003 -9.999E+003 -9.999E+003 -9.999E+003 -9.999E+003 -9.999E+003 -9.999E+003 -9.999E+003 -9.999E+003 -9.999E+003 -9.999E+003 -9.999E+003 -9.999E+003 -9.999E+003 -9.999E+003 -9.999E+003 -9.999E+003 -9.999E+003 -9.999E+003 -9.999E+003 -9.999E+003 -9.999E+003 -9.999E+003 -9.999E+003 -9.999E+003 -9.999E+003 -9.999E+003 -9.999E+003 -9.999E+003 -9.999E+003 -9.999E+003 -9.999E+003 -9.999E+003 -9.999E+003 -9.999E+003
 -9.999E+003 -9.999E+003 -9.999E+003 -9.999E+003 -9.999E+003 -9.999E+003 -9.999E+003 -9.999E+003 -9.999E+003 -9.999E+003 -9.999E+003 -9.999E+003 -9.999E+003 -9.999E+003 -9.999E+003 -9.999E+003 -9.999E+003 -9.999E+003 -9.999E+003 -9.999E+003 -9.999E+003 -9.999E+003 -9.999E+003 -9.999E+003 -9.999E+003 -9.999E+003 -9.999E+003 -9.999E+003 -9.999E+003 -9.999E+003 -9.999E+003 -9.999E+003 -9.999E+003 -9.999E+003 -9.999E+003 -9.999E+003 -9.999E+003 -9.999E+003 -9.999E+003 -9.999E+003 -9.999E+003 -9.999E+003 -9.999E+003 -9.999E+003 -9.999E+003 -9.999E+003 -9.999E+003 -9.999E+003 -9.999E+003 -9.999E+003 -9.999E+003 -9.999E+003 -9.999E+003 -9.999E+003 -9.999E+003 -9.999E+003 -9.999E+003 -9.999E+003 -9.999E+003 -9.999E+003 -9.999E+003 -9.999E+003 -9.999E+003 -9.999E+003 -9.999E+003 -9.999E+003 -9.999E+003 -9.999E+003 -9.999E+003  3.667E+002 -9.999E+003  1.426E+003  1.448E+003  1.459E+003  1.462E+003  1.463E+003  1.461E+003  1.453E+003  1.432E+003  1.327E+003  1.008E+003 -9.999E+003 -9.999E+003 -9.999E+003 -9.999E+003  3.000E+002  1.428E+003 -1.502E+003 -1.503E+003 -1.500E+003  1.494E+003  9.924E+002  3.000E+002 -9.999E+003 -9.999E+003 -9.999E+003 -9.999E+003 -9.999E+003 -9.999E+003 -9.999E+003 -9.999E+003 -9.999E+003 -9.999E+003 -9.999E+003 -9.999E+003 -9.999E+003 -9.999E+003 -9.999E+003 -9.999E+003 -9.999E+003 -9.999E+003 -9.999E+003 -9.999E+003 -9.999E+003 -9.999E+003 -9.999E+003 -9.999E+003 -9.999E+003 -9.999E+003 -9.999E+003 -9.999E+003 -9.999E+003 -9.999E+003 -9.999E+003 -9.999E+003 -9.999E+003 -9.999E+003 -9.999E+003 -9.999E+003 -9.999E+003 -9.999E+003 -9.999E+003 -9.999E+003 -9.999E+003 -9.999E+003 -9.999E+003 -9.999E+003 -9.999E+003 -9.999E+003 -9.999E+003 -9.999E+003 -9.999E+003 -9.999E+003 -9.999E+003 -9.999E+003 -9.999E+003 -9.999E+003 -9.999E+003 -9.999E+003 -9.999E+003
 -9.999E+003 -9.999E+003 -9.999E+003 -9.999E+003 -9.999E+003 -9.999E+003 -9.999E+003 -9.999E+003 -9.999E+003 -9.999E+003 -9.999E+003 -9.999E+003 -9.999E+003 -9.999E+003 -9.999E+003 -9.999E+003 -9.999E+003 -9.999E+003 -9.999E+003 -9.999E+003 -9.999E+003 -9.999E+003 -9.999E+003 -9.999E+003 -9.999E+003 -9.999E+003 -9.999E+003 -9.999E+003 -9.999E+003 -9.999E+003 -9.999E+003 -9.999E+003 -9.999E+003 -9.999E+003 -9.999E+003 -9.999E+003 -9.999E+003 -9.999E+003 -9.999E+003 -9.999E+003 -9.999E+003 -9.999E+003 -9.999E+003 -9.999E+003 -9.999E+003 -9.999E+003 -9.999E+003 -9.999E+003 -9.999E+003 -9.999E+003 -9.999E+003 -9.999E+003 -9.999E+003 -9.999E+003 -9.999E+003 -9.999E+003 -9.999E+003 -9.999E+003 -9.999E+003 -9.999E+003 -9.999E+003 -9.999E+003 -9.999E+003 -9.999E+003 -9.999E+003 -9.999E+003 -9.999E+003 -9.999E+003 -9.999E+003 -9.999E+003 -9.999E+003  1.414E+003  1.445E+003  1.460E+003  1.465E+003  1.466E+003  1.465E+003  1.457E+003  1.432E+003  1.334E+003  1.033E+003 -9.999E+003 -9.999E+003 -9.999E+003 -9.999E+003  1.420E+003 -1.489E+003 -1.505E+003 -1.501E+003  1.495E+003  1.480E+003  1.035E+003  3.000E+002 -9.999E+003 -9.999E+003 -9.999E+003 -9.999E+003 -9.999E+003 -9.999E+003 -9.999E+003 -9.999E+003 -9.999E+003 -9.999E+003 -9.999E+003 -9.999E+003 -9.999E+003 -9.999E+003 -9.999E+003 -9.999E+003 -9.999E+003 -9.999E+003 -9.999E+003 -9.999E+003 -9.999E+003 -9.999E+003 -9.999E+003 -9.999E+003 -9.999E+003 -9.999E+003 -9.999E+003 -9.999E+003 -9.999E+003 -9.999E+003 -9.999E+003 -9.999E+003 -9.999E+003 -9.999E+003 -9.999E+003 -9.999E+003 -9.999E+003 -9.999E+003 -9.999E+003 -9.999E+003 -9.999E+003 -9.999E+003 -9.999E+003 -9.999E+003 -9.999E+003 -9.999E+003 -9.999E+003 -9.999E+003 -9.999E+003 -9.999E+003 -9.999E+003 -9.999E+003 -9.999E+003 -9.999E+003 -9.999E+003 -9.999E+003 -9.999E+003
 -9.999E+003 -9.999E+003 -9.999E+003 -9.999E+003 -9.999E+003 -9.999E+003 -9.999E+003 -9.999E+003 -9.999E+003 -9.999E+003 -9.999E+003 -9.999E+003 -9.999E+003 -9.999E+003 -9.999E+003 -9.999E+003 -9.999E+003 -9.999E+003 -9.999E+003 -9.999E+003 -9.999E+003 -9.999E+003 -9.999E+003 -9.999E+003 -9.999E+003 -9.999E+003 -9.999E+003 -9.999E+003 -9.999E+003 -9.999E+003 -9.999E+003 -9.999E+003 -9.999E+003 -9.999E+003 -9.999E+003 -9.999E+003 -9.999E+003 -9.999E+003 -9.999E+003 -9.999E+003 -9.999E+003 -9.999E+003 -9.999E+003 -9.999E+003 -9.999E+003 -9.999E+003 -9.999E+003 -9.999E+003 -9.999E+003 -9.999E+003 -9.999E+003 -9.999E+003 -9.999E+003 -9.999E+003 -9.999E+003 -9.999E+003 -9.999E+003 -9.999E+003 -9.999E+003 -9.999E+003 -9.999E+003 -9.999E+003 -9.999E+003 -9.999E+003 -9.999E+003 -9.999E+003 -9.999E+003 -9.999E+003 -9.999E+003 -9.999E+003 -9.999E+003  1.383E+003  1.436E+003  1.458E+003  1.468E+003  1.470E+003  1.469E+003  1.463E+003  1.442E+003  1.384E+003  1.285E+003  1.174E+003  1.122E+003  1.171E+003  1.407E+003 -1.489E+003 -1.508E+003 -1.502E+003  1.495E+003  1.482E+003  1.455E+003  1.393E+003  4.065E+002 -9.999E+003 -9.999E+003 -9.999E+003 -9.999E+003 -9.999E+003 -9.999E+003 -9.999E+003 -9.999E+003 -9.999E+003 -9.999E+003 -9.999E+003 -9.999E+003 -9.999E+003 -9.999E+003 -9.999E+003 -9.999E+003 -9.999E+003 -9.999E+003 -9.999E+003 -9.999E+003 -9.999E+003 -9.999E+003 -9.999E+003 -9.999E+003 -9.999E+003 -9.999E+003 -9.999E+003 -9.999E+003 -9.999E+003 -9.999E+003 -9.999E+003 -9.999E+003 -9.999E+003 -9.999E+003 -9.999E+003 -9.999E+003 -9.999E+003 -9.999E+003 -9.999E+003 -9.999E+003 -9.999E+003 -9.999E+003 -9.999E+003 -9.999E+003 -9.999E+003 -9.999E+003 -9.999E+003 -9.999E+003 -9.999E+003 -9.999E+003 -9.999E+003 -9.999E+003 -9.999E+003 -9.999E+003 -9.999E+003 -9.999E+003 -9.999E+003
 -9.999E+003 -9.999E+003 -9.999E+003 -9.999E+003 -9.999E+003 -9.999E+003 -9.999E+003 -9.999E+003 -9.999E+003 -9.999E+003 -9.999E+003 -9.999E+003 -9.999E+003 -9.999E+003 -9.999E+003 -9.999E+003 -9.999E+003 -9.999E+003 -9.999E+003 -9.999E+003 -9.999E+003 -9.999E+003 -9.999E+003 -9.999E+003 -9.999E+003 -9.999E+003 -9.999E+003 -9.999E+003 -9.999E+003 -9.999E+003 -9.999E+003 -9.999E+003 -9.999E+003 -9.999E+003 -9.999E+003 -9.999E+003 -9.999E+003 -9.999E+003 -9.999E+003 -9.999E+003 -9.999E+003 -9.999E+003 -9.999E+003 -9.999E+003 -9.999E+003 -9.999E+003 -9.999E+003 -9.999E+003 -9.999E+003 -9.999E+003 -9.999E+003 -9.999E+003 -9.999E+003 -9.999E+003 -9.999E+003 -9.999E+003 -9.999E+003 -9.999E+003 -9.999E+003 -9.999E+003 -9.999E+003 -9.999E+003 -9.999E+003 -9.999E+003 -9.999E+003 -9.999E+003 -9.999E+003 -9.999E+003 -9.999E+003 -9.999E+003 -9.999E+003  8.003E+002  1.426E+003  1.456E+003  1.470E+003  1.474E+003  1.473E+003  1.470E+003  1.459E+003  1.438E+003  1.418E+003  1.401E+003  1.398E+003  1.432E+003 -1.489E+003 -1.509E+003 -1.503E+003  1.495E+003  1.483E+003  1.460E+003  1.415E+003  1.316E+003  7.108E+002 -9.999E+003 -9.999E+003 -9.999E+003 -9.999E+003 -9.999E+003 -9.999E+003 -9.999E+003 -9.999E+003 -9.999E+003 -9.999E+003 -9.999E+003 -9.999E+003 -9.999E+003 -9.999E+003 -9.999E+003 -9.999E+003 -9.999E+003 -9.999E+003 -9.999E+003 -9.999E+003 -9.999E+003 -9.999E+003 -9.999E+003 -9.999E+003 -9.999E+003 -9.999E+003 -9.999E+003 -9.999E+003 -9.999E+003 -9.999E+003 -9.999E+003 -9.999E+003 -9.999E+003 -9.999E+003 -9.999E+003 -9.999E+003 -9.999E+003 -9.999E+003 -9.999E+003 -9.999E+003 -9.999E+003 -9.999E+003 -9.999E+003 -9.999E+003 -9.999E+003 -9.999E+003 -9.999E+003 -9.999E+003 -9.999E+003 -9.999E+003 -9.999E+003 -9.999E+003 -9.999E+003 -9.999E+003 -9.999E+003 -9.999E+003 -9.999E+003
 -9.999E+003 -9.999E+003 -9.999E+003 -9.999E+003 -9.999E+003 -9.999E+003 -9.999E+003 -9.999E+003 -9.999E+003 -9.999E+003 -9.999E+003 -9.999E+003 -9.999E+003 -9.999E+003 -9.999E+003 -9.999E+003 -9.999E+003 -9.999E+003 -9.999E+003 -9.999E+003 -9.999E+003 -9.999E+003 -9.999E+003 -9.999E+003 -9.999E+003 -9.999E+003 -9.999E+003 -9.999E+003 -9.999E+003 -9.999E+003 -9.999E+003 -9.999E+003 -9.999E+003 -9.999E+003 -9.999E+003 -9.999E+003 -9.999E+003 -9.999E+003 -9.999E+003 -9.999E+003 -9.999E+003 -9.999E+003 -9.999E+003 -9.999E+003 -9.999E+003 -9.999E+003 -9.999E+003 -9.999E+003 -9.999E+003 -9.999E+003 -9.999E+003 -9.999E+003 -9.999E+003 -9.999E+003 -9.999E+003 -9.999E+003 -9.999E+003 -9.999E+003 -9.999E+003 -9.999E+003 -9.999E+003 -9.999E+003 -9.999E+003 -9.999E+003 -9.999E+003 -9.999E+003 -9.999E+003 -9.999E+003 -9.999E+003 -9.999E+003  3.000E+002  1.338E+003  1.426E+003  1.457E+003  1.472E+003  1.477E+003  1.477E+003  1.476E+003  1.471E+003  1.465E+003  1.462E+003  1.467E+003  1.478E+003 -1.494E+003 -1.504E+003 -1.503E+003  1.495E+003  1.482E+003  1.459E+003  1.421E+003  1.349E+003  1.191E+003  9.050E+002 -9.999E+003 -9.999E+003 -9.999E+003 -9.999E+003 -9.999E+003 -9.999E+003 -9.999E+003 -9.999E+003 -9.999E+003 -9.999E+003 -9.999E+003 -9.999E+003 -9.999E+003 -9.999E+003 -9.999E+003 -9.999E+003 -9.999E+003 -9.999E+003 -9.999E+003 -9.999E+003 -9.999E+003 -9.999E+003 -9.999E+003 -9.999E+003 -9.999E+003 -9.999E+003 -9.999E+003 -9.999E+003 -9.999E+003 -9.999E+003 -9.999E+003 -9.999E+003 -9.999E+003 -9.999E+003 -9.999E+003 -9.999E+003 -9.999E+003 -9.999E+003 -9.999E+003 -9.999E+003 -9.999E+003 -9.999E+003 -9.999E+003 -9.999E+003 -9.999E+003 -9.999E+003 -9.999E+003 -9.999E+003 -9.999E+003 -9.999E+003 -9.999E+003 -9.999E+003 -9.999E+003 -9.999E+003 -9.999E+003 -9.999E+003 -9.999E+003
 -9.999E+003 -9.999E+003 -9.999E+003 -9.999E+003 -9.999E+003 -9.999E+003 -9.999E+003 -9.999E+003 -9.999E+003 -9.999E+003 -9.999E+003 -9.999E+003 -9.999E+003 -9.999E+003 -9.999E+003 -9.999E+003 -9.999E+003 -9.999E+003 -9.999E+003 -9.999E+003 -9.999E+003 -9.999E+003 -9.999E+003 -9.999E+003 -9.999E+003 -9.999E+003 -9.999E+003 -9.999E+003 -9.999E+003 -9.999E+003 -9.999E+003 -9.999E+003 -9.999E+003 -9.999E+003 -9.999E+003 -9.999E+003 -9.999E+003 -9.999E+003 -9.999E+003 -9.999E+003 -9.999E+003 -9.999E+003 -9.999E+003 -9.999E+003 -9.999E+003 -9.999E+003 -9.999E+003 -9.999E+003 -9.999E+003 -9.999E+003 -9.999E+003 -9.999E+003 -9.999E+003 -9.999E+003 -9.999E+003 -9.999E+003 -9.999E+003 -9.999E+003 -9.999E+003 -9.999E+003 -9.999E+003 -9.999E+003 -9.999E+003 -9.999E+003 -9.999E+003 -9.999E+003 -9.999E+003 -9.999E+003 -9.999E+003  3.000E+002  1.324E+003  1.394E+003  1.433E+003  1.459E+003  1.474E+003  1.480E+003  1.481E+003  1.481E+003  1.479E+003  1.477E+003  1.476E+003  1.480E+003 -1.488E+003 -1.492E+003 -1.493E+003  1.486E+003  1.472E+003  1.449E+003  1.410E+003  1.347E+003  1.240E+003  1.009E+003 -9.999E+003 -9.999E+003 -9.999E+003 -9.999E+003 -9.999E+003 -9.999E+003 -9.999E+003 -9.999E+003 -9.999E+003 -9.999E+003 -9.999E+003 -9.999E+003 -9.999E+003 -9.999E+003 -9.999E+003 -9.999E+003 -9.999E+003 -9.999E+003 -9.999E+003 -9.999E+003 -9.999E+003 -9.999E+003 -9.999E+003 -9.999E+003 -9.999E+003 -9.999E+003 -9.999E+003 -9.999E+003 -9.999E+003 -9.999E+003 -9.999E+003 -9.999E+003 -9.999E+003 -9.999E+003 -9.999E+003 -9.999E+003 -9.999E+003 -9.999E+003 -9.999E+003 -9.999E+003 -9.999E+003 -9.999E+003 -9.999E+003 -9.999E+003 -9.999E+003 -9.999E+003 -9.999E+003 -9.999E+003 -9.999E+003 -9.999E+003 -9.999E+003 -9.999E+003 -9.999E+003 -9.999E+003 -9.999E+003 -9.999E+003 -9.999E+003 -9.999E+003
 -9.999E+003 -9.999E+003 -9.999E+003 -9.999E+003 -9.999E+003 -9.999E+003 -9.999E+003 -9.999E+003 -9.999E+003 -9.999E+003 -9.999E+003 -9.999E+003 -9.999E+003 -9.999E+003 -9.999E+003 -9.999E+003 -9.999E+003 -9.999E+003 -9.999E+003 -9.999E+003 -9.999E+003 -9.999E+003 -9.999E+003 -9.999E+003 -9.999E+003 -9.999E+003 -9.999E+003 -9.999E+003 -9.999E+003 -9.999E+003 -9.999E+003 -9.999E+003 -9.999E+003 -9.999E+003 -9.999E+003 -9.999E+003 -9.999E+003 -9.999E+003 -9.999E+003 -9.999E+003 -9.999E+003 -9.999E+003 -9.999E+003 -9.999E+003 -9.999E+003 -9.999E+003 -9.999E+003 -9.999E+003 -9.999E+003 -9.999E+003 -9.999E+003 -9.999E+003 -9.999E+003 -9.999E+003 -9.999E+003 -9.999E+003 -9.999E+003 -9.999E+003 -9.999E+003 -9.999E+003 -9.999E+003 -9.999E+003 -9.999E+003 -9.999E+003 -9.999E+003 -9.999E+003 -9.999E+003 -9.999E+003  3.000E+002  1.251E+003  1.336E+003  1.396E+003  1.437E+003  1.462E+003  1.476E+003  1.483E+003  1.485E+003  1.486E+003  1.485E+003  1.484E+003  1.483E+003 -1.484E+003 -1.484E+003 -1.476E+003  1.463E+003  1.448E+003  1.426E+003  1.385E+003  1.316E+003  1.209E+003  1.054E+003 -9.999E+003 -9.999E+003 -9.999E+003 -9.999E+003 -9.999E+003 -9.999E+003 -9.999E+003 -9.999E+003 -9.999E+003 -9.999E+003 -9.999E+003 -9.999E+003 -9.999E+003 -9.999E+003 -9.999E+003 -9.999E+003 -9.999E+003 -9.999E+003 -9.999E+003 -9.999E+003 -9.999E+003 -9.999E+003 -9.999E+003 -9.999E+003 -9.999E+003 -9.999E+003 -9.999E+003 -9.999E+003 -9.999E+003 -9.999E+003 -9.999E+003 -9.999E+003 -9.999E+003 -9.999E+003 -9.999E+003 -9.999E+003 -9.999E+003 -9.999E+003 -9.999E+003 -9.999E+003 -9.999E+003 -9.999E+003 -9.999E+003 -9.999E+003 -9.999E+003 -9.999E+003 -9.999E+003 -9.999E+003 -9.999E+003 -9.999E+003 -9.999E+003 -9.999E+003 -9.999E+003 -9.999E+003 -9.999E+003 -9.999E+003 -9.999E+003 -9.999E+003 -9.999E+003
 -9.999E+003 -9.999E+003 -9.999E+003 -9.999E+003 -9.999E+003 -9.999E+003 -9.999E+003 -9.999E+003 -9.999E+003 -9.999E+003 -9.999E+003 -9.999E+003 -9.999E+003 -9.999E+003 -9.999E+003 -9.999E+003 -9.999E+003 -9.999E+003 -9.999E+003 -9.999E+003 -9.999E+003 -9.999E+003 -9.999E+003 -9.999E+003 -9.999E+003 -9.999E+003 -9.999E+003 -9.999E+003 -9.999E+003 -9.999E+003 -9.999E+003 -9.999E+003 -9.999E+003 -9.999E+003 -9.999E+003 -9.999E+003 -9.999E+003 -9.999E+003 -9.999E+003 -9.999E+003 -9.999E+003 -9.999E+003 -9.999E+003 -9.999E+003 -9.999E+003 -9.999E+003 -9.999E+003 -9.999E+003 -9.999E+003 -9.999E+003 -9.999E+003 -9.999E+003 -9.999E+003 -9.999E+003 -9.999E+003 -9.999E+003 -9.999E+003 -9.999E+003 -9.999E+003 -9.999E+003 -9.999E+003 -9.999E+003 -9.999E+003 -9.999E+003 -9.999E+003 -9.999E+003 -9.999E+003 -9.999E+003 -9.999E+003  1.239E+003  1.334E+003  1.397E+003  1.438E+003  1.463E+003  1.477E+003  1.485E+003  1.489E+003  1.490E+003  1.491E+003  1.490E+003 -1.489E+003 -1.484E+003 -1.466E+003  1.434E+003  1.401E+003  1.372E+003  1.338E+003  1.285E+003  1.152E+003 -9.999E+003 -9.999E+003 -9.999E+003 -9.999E+003 -9.999E+003 -9.999E+003 -9.999E+003 -9.999E+003 -9.999E+003 -9.999E+003 -9.999E+003 -9.999E+003 -9.999E+003 -9.999E+003 -9.999E+003 -9.999E+003 -9.999E+003 -9.999E+003 -9.999E+003 -9.999E+003 -9.999E+003 -9.999E+003 -9.999E+003 -9.999E+003 -9.999E+003 -9.999E+003 -9.999E+003 -9.999E+003 -9.999E+003 -9.999E+003 -9.999E+003 -9.999E+003 -9.999E+003 -9.999E+003 -9.999E+003 -9.999E+003 -9.999E+003 -9.999E+003 -9.999E+003 -9.999E+003 -9.999E+003 -9.999E+003 -9.999E+003 -9.999E+003 -9.999E+003 -9.999E+003 -9.999E+003 -9.999E+003 -9.999E+003 -9.999E+003 -9.999E+003 -9.999E+003 -9.999E+003 -9.999E+003 -9.999E+003 -9.999E+003 -9.999E+003 -9.999E+003 -9.999E+003 -9.999E+003 -9.999E+003
 -9.999E+003 -9.999E+003 -9.999E+003 -9.999E+003 -9.999E+003 -9.999E+003 -9.999E+003 -9.999E+003 -9.999E+003 -9.999E+003 -9.999E+003 -9.999E+003 -9.999E+003 -9.999E+003 -9.999E+003 -9.999E+003 -9.999E+003 -9.999E+003 -9.999E+003 -9.999E+003 -9.999E+003 -9.999E+003 -9.999E+003 -9.999E+003 -9.999E+003 -9.999E+003 -9.999E+003 -9.999E+003 -9.999E+003 -9.999E+003 -9.999E+003 -9.999E+003 -9.999E+003 -9.999E+003 -9.999E+003 -9.999E+003 -9.999E+003 -9.999E+003 -9.999E+003 -9.999E+003 -9.999E+003 -9.999E+003 -9.999E+003 -9.999E+003 -9.999E+003 -9.999E+003 -9.999E+003 -9.999E+003 -9.999E+003 -9.999E+003 -9.999E+003 -9.999E+003 -9.999E+003 -9.999E+003 -9.999E+003 -9.999E+003 -9.999E+003 -9.999E+003 -9.999E+003 -9.999E+003 -9.999E+003 -9.999E+003 -9.999E+003 -9.999E+003 -9.999E+003 -9.999E+003 -9.999E+003 -9.999E+003 -9.999E+003 -9.999E+003  1.315E+003  1.392E+003  1.437E+003  1.464E+003  1.479E+003  1.488E+003  1.493E+003  1.495E+003  1.496E+003 -1.497E+003 -1.493E+003 -1.479E+003  1.441E+003  1.354E+003  1.294E+003  1.227E+003  1.175E+003  1.152E+003 -9.999E+003 -9.999E+003 -9.999E+003 -9.999E+003 -9.999E+003 -9.999E+003 -9.999E+003 -9.999E+003 -9.999E+003 -9.999E+003 -9.999E+003 -9.999E+003 -9.999E+003 -9.999E+003 -9.999E+003 -9.999E+003 -9.999E+003 -9.999E+003 -9.999E+003 -9.999E+003 -9.999E+003 -9.999E+003 -9.999E+003 -9.999E+003 -9.999E+003 -9.999E+003 -9.999E+003 -9.999E+003 -9.999E+003 -9.999E+003 -9.999E+003 -9.999E+003 -9.999E+003 -9.999E+003 -9.999E+003 -9.999E+003 -9.999E+003 -9.999E+003 -9.999E+003 -9.999E+003 -9.999E+003 -9.999E+003 -9.999E+003 -9.999E+003 -9.999E+003 -9.999E+003 -9.999E+003 -9.999E+003 -9.999E+003 -9.999E+003 -9.999E+003 -9.999E+003 -9.999E+003 -9.999E+003 -9.999E+003 -9.999E+003 -9.999E+003 -9.999E+003 -9.999E+003 -9.999E+003 -9.999E+003 -9.999E+003
 -9.999E+003 -9.999E+003 -9.999E+003 -9.999E+003 -9.999E+003 -9.999E+003 -9.999E+003 -9.999E+003 -9.999E+003 -9.999E+003 -9.999E+003 -9.999E+003 -9.999E+003 -9.999E+003 -9.999E+003 -9.999E+003 -9.999E+003 -9.999E+003 -9.999E+003 -9.999E+003 -9.999E+003 -9.999E+003 -9.999E+003 -9.999E+003 -9.999E+003 -9.999E+003 -9.999E+003 -9.999E+003 -9.999E+003 -9.999E+003 -9.999E+003 -9.999E+003 -9.999E+003 -9.999E+003 -9.999E+003 -9.999E+003 -9.999E+003 -9.999E+003 -9.999E+003 -9.999E+003 -9.999E+003 -9.999E+003 -9.999E+003 -9.999E+003 -9.999E+003 -9.999E+003 -9.999E+003 -9.999E+003 -9.999E+003 -9.999E+003 -9.999E+003 -9.999E+003 -9.999E+003 -9.999E+003 -9.999E+003 -9.999E+003 -9.999E+003 -9.999E+003 -9.999E+003 -9.999E+003 -9.999E+003 -9.999E+003 -9.999E+003 -9.999E+003 -9.999E+003 -9.999E+003 -9.999E+003 -9.999E+003 -9.999E+003 -9.999E+003  3.000E+002  1.383E+003  1.435E+003  1.464E+003  1.481E+003  1.490E+003  1.496E+003  1.499E+003 -1.501E+003 -1.501E+003 -1.492E+003  1.466E+003  3.000E+002 -9.999E+003  1.156E+003  9.520E+002  3.000E+002 -9.999E+003 -9.999E+003 -9.999E+003 -9.999E+003 -9.999E+003 -9.999E+003 -9.999E+003 -9.999E+003 -9.999E+003 -9.999E+003 -9.999E+003 -9.999E+003 -9.999E+003 -9.999E+003 -9.999E+003 -9.999E+003 -9.999E+003 -9.999E+003 -9.999E+003 -9.999E+003 -9.999E+003 -9.999E+003 -9.999E+003 -9.999E+003 -9.999E+003 -9.999E+003 -9.999E+003 -9.999E+003 -9.999E+003 -9.999E+003 -9.999E+003 -9.999E+003 -9.999E+003 -9.999E+003 -9.999E+003 -9.999E+003 -9.999E+003 -9.999E+003 -9.999E+003 -9.999E+003 -9.999E+003 -9.999E+003 -9.999E+003 -9.999E+003 -9.999E+003 -9.999E+003 -9.999E+003 -9.999E+003 -9.999E+003 -9.999E+003 -9.999E+003 -9.999E+003 -9.999E+003 -9.999E+003 -9.999E+003 -9.999E+003 -9.999E+003 -9.999E+003 -9.999E+003 -9.999E+003 -9.999E+003 -9.999E+003 -9.999E+003
 -9.999E+003 -9.999E+003 -9.999E+003 -9.999E+003 -9.999E+003 -9.999E+003 -9.999E+003 -9.999E+003 -9.999E+003 -9.999E+003 -9.999E+003 -9.999E+003 -9.999E+003 -9.999E+003 -9.999E+003 -9.999E+003 -9.999E+003 -9.999E+003 -9.999E+003 -9.999E+003 -9.999E+003 -9.999E+003 -9.999E+003 -9.999E+003 -9.999E+003 -9.999E+003 -9.999E+003 -9.999E+003 -9.999E+003 -9.999E+003 -9.999E+003 -9.999E+003 -9.999E+003 -9.999E+003 -9.999E+003 -9.999E+003 -9.999E+003 -9.999E+003 -9.999E+003 -9.999E+003 -9.999E+003 -9.999E+003 -9.999E+003 -9.999E+003 -9.999E+003 -9.999E+003 -9.999E+003 -9.999E+003 -9.999E+003 -9.999E+003 -9.999E+003 -9.999E+003 -9.999E+003 -9.999E+003 -9.999E+003 -9.999E+003 -9.999E+003 -9.999E+003 -9.999E+003 -9.999E+003 -9.999E+003 -9.999E+003 -9.999E+003 -9.999E+003 -9.999E+003 -9.999E+003 -9.999E+003 -9.999E+003 -9.999E+003 -9.999E+003 -9.999E+003  1.375E+003  1.435E+003  1.465E+003  1.483E+003  1.493E+003  1.498E+003 -1.501E+003 -1.503E+003 -1.361E+003 -9.999E+003  3.000E+002 -9.999E+003 -9.999E+003 -9.999E+003  3.000E+002 -9.999E+003 -9.999E+003 -9.999E+003 -9.999E+003 -9.999E+003 -9.999E+003 -9.999E+003 -9.999E+003 -9.999E+003 -9.999E+003 -9.999E+003 -9.999E+003 -9.999E+003 -9.999E+003 -9.999E+003 -9.999E+003 -9.999E+003 -9.999E+003 -9.999E+003 -9.999E+003 -9.999E+003 -9.999E+003 -9.999E+003 -9.999E+003 -9.999E+003 -9.999E+003 -9.999E+003 -9.999E+003 -9.999E+003 -9.999E+003 -9.999E+003 -9.999E+003 -9.999E+003 -9.999E+003 -9.999E+003 -9.999E+003 -9.999E+003 -9.999E+003 -9.999E+003 -9.999E+003 -9.999E+003 -9.999E+003 -9.999E+003 -9.999E+003 -9.999E+003 -9.999E+003 -9.999E+003 -9.999E+003 -9.999E+003 -9.999E+003 -9.999E+003 -9.999E+003 -9.999E+003 -9.999E+003 -9.999E+003 -9.999E+003 -9.999E+003 -9.999E+003 -9.999E+003 -9.999E+003 -9.999E+003 -9.999E+003 -9.999E+003 -9.999E+003
 -9.999E+003 -9.999E+003 -9.999E+003 -9.999E+003 -9.999E+003 -9.999E+003 -9.999E+003 -9.999E+003 -9.999E+003 -9.999E+003 -9.999E+003 -9.999E+003 -9.999E+003 -9.999E+003 -9.999E+003 -9.999E+003 -9.999E+003 -9.999E+003 -9.999E+003 -9.999E+003 -9.999E+003 -9.999E+003 -9.999E+003 -9.999E+003 -9.999E+003 -9.999E+003 -9.999E+003 -9.999E+003 -9.999E+003 -9.999E+003 -9.999E+003 -9.999E+003 -9.999E+003 -9.999E+003 -9.999E+003 -9.999E+003 -9.999E+003 -9.999E+003 -9.999E+003 -9.999E+003 -9.999E+003 -9.999E+003 -9.999E+003 -9.999E+003 -9.999E+003 -9.999E+003 -9.999E+003 -9.999E+003 -9.999E+003 -9.999E+003 -9.999E+003 -9.999E+003 -9.999E+003 -9.999E+003 -9.999E+003 -9.999E+003 -9.999E+003 -9.999E+003 -9.999E+003 -9.999E+003 -9.999E+003 -9.999E+003 -9.999E+003 -9.999E+003 -9.999E+003 -9.999E+003 -9.999E+003 -9.999E+003 -9.999E+003 -9.999E+003  1.272E+003  1.377E+003  1.436E+003  1.467E+003  1.484E+003  1.494E+003 -1.499E+003 -1.502E+003 -1.361E+003 -9.999E+003 -9.999E+003 -9.999E+003 -9.999E+003 -9.999E+003 -9.999E+003 -9.999E+003 -9.999E+003 -9.999E+003 -9.999E+003 -9.999E+003 -9.999E+003 -9.999E+003 -9.999E+003 -9.999E+003 -9.999E+003 -9.999E+003 -9.999E+003 -9.999E+003 -9.999E+003 -9.999E+003 -9.999E+003 -9.999E+003 -9.999E+003 -9.999E+003 -9.999E+003 -9.999E+003 -9.999E+003 -9.999E+003 -9.999E+003 -9.999E+003 -9.999E+003 -9.999E+003 -9.999E+003 -9.999E+003 -9.999E+003 -9.999E+003 -9.999E+003 -9.999E+003 -9.999E+003 -9.999E+003 -9.999E+003 -9.999E+003 -9.999E+003 -9.999E+003 -9.999E+003 -9.999E+003 -9.999E+003 -9.999E+003 -9.999E+003 -9.999E+003 -9.999E+003 -9.999E+003 -9.999E+003 -9.999E+003 -9.999E+003 -9.999E+003 -9.999E+003 -9.999E+003 -9.999E+003 -9.999E+003 -9.999E+003 -9.999E+003 -9.999E+003 -9.999E+003 -9.999E+003 -9.999E+003 -9.999E+003 -9.999E+003 -9.999E+003 -9.999E+003
 -9.999E+003 -9.999E+003 -9.999E+003 -9.999E+003 -9.999E+003 -9.999E+003 -9.999E+003 -9.999E+003 -9.999E+003 -9.999E+003 -9.999E+003 -9.999E+003 -9.999E+003 -9.999E+003 -9.999E+003 -9.999E+003 -9.999E+003 -9.999E+003 -9.999E+003 -9.999E+003 -9.999E+003 -9.999E+003 -9.999E+003 -9.999E+003 -9.999E+003 -9.999E+003 -9.999E+003 -9.999E+003 -9.999E+003 -9.999E+003 -9.999E+003 -9.999E+003 -9.999E+003 -9.999E+003 -9.999E+003 -9.999E+003 -9.999E+003 -9.999E+003 -9.999E+003 -9.999E+003 -9.999E+003 -9.999E+003 -9.999E+003 -9.999E+003 -9.999E+003 -9.999E+003 -9.999E+003 -9.999E+003 -9.999E+003 -9.999E+003 -9.999E+003 -9.999E+003 -9.999E+003 -9.999E+003 -9.999E+003 -9.999E+003 -9.999E+003 -9.999E+003 -9.999E+003 -9.999E+003 -9.999E+003 -9.999E+003 -9.999E+003 -9.999E+003 -9.999E+003 -9.999E+003 -9.999E+003 -9.999E+003 -9.999E+003 -9.999E+003 -9.999E+003  1.387E+003  1.442E+003  1.471E+003  1.486E+003 -1.494E+003 -1.498E+003 -1.461E+003  1.319E+003 -9.999E+003 -9.999E+003 -9.999E+003 -9.999E+003 -9.999E+003 -9.999E+003 -9.999E+003 -9.999E+003 -9.999E+003 -9.999E+003 -9.999E+003 -9.999E+003 -9.999E+003 -9.999E+003 -9.999E+003 -9.999E+003 -9.999E+003 -9.999E+003 -9.999E+003 -9.999E+003 -9.999E+003 -9.999E+003 -9.999E+003 -9.999E+003 -9.999E+003 -9.999E+003 -9.999E+003 -9.999E+003 -9.999E+003 -9.999E+003 -9.999E+003 -9.999E+003 -9.999E+003 -9.999E+003 -9.999E+003 -9.999E+003 -9.999E+003 -9.999E+003 -9.999E+003 -9.999E+003 -9.999E+003 -9.999E+003 -9.999E+003 -9.999E+003 -9.999E+003 -9.999E+003 -9.999E+003 -9.999E+003 -9.999E+003 -9.999E+003 -9.999E+003 -9.999E+003 -9.999E+003 -9.999E+003 -9.999E+003 -9.999E+003 -9.999E+003 -9.999E+003 -9.999E+003 -9.999E+003 -9.999E+003 -9.999E+003 -9.999E+003 -9.999E+003 -9.999E+003 -9.999E+003 -9.999E+003 -9.999E+003 -9.999E+003 -9.999E+003 -9.999E+003
 -9.999E+003 -9.999E+003 -9.999E+003 -9.999E+003 -9.999E+003 -9.999E+003 -9.999E+003 -9.999E+003 -9.999E+003 -9.999E+003 -9.999E+003 -9.999E+003 -9.999E+003 -9.999E+003 -9.999E+003 -9.999E+003 -9.999E+003 -9.999E+003 -9.999E+003 -9.999E+003 -9.999E+003 -9.999E+003 -9.999E+003 -9.999E+003 -9.999E+003 -9.999E+003 -9.999E+003 -9.999E+003 -9.999E+003 -9.999E+003 -9.999E+003 -9.999E+003 -9.999E+003 -9.999E+003 -9.999E+003 -9.999E+003 -9.999E+003 -9.999E+003 -9.999E+003 -9.999E+003 -9.999E+003 -9.999E+003 -9.999E+003 -9.999E+003 -9.999E+003 -9.999E+003 -9.999E+003 -9.999E+003 -9.999E+003 -9.999E+003 -9.999E+003 -9.999E+003 -9.999E+003 -9.999E+003 -9.999E+003 -9.999E+003 -9.999E+003 -9.999E+003 -9.999E+003 -9.999E+003 -9.999E+003 -9.999E+003 -9.999E+003 -9.999E+003 -9.999E+003 -9.999E+003 -9.999E+003 -9.999E+003 -9.999E+003 -9.999E+003 -9.999E+003  1.409E+003  1.454E+003  1.477E+003 -1.487E+003 -1.491E+003 -1.490E+003  1.429E+003  1.230E+003  3.000E+002 -9.999E+003 -9.999E+003 -9.999E+003 -9.999E+003 -9.999E+003 -9.999E+003 -9.999E+003 -9.999E+003 -9.999E+003 -9.999E+003 -9.999E+003 -9.999E+003 -9.999E+003 -9.999E+003 -9.999E+003 -9.999E+003 -9.999E+003 -9.999E+003 -9.999E+003 -9.999E+003 -9.999E+003 -9.999E+003 -9.999E+003 -9.999E+003 -9.999E+003 -9.999E+003 -9.999E+003 -9.999E+003 -9.999E+003 -9.999E+003 -9.999E+003 -9.999E+003 -9.999E+003 -9.999E+003 -9.999E+003 -9.999E+003 -9.999E+003 -9.999E+003 -9.999E+003 -9.999E+003 -9.999E+003 -9.999E+003 -9.999E+003 -9.999E+003 -9.999E+003 -9.999E+003 -9.999E+003 -9.999E+003 -9.999E+003 -9.999E+003 -9.999E+003 -9.999E+003 -9.999E+003 -9.999E+003 -9.999E+003 -9.999E+003 -9.999E+003 -9.999E+003 -9.999E+003 -9.999E+003 -9.999E+003 -9.999E+003 -9.999E+003 -9.999E+003 -9.999E+003 -9.999E+003 -9.999E+003 -9.999E+003 -9.999E+003 -9.999E+003
 -9.999E+003 -9.999E+003 -9.999E+003 -9.999E+003 -9.999E+003 -9.999E+003 -9.999E+003 -9.999E+003 -9.999E+003 -9.999E+003 -9.999E+003 -9.999E+003 -9.999E+003 -9.999E+003 -9.999E+003 -9.999E+003 -9.999E+003 -9.999E+003 -9.999E+003 -9.999E+003 -9.999E+003 -9.999E+003 -9.999E+003 -9.999E+003 -9.999E+003 -9.999E+003 -9.999E+003 -9.999E+003 -9.999E+003 -9.999E+003 -9.999E+003 -9.999E+003 -9.999E+003 -9.999E+003 -9.999E+003 -9.999E+003 -9.999E+003 -9.999E+003 -9.999E+003 -9.999E+003 -9.999E+003 -9.999E+003 -9.999E+003 -9.999E+003 -9.999E+003 -9.999E+003 -9.999E+003 -9.999E+003 -9.999E+003 -9.999E+003 -9.999E+003 -9.999E+003 -9.999E+003 -9.999E+003 -9.999E+003 -9.999E+003 -9.999E+003 -9.999E+003 -9.999E+003 -9.999E+003 -9.999E+003 -9.999E+003 -9.999E+003 -9.999E+003 -9.999E+003 -9.999E+003 -9.999E+003 -9.999E+003 -9.999E+003 -9.999E+003 -9.999E+003  1.443E+003  1.469E+003 -1.482E+003 -1.487E+003 -1.484E+003  1.478E+003  1.289E+003  3.000E+002 -9.999E+003 -9.999E+003 -9.999E+003 -9.999E+003 -9.999E+003 -9.999E+003 -9.999E+003 -9.999E+003 -9.999E+003 -9.999E+003 -9.999E+003 -9.999E+003 -9.999E+003 -9.999E+003 -9.999E+003 -9.999E+003 -9.999E+003 -9.999E+003 -9.999E+003 -9.999E+003 -9.999E+003 -9.999E+003 -9.999E+003 -9.999E+003 -9.999E+003 -9.999E+003 -9.999E+003 -9.999E+003 -9.999E+003 -9.999E+003 -9.999E+003 -9.999E+003 -9.999E+003 -9.999E+003 -9.999E+003 -9.999E+003 -9.999E+003 -9.999E+003 -9.999E+003 -9.999E+003 -9.999E+003 -9.999E+003 -9.999E+003 -9.999E+003 -9.999E+003 -9.999E+003 -9.999E+003 -9.999E+003 -9.999E+003 -9.999E+003 -9.999E+003 -9.999E+003 -9.999E+003 -9.999E+003 -9.999E+003 -9.999E+003 -9.999E+003 -9.999E+003 -9.999E+003 -9.999E+003 -9.999E+003 -9.999E+003 -9.999E+003 -9.999E+003 -9.999E+003 -9.999E+003 -9.999E+003 -9.999E+003 -9.999E+003 -9.999E+003 -9.999E+003
 -9.999E+003 -9.999E+003 -9.999E+003 -9.999E+003 -9.999E+003 -9.999E+003 -9.999E+003 -9.999E+003 -9.999E+003 -9.999E+003 -9.999E+003 -9.999E+003 -9.999E+003 -9.999E+003 -9.999E+003 -9.999E+003 -9.999E+003 -9.999E+003 -9.999E+003 -9.999E+003 -9.999E+003 -9.999E+003 -9.999E+003 -9.999E+003 -9.999E+003 -9.999E+003 -9.999E+003 -9.999E+003 -9.999E+003 -9.999E+003 -9.999E+003 -9.999E+003 -9.999E+003 -9.999E+003 -9.999E+003 -9.999E+003 -9.999E+003 -9.999E+003 -9.999E+003 -9.999E+003 -9.999E+003 -9.999E+003 -9.999E+003 -9.999E+003 -9.999E+003 -9.999E+003 -9.999E+003 -9.999E+003 -9.999E+003 -9.999E+003 -9.999E+003 -9.999E+003 -9.999E+003 -9.999E+003 -9.999E+003 -9.999E+003 -9.999E+003 -9.999E+003 -9.999E+003 -9.999E+003 -9.999E+003 -9.999E+003 -9.999E+003 -9.999E+003 -9.999E+003 -9.999E+003 -9.999E+003 -9.999E+003 -9.999E+003 -9.999E+003  1.437E+003  1.465E+003 -1.479E+003 -1.485E+003 -1.484E+003  1.469E+003  1.214E+003 -9.999E+003 -9.999E+003 -9.999E+003 -9.999E+003 -9.999E+003 -9.999E+003 -9.999E+003 -9.999E+003 -9.999E+003 -9.999E+003 -9.999E+003 -9.999E+003 -9.999E+003 -9.999E+003 -9.999E+003 -9.999E+003 -9.999E+003 -9.999E+003 -9.999E+003 -9.999E+003 -9.999E+003 -9.999E+003 -9.999E+003 -9.999E+003 -9.999E+003 -9.999E+003 -9.999E+003 -9.999E+003 -9.999E+003 -9.999E+003 -9.999E+003 -9.999E+003 -9.999E+003 -9.999E+003 -9.999E+003 -9.999E+003 -9.999E+003 -9.999E+003 -9.999E+003 -9.999E+003 -9.999E+003 -9.999E+003 -9.999E+003 -9.999E+003 -9.999E+003 -9.999E+003 -9.999E+003 -9.999E+003 -9.999E+003 -9.999E+003 -9.999E+003 -9.999E+003 -9.999E+003 -9.999E+003 -9.999E+003 -9.999E+003 -9.999E+003 -9.999E+003 -9.999E+003 -9.999E+003 -9.999E+003 -9.999E+003 -9.999E+003 -9.999E+003 -9.999E+003 -9.999E+003 -9.999E+003 -9.999E+003 -9.999E+003 -9.999E+003 -9.999E+003 -9.999E+003 -9.999E+003
 -9.999E+003 -9.999E+003 -9.999E+003 -9.999E+003 -9.999E+003 -9.999E+003 -9.999E+003 -9.999E+003 -9.999E+003 -9.999E+003 -9.999E+003 -9.999E+003 -9.999E+003 -9.999E+003 -9.999E+003 -9.999E+003 -9.999E+003 -9.999E+003 -9.999E+003 -9.999E+003 -9.999E+003 -9.999E+003 -9.999E+003 -9.999E+003 -9.999E+003 -9.999E+003 -9.999E+003 -9.999E+003 -9.999E+003 -9.999E+003 -9.999E+003 -9.999E+003 -9.999E+003 -9.999E+003 -9.999E+003 -9.999E+003 -9.999E+003 -9.999E+003 -9.999E+003 -9.999E+003 -9.999E+003 -9.999E+003 -9.999E+003 -9.999E+003 -9.999E+003 -9.999E+003 -9.999E+003 -9.999E+003 -9.999E+003 -9.999E+003 -9.999E+003 -9.999E+003 -9.999E+003 -9.999E+003 -9.999E+003 -9.999E+003 -9.999E+003 -9.999E+003 -9.999E+003 -9.999E+003 -9.999E+003 -9.999E+003 -9.999E+003 -9.999E+003 -9.999E+003 -9.999E+003 -9.999E+003 -9.999E+003 -9.999E+003  1.416E+003  1.457E+003 -1.474E+003 -1.481E+003 -1.477E+003  1.464E+003  3.000E+002 -9.999E+003 -9.999E+003 -9.999E+003 -9.999E+003 -9.999E+003 -9.999E+003 -9.999E+003 -9.999E+003 -9.999E+003 -9.999E+003 -9.999E+003 -9.999E+003 -9.999E+003 -9.999E+003 -9.999E+003 -9.999E+003 -9.999E+003 -9.999E+003 -9.999E+003 -9.999E+003 -9.999E+003 -9.999E+003 -9.999E+003 -9.999E+003 -9.999E+003 -9.999E+003 -9.999E+003 -9.999E+003 -9.999E+003 -9.999E+003 -9.999E+003 -9.999E+003 -9.999E+003 -9.999E+003 -9.999E+003 -9.999E+003 -9.999E+003 -9.999E+003 -9.999E+003 -9.999E+003 -9.999E+003 -9.999E+003 -9.999E+003 -9.999E+003 -9.999E+003 -9.999E+003 -9.999E+003 -9.999E+003 -9.999E+003 -9.999E+003 -9.999E+003 -9.999E+003 -9.999E+003 -9.999E+003 -9.999E+003 -9.999E+003 -9.999E+003 -9.999E+003 -9.999E+003 -9.999E+003 -9.999E+003 -9.999E+003 -9.999E+003 -9.999E+003 -9.999E+003 -9.999E+003 -9.999E+003 -9.999E+003 -9.999E+003 -9.999E+003 -9.999E+003 -9.999E+003 -9.999E+003 -9.999E+003
 -9.999E+003 -9.999E+003 -9.999E+003 -9.999E+003 -9.999E+003 -9.999E+003 -9.999E+003 -9.999E+003 -9.999E+003 -9.999E+003 -9.999E+003 -9.999E+003 -9.999E+003 -9.999E+003 -9.999E+003 -9.999E+003 -9.999E+003 -9.999E+003 -9.999E+003 -9.999E+003 -9.999E+003 -9.999E+003 -9.999E+003 -9.999E+003 -9.999E+003 -9.999E+003 -9.999E+003 -9.999E+003 -9.999E+003 -9.999E+003 -9.999E+003 -9.999E+003 -9.999E+003 -9.999E+003 -9.999E+003 -9.999E+003 -9.999E+003 -9.999E+003 -9.999E+003 -9.999E+003 -9.999E+003 -9.999E+003 -9.999E+003 -9.999E+003 -9.999E+003 -9.999E+003 -9.999E+003 -9.999E+003 -9.999E+003 -9.999E+003 -9.999E+003 -9.999E+003 -9.999E+003 -9.999E+003 -9.999E+003 -9.999E+003 -9.999E+003 -9.999E+003 -9.999E+003 -9.999E+003 -9.999E+003 -9.999E+003 -9.999E+003 -9.999E+003 -9.999E+003 -9.999E+003 -9.999E+003 -9.999E+003  3.000E+002  1.438E+003 -1.465E+003 -1.477E+003 -1.473E+003  1.462E+003  3.000E+002 -9.999E+003 -9.999E+003 -9.999E+003 -9.999E+003 -9.999E+003 -9.999E+003 -9.999E+003 -9.999E+003 -9.999E+003 -9.999E+003 -9.999E+003 -9.999E+003 -9.999E+003 -9.999E+003 -9.999E+003 -9.999E+003 -9.999E+003 -9.999E+003 -9.999E+003 -9.999E+003 -9.999E+003 -9.999E+003 -9.999E+003 -9.999E+003 -9.999E+003 -9.999E+003 -9.999E+003 -9.999E+003 -9.999E+003 -9.999E+003 -9.999E+003 -9.999E+003 -9.999E+003 -9.999E+003 -9.999E+003 -9.999E+003 -9.999E+003 -9.999E+003 -9.999E+003 -9.999E+003 -9.999E+003 -9.999E+003 -9.999E+003 -9.999E+003 -9.999E+003 -9.999E+003 -9.999E+003 -9.999E+003 -9.999E+003 -9.999E+003 -9.999E+003 -9.999E+003 -9.999E+003 -9.999E+003 -9.999E+003 -9.999E+003 -9.999E+003 -9.999E+003 -9.999E+003 -9.999E+003 -9.999E+003 -9.999E+003 -9.999E+003 -9.999E+003 -9.999E+003 -9.999E+003 -9.999E+003 -9.999E+003 -9.999E+003 -9.999E+003 -9.999E+003 -9.999E+003 -9.999E+003 -9.999E+003 -9.999E+003
 -9.999E+003 -9.999E+003 -9.999E+003 -9.999E+003 -9.999E+003 -9.999E+003 -9.999E+003 -9.999E+003 -9.999E+003 -9.999E+003 -9.999E+003 -9.999E+003 -9.999E+003 -9.999E+003 -9.999E+003 -9.999E+003 -9.999E+003 -9.999E+003 -9.999E+003 -9.999E+003 -9.999E+003 -9.999E+003 -9.999E+003 -9.999E+003 -9.999E+003 -9.999E+003 -9.999E+003 -9.999E+003 -9.999E+003 -9.999E+003 -9.999E+003 -9.999E+003 -9.999E+003 -9.999E+003 -9.999E+003 -9.999E+003 -9.999E+003 -9.999E+003 -9.999E+003 -9.999E+003 -9.999E+003 -9.999E+003 -9.999E+003 -9.999E+003 -9.999E+003 -9.999E+003 -9.999E+003 -9.999E+003 -9.999E+003 -9.999E+003 -9.999E+003 -9.999E+003 -9.999E+003 -9.999E+003 -9.999E+003 -9.999E+003 -9.999E+003 -9.999E+003 -9.999E+003 -9.999E+003 -9.999E+003 -9.999E+003 -9.999E+003 -9.999E+003 -9.999E+003 -9.999E+003 -9.999E+003 -9.999E+003  1.374E+003 -1.439E+003 -1.466E+003 -1.463E+003  1.454E+003  3.000E+002 -9.999E+003 -9.999E+003 -9.999E+003 -9.999E+003 -9.999E+003 -9.999E+003 -9.999E+003 -9.999E+003 -9.999E+003 -9.999E+003 -9.999E+003 -9.999E+003 -9.999E+003 -9.999E+003 -9.999E+003 -9.999E+003 -9.999E+003 -9.999E+003 -9.999E+003 -9.999E+003 -9.999E+003 -9.999E+003 -9.999E+003 -9.999E+003 -9.999E+003 -9.999E+003 -9.999E+003 -9.999E+003 -9.999E+003 -9.999E+003 -9.999E+003 -9.999E+003 -9.999E+003 -9.999E+003 -9.999E+003 -9.999E+003 -9.999E+003 -9.999E+003 -9.999E+003 -9.999E+003 -9.999E+003 -9.999E+003 -9.999E+003 -9.999E+003 -9.999E+003 -9.999E+003 -9.999E+003 -9.999E+003 -9.999E+003 -9.999E+003 -9.999E+003 -9.999E+003 -9.999E+003 -9.999E+003 -9.999E+003 -9.999E+003 -9.999E+003 -9.999E+003 -9.999E+003 -9.999E+003 -9.999E+003 -9.999E+003 -9.999E+003 -9.999E+003 -9.999E+003 -9.999E+003 -9.999E+003 -9.999E+003 -9.999E+003 -9.999E+003 -9.999E+003 -9.999E+003 -9.999E+003 -9.999E+003 -9.999E+003 -9.999E+003
 -9.999E+003 -9.999E+003 -9.999E+003 -9.999E+003 -9.999E+003 -9.999E+003 -9.999E+003 -9.999E+003 -9.999E+003 -9.999E+003 -9.999E+003 -9.999E+003 -9.999E+003 -9.999E+003 -9.999E+003 -9.999E+003 -9.999E+003 -9.999E+003 -9.999E+003 -9.999E+003 -9.999E+003 -9.999E+003 -9.999E+003 -9.999E+003 -9.999E+003 -9.999E+003 -9.999E+003 -9.999E+003 -9.999E+003 -9.999E+003 -9.999E+003 -9.999E+003 -9.999E+003 -9.999E+003 -9.999E+003 -9.999E+003 -9.999E+003 -9.999E+003 -9.999E+003 -9.999E+003 -9.999E+003 -9.999E+003 -9.999E+003 -9.999E+003 -9.999E+003 -9.999E+003 -9.999E+003 -9.999E+003 -9.999E+003 -9.999E+003 -9.999E+003 -9.999E+003 -9.999E+003 -9.999E+003 -9.999E+003 -9.999E+003 -9.999E+003 -9.999E+003 -9.999E+003 -9.999E+003 -9.999E+003 -9.999E+003 -9.999E+003 -9.999E+003 -9.999E+003 -9.999E+003 -9.999E+003 -9.999E+003  1.353E+003  1.413E+003 -1.432E+003  1.425E+003  3.000E+002 -9.999E+003 -9.999E+003 -9.999E+003 -9.999E+003 -9.999E+003 -9.999E+003 -9.999E+003 -9.999E+003 -9.999E+003 -9.999E+003 -9.999E+003 -9.999E+003 -9.999E+003 -9.999E+003 -9.999E+003 -9.999E+003 -9.999E+003 -9.999E+003 -9.999E+003 -9.999E+003 -9.999E+003 -9.999E+003 -9.999E+003 -9.999E+003 -9.999E+003 -9.999E+003 -9.999E+003 -9.999E+003 -9.999E+003 -9.999E+003 -9.999E+003 -9.999E+003 -9.999E+003 -9.999E+003 -9.999E+003 -9.999E+003 -9.999E+003 -9.999E+003 -9.999E+003 -9.999E+003 -9.999E+003 -9.999E+003 -9.999E+003 -9.999E+003 -9.999E+003 -9.999E+003 -9.999E+003 -9.999E+003 -9.999E+003 -9.999E+003 -9.999E+003 -9.999E+003 -9.999E+003 -9.999E+003 -9.999E+003 -9.999E+003 -9.999E+003 -9.999E+003 -9.999E+003 -9.999E+003 -9.999E+003 -9.999E+003 -9.999E+003 -9.999E+003 -9.999E+003 -9.999E+003 -9.999E+003 -9.999E+003 -9.999E+003 -9.999E+003 -9.999E+003 -9.999E+003 -9.999E+003 -9.999E+003 -9.999E+003 -9.999E+003 -9.999E+003
 -9.999E+003 -9.999E+003 -9.999E+003 -9.999E+003 -9.999E+003 -9.999E+003 -9.999E+003 -9.999E+003 -9.999E+003 -9.999E+003 -9.999E+003 -9.999E+003 -9.999E+003 -9.999E+003 -9.999E+003 -9.999E+003 -9.999E+003 -9.999E+003 -9.999E+003 -9.999E+003 -9.999E+003 -9.999E+003 -9.999E+003 -9.999E+003 -9.999E+003 -9.999E+003 -9.999E+003 -9.999E+003 -9.999E+003 -9.999E+003 -9.999E+003 -9.999E+003 -9.999E+003 -9.999E+003 -9.999E+003 -9.999E+003 -9.999E+003 -9.999E+003 -9.999E+003 -9.999E+003 -9.999E+003 -9.999E+003 -9.999E+003 -9.999E+003 -9.999E+003 -9.999E+003 -9.999E+003 -9.999E+003 -9.999E+003 -9.999E+003 -9.999E+003 -9.999E+003 -9.999E+003 -9.999E+003 -9.999E+003 -9.999E+003 -9.999E+003 -9.999E+003 -9.999E+003 -9.999E+003 -9.999E+003 -9.999E+003 -9.999E+003 -9.999E+003 -9.999E+003 -9.999E+003 -9.999E+003 -9.999E+003 -9.999E+003  1.326E+003  1.327E+003 -9.999E+003 -9.999E+003 -9.999E+003 -9.999E+003 -9.999E+003 -9.999E+003 -9.999E+003 -9.999E+003 -9.999E+003 -9.999E+003 -9.999E+003 -9.999E+003 -9.999E+003 -9.999E+003 -9.999E+003 -9.999E+003 -9.999E+003 -9.999E+003 -9.999E+003 -9.999E+003 -9.999E+003 -9.999E+003 -9.999E+003 -9.999E+003 -9.999E+003 -9.999E+003 -9.999E+003 -9.999E+003 -9.999E+003 -9.999E+003 -9.999E+003 -9.999E+003 -9.999E+003 -9.999E+003 -9.999E+003 -9.999E+003 -9.999E+003 -9.999E+003 -9.999E+003 -9.999E+003 -9.999E+003 -9.999E+003 -9.999E+003 -9.999E+003 -9.999E+003 -9.999E+003 -9.999E+003 -9.999E+003 -9.999E+003 -9.999E+003 -9.999E+003 -9.999E+003 -9.999E+003 -9.999E+003 -9.999E+003 -9.999E+003 -9.999E+003 -9.999E+003 -9.999E+003 -9.999E+003 -9.999E+003 -9.999E+003 -9.999E+003 -9.999E+003 -9.999E+003 -9.999E+003 -9.999E+003 -9.999E+003 -9.999E+003 -9.999E+003 -9.999E+003 -9.999E+003 -9.999E+003 -9.999E+003 -9.999E+003 -9.999E+003 -9.999E+003 -9.999E+003 -9.999E+003
 -9.999E+003 -9.999E+003 -9.999E+003 -9.999E+003 -9.999E+003 -9.999E+003 -9.999E+003 -9.999E+003 -9.999E+003 -9.999E+003 -9.999E+003 -9.999E+003 -9.999E+003 -9.999E+003 -9.999E+003 -9.999E+003 -9.999E+003 -9.999E+003 -9.999E+003 -9.999E+003 -9.999E+003 -9.999E+003 -9.999E+003 -9.999E+003 -9.999E+003 -9.999E+003 -9.999E+003 -9.999E+003 -9.999E+003 -9.999E+003 -9.999E+003 -9.999E+003 -9.999E+003 -9.999E+003 -9.999E+003 -9.999E+003 -9.999E+003 -9.999E+003 -9.999E+003 -9.999E+003 -9.999E+003 -9.999E+003 -9.999E+003 -9.999E+003 -9.999E+003 -9.999E+003 -9.999E+003 -9.999E+003 -9.999E+003 -9.999E+003 -9.999E+003 -9.999E+003 -9.999E+003 -9.999E+003 -9.999E+003 -9.999E+003 -9.999E+003 -9.999E+003 -9.999E+003 -9.999E+003 -9.999E+003 -9.999E+003 -9.999E+003 -9.999E+003 -9.999E+003 -9.999E+003 -9.999E+003 -9.999E+003 -9.999E+003 -9.999E+003 -9.999E+003 -9.999E+003 -9.999E+003 -9.999E+003 -9.999E+003 -9.999E+003 -9.999E+003 -9.999E+003 -9.999E+003 -9.999E+003 -9.999E+003 -9.999E+003 -9.999E+003 -9.999E+003 -9.999E+003 -9.999E+003 -9.999E+003 -9.999E+003 -9.999E+003 -9.999E+003 -9.999E+003 -9.999E+003 -9.999E+003 -9.999E+003 -9.999E+003 -9.999E+003 -9.999E+003 -9.999E+003 -9.999E+003 -9.999E+003 -9.999E+003 -9.999E+003 -9.999E+003 -9.999E+003 -9.999E+003 -9.999E+003 -9.999E+003 -9.999E+003 -9.999E+003 -9.999E+003 -9.999E+003 -9.999E+003 -9.999E+003 -9.999E+003 -9.999E+003 -9.999E+003 -9.999E+003 -9.999E+003 -9.999E+003 -9.999E+003 -9.999E+003 -9.999E+003 -9.999E+003 -9.999E+003 -9.999E+003 -9.999E+003 -9.999E+003 -9.999E+003 -9.999E+003 -9.999E+003 -9.999E+003 -9.999E+003 -9.999E+003 -9.999E+003 -9.999E+003 -9.999E+003 -9.999E+003 -9.999E+003 -9.999E+003 -9.999E+003 -9.999E+003 -9.999E+003 -9.999E+003 -9.999E+003 -9.999E+003 -9.999E+003 -9.999E+003 -9.999E+003 -9.999E+003 -9.999E+003
 -9.999E+003 -9.999E+003 -9.999E+003 -9.999E+003 -9.999E+003 -9.999E+003 -9.999E+003 -9.999E+003 -9.999E+003 -9.999E+003 -9.999E+003 -9.999E+003 -9.999E+003 -9.999E+003 -9.999E+003 -9.999E+003 -9.999E+003 -9.999E+003 -9.999E+003 -9.999E+003 -9.999E+003 -9.999E+003 -9.999E+003 -9.999E+003 -9.999E+003 -9.999E+003 -9.999E+003 -9.999E+003 -9.999E+003 -9.999E+003 -9.999E+003 -9.999E+003 -9.999E+003 -9.999E+003 -9.999E+003 -9.999E+003 -9.999E+003 -9.999E+003 -9.999E+003 -9.999E+003 -9.999E+003 -9.999E+003 -9.999E+003 -9.999E+003 -9.999E+003 -9.999E+003 -9.999E+003 -9.999E+003 -9.999E+003 -9.999E+003 -9.999E+003 -9.999E+003 -9.999E+003 -9.999E+003 -9.999E+003 -9.999E+003 -9.999E+003 -9.999E+003 -9.999E+003 -9.999E+003 -9.999E+003 -9.999E+003 -9.999E+003 -9.999E+003 -9.999E+003 -9.999E+003 -9.999E+003 -9.999E+003 -9.999E+003 -9.999E+003 -9.999E+003 -9.999E+003 -9.999E+003 -9.999E+003 -9.999E+003 -9.999E+003 -9.999E+003 -9.999E+003 -9.999E+003 -9.999E+003 -9.999E+003 -9.999E+003 -9.999E+003 -9.999E+003 -9.999E+003 -9.999E+003 -9.999E+003 -9.999E+003 -9.999E+003 -9.999E+003 -9.999E+003 -9.999E+003 -9.999E+003 -9.999E+003 -9.999E+003 -9.999E+003 -9.999E+003 -9.999E+003 -9.999E+003 -9.999E+003 -9.999E+003 -9.999E+003 -9.999E+003 -9.999E+003 -9.999E+003 -9.999E+003 -9.999E+003 -9.999E+003 -9.999E+003 -9.999E+003 -9.999E+003 -9.999E+003 -9.999E+003 -9.999E+003 -9.999E+003 -9.999E+003 -9.999E+003 -9.999E+003 -9.999E+003 -9.999E+003 -9.999E+003 -9.999E+003 -9.999E+003 -9.999E+003 -9.999E+003 -9.999E+003 -9.999E+003 -9.999E+003 -9.999E+003 -9.999E+003 -9.999E+003 -9.999E+003 -9.999E+003 -9.999E+003 -9.999E+003 -9.999E+003 -9.999E+003 -9.999E+003 -9.999E+003 -9.999E+003 -9.999E+003 -9.999E+003 -9.999E+003 -9.999E+003 -9.999E+003 -9.999E+003 -9.999E+003 -9.999E+003 -9.999E+003 -9.999E+003
 -9.999E+003 -9.999E+003 -9.999E+003 -9.999E+003 -9.999E+003 -9.999E+003 -9.999E+003 -9.999E+003 -9.999E+003 -9.999E+003 -9.999E+003 -9.999E+003 -9.999E+003 -9.999E+003 -9.999E+003 -9.999E+003 -9.999E+003 -9.999E+003 -9.999E+003 -9.999E+003 -9.999E+003 -9.999E+003 -9.999E+003 -9.999E+003 -9.999E+003 -9.999E+003 -9.999E+003 -9.999E+003 -9.999E+003 -9.999E+003 -9.999E+003 -9.999E+003 -9.999E+003 -9.999E+003 -9.999E+003 -9.999E+003 -9.999E+003 -9.999E+003 -9.999E+003 -9.999E+003 -9.999E+003 -9.999E+003 -9.999E+003 -9.999E+003 -9.999E+003 -9.999E+003 -9.999E+003 -9.999E+003 -9.999E+003 -9.999E+003 -9.999E+003 -9.999E+003 -9.999E+003 -9.999E+003 -9.999E+003 -9.999E+003 -9.999E+003 -9.999E+003 -9.999E+003 -9.999E+003 -9.999E+003 -9.999E+003 -9.999E+003 -9.999E+003 -9.999E+003 -9.999E+003 -9.999E+003 -9.999E+003 -9.999E+003 -9.999E+003 -9.999E+003 -9.999E+003 -9.999E+003 -9.999E+003 -9.999E+003 -9.999E+003 -9.999E+003 -9.999E+003 -9.999E+003 -9.999E+003 -9.999E+003 -9.999E+003 -9.999E+003 -9.999E+003 -9.999E+003 -9.999E+003 -9.999E+003 -9.999E+003 -9.999E+003 -9.999E+003 -9.999E+003 -9.999E+003 -9.999E+003 -9.999E+003 -9.999E+003 -9.999E+003 -9.999E+003 -9.999E+003 -9.999E+003 -9.999E+003 -9.999E+003 -9.999E+003 -9.999E+003 -9.999E+003 -9.999E+003 -9.999E+003 -9.999E+003 -9.999E+003 -9.999E+003 -9.999E+003 -9.999E+003 -9.999E+003 -9.999E+003 -9.999E+003 -9.999E+003 -9.999E+003 -9.999E+003 -9.999E+003 -9.999E+003 -9.999E+003 -9.999E+003 -9.999E+003 -9.999E+003 -9.999E+003 -9.999E+003 -9.999E+003 -9.999E+003 -9.999E+003 -9.999E+003 -9.999E+003 -9.999E+003 -9.999E+003 -9.999E+003 -9.999E+003 -9.999E+003 -9.999E+003 -9.999E+003 -9.999E+003 -9.999E+003 -9.999E+003 -9.999E+003 -9.999E+003 -9.999E+003 -9.999E+003 -9.999E+003 -9.999E+003 -9.999E+003 -9.999E+003 -9.999E+003 -9.999E+003
 -9.999E+003 -9.999E+003 -9.999E+003 -9.999E+003 -9.999E+003 -9.999E+003 -9.999E+003 -9.999E+003 -9.999E+003 -9.999E+003 -9.999E+003 -9.999E+003 -9.999E+003 -9.999E+003 -9.999E+003 -9.999E+003 -9.999E+003 -9.999E+003 -9.999E+003 -9.999E+003 -9.999E+003 -9.999E+003 -9.999E+003 -9.999E+003 -9.999E+003 -9.999E+003 -9.999E+003 -9.999E+003 -9.999E+003 -9.999E+003 -9.999E+003 -9.999E+003 -9.999E+003 -9.999E+003 -9.999E+003 -9.999E+003 -9.999E+003 -9.999E+003 -9.999E+003 -9.999E+003 -9.999E+003 -9.999E+003 -9.999E+003 -9.999E+003 -9.999E+003 -9.999E+003 -9.999E+003 -9.999E+003 -9.999E+003 -9.999E+003 -9.999E+003 -9.999E+003 -9.999E+003 -9.999E+003 -9.999E+003 -9.999E+003 -9.999E+003 -9.999E+003 -9.999E+003 -9.999E+003 -9.999E+003 -9.999E+003 -9.999E+003 -9.999E+003 -9.999E+003 -9.999E+003 -9.999E+003 -9.999E+003 -9.999E+003 -9.999E+003 -9.999E+003 -9.999E+003 -9.999E+003 -9.999E+003 -9.999E+003 -9.999E+003 -9.999E+003 -9.999E+003 -9.999E+003 -9.999E+003 -9.999E+003 -9.999E+003 -9.999E+003 -9.999E+003 -9.999E+003 -9.999E+003 -9.999E+003 -9.999E+003 -9.999E+003 -9.999E+003 -9.999E+003 -9.999E+003 -9.999E+003 -9.999E+003 -9.999E+003 -9.999E+003 -9.999E+003 -9.999E+003 -9.999E+003 -9.999E+003 -9.999E+003 -9.999E+003 -9.999E+003 -9.999E+003 -9.999E+003 -9.999E+003 -9.999E+003 -9.999E+003 -9.999E+003 -9.999E+003 -9.999E+003 -9.999E+003 -9.999E+003 -9.999E+003 -9.999E+003 -9.999E+003 -9.999E+003 -9.999E+003 -9.999E+003 -9.999E+003 -9.999E+003 -9.999E+003 -9.999E+003 -9.999E+003 -9.999E+003 -9.999E+003 -9.999E+003 -9.999E+003 -9.999E+003 -9.999E+003 -9.999E+003 -9.999E+003 -9.999E+003 -9.999E+003 -9.999E+003 -9.999E+003 -9.999E+003 -9.999E+003 -9.999E+003 -9.999E+003 -9.999E+003 -9.999E+003 -9.999E+003 -9.999E+003 -9.999E+003 -9.999E+003 -9.999E+003 -9.999E+003 -9.999E+003 -9.999E+003
 -9.999E+003 -9.999E+003 -9.999E+003 -9.999E+003 -9.999E+003 -9.999E+003 -9.999E+003 -9.999E+003 -9.999E+003 -9.999E+003 -9.999E+003 -9.999E+003 -9.999E+003 -9.999E+003 -9.999E+003 -9.999E+003 -9.999E+003 -9.999E+003 -9.999E+003 -9.999E+003 -9.999E+003 -9.999E+003 -9.999E+003 -9.999E+003 -9.999E+003 -9.999E+003 -9.999E+003 -9.999E+003 -9.999E+003 -9.999E+003 -9.999E+003 -9.999E+003 -9.999E+003 -9.999E+003 -9.999E+003 -9.999E+003 -9.999E+003 -9.999E+003 -9.999E+003 -9.999E+003 -9.999E+003 -9.999E+003 -9.999E+003 -9.999E+003 -9.999E+003 -9.999E+003 -9.999E+003 -9.999E+003 -9.999E+003 -9.999E+003 -9.999E+003 -9.999E+003 -9.999E+003 -9.999E+003 -9.999E+003 -9.999E+003 -9.999E+003 -9.999E+003 -9.999E+003 -9.999E+003 -9.999E+003 -9.999E+003 -9.999E+003 -9.999E+003 -9.999E+003 -9.999E+003 -9.999E+003 -9.999E+003 -9.999E+003 -9.999E+003 -9.999E+003 -9.999E+003 -9.999E+003 -9.999E+003 -9.999E+003 -9.999E+003 -9.999E+003 -9.999E+003 -9.999E+003 -9.999E+003 -9.999E+003 -9.999E+003 -9.999E+003 -9.999E+003 -9.999E+003 -9.999E+003 -9.999E+003 -9.999E+003 -9.999E+003 -9.999E+003 -9.999E+003 -9.999E+003 -9.999E+003 -9.999E+003 -9.999E+003 -9.999E+003 -9.999E+003 -9.999E+003 -9.999E+003 -9.999E+003 -9.999E+003 -9.999E+003 -9.999E+003 -9.999E+003 -9.999E+003 -9.999E+003 -9.999E+003 -9.999E+003 -9.999E+003 -9.999E+003 -9.999E+003 -9.999E+003 -9.999E+003 -9.999E+003 -9.999E+003 -9.999E+003 -9.999E+003 -9.999E+003 -9.999E+003 -9.999E+003 -9.999E+003 -9.999E+003 -9.999E+003 -9.999E+003 -9.999E+003 -9.999E+003 -9.999E+003 -9.999E+003 -9.999E+003 -9.999E+003 -9.999E+003 -9.999E+003 -9.999E+003 -9.999E+003 -9.999E+003 -9.999E+003 -9.999E+003 -9.999E+003 -9.999E+003 -9.999E+003 -9.999E+003 -9.999E+003 -9.999E+003 -9.999E+003 -9.999E+003 -9.999E+003 -9.999E+003 -9.999E+003 -9.999E+003 -9.999E+003
 -9.999E+003 -9.999E+003 -9.999E+003 -9.999E+003 -9.999E+003 -9.999E+003 -9.999E+003 -9.999E+003 -9.999E+003 -9.999E+003 -9.999E+003 -9.999E+003 -9.999E+003 -9.999E+003 -9.999E+003 -9.999E+003 -9.999E+003 -9.999E+003 -9.999E+003 -9.999E+003 -9.999E+003 -9.999E+003 -9.999E+003 -9.999E+003 -9.999E+003 -9.999E+003 -9.999E+003 -9.999E+003 -9.999E+003 -9.999E+003 -9.999E+003 -9.999E+003 -9.999E+003 -9.999E+003 -9.999E+003 -9.999E+003 -9.999E+003 -9.999E+003 -9.999E+003 -9.999E+003 -9.999E+003 -9.999E+003 -9.999E+003 -9.999E+003 -9.999E+003 -9.999E+003 -9.999E+003 -9.999E+003 -9.999E+003 -9.999E+003 -9.999E+003 -9.999E+003 -9.999E+003 -9.999E+003 -9.999E+003 -9.999E+003 -9.999E+003 -9.999E+003 -9.999E+003 -9.999E+003 -9.999E+003 -9.999E+003 -9.999E+003 -9.999E+003 -9.999E+003 -9.999E+003 -9.999E+003 -9.999E+003 -9.999E+003 -9.999E+003 -9.999E+003 -9.999E+003 -9.999E+003 -9.999E+003 -9.999E+003 -9.999E+003 -9.999E+003 -9.999E+003 -9.999E+003 -9.999E+003 -9.999E+003 -9.999E+003 -9.999E+003 -9.999E+003 -9.999E+003 -9.999E+003 -9.999E+003 -9.999E+003 -9.999E+003 -9.999E+003 -9.999E+003 -9.999E+003 -9.999E+003 -9.999E+003 -9.999E+003 -9.999E+003 -9.999E+003 -9.999E+003 -9.999E+003 -9.999E+003 -9.999E+003 -9.999E+003 -9.999E+003 -9.999E+003 -9.999E+003 -9.999E+003 -9.999E+003 -9.999E+003 -9.999E+003 -9.999E+003 -9.999E+003 -9.999E+003 -9.999E+003 -9.999E+003 -9.999E+003 -9.999E+003 -9.999E+003 -9.999E+003 -9.999E+003 -9.999E+003 -9.999E+003 -9.999E+003 -9.999E+003 -9.999E+003 -9.999E+003 -9.999E+003 -9.999E+003 -9.999E+003 -9.999E+003 -9.999E+003 -9.999E+003 -9.999E+003 -9.999E+003 -9.999E+003 -9.999E+003 -9.999E+003 -9.999E+003 -9.999E+003 -9.999E+003 -9.999E+003 -9.999E+003 -9.999E+003 -9.999E+003 -9.999E+003 -9.999E+003 -9.999E+003 -9.999E+003 -9.999E+003 -9.999E+003 -9.999E+003
 -9.999E+003 -9.999E+003 -9.999E+003 -9.999E+003 -9.999E+003 -9.999E+003 -9.999E+003 -9.999E+003 -9.999E+003 -9.999E+003 -9.999E+003 -9.999E+003 -9.999E+003 -9.999E+003 -9.999E+003 -9.999E+003 -9.999E+003 -9.999E+003 -9.999E+003 -9.999E+003 -9.999E+003 -9.999E+003 -9.999E+003 -9.999E+003 -9.999E+003 -9.999E+003 -9.999E+003 -9.999E+003 -9.999E+003 -9.999E+003 -9.999E+003 -9.999E+003 -9.999E+003 -9.999E+003 -9.999E+003 -9.999E+003 -9.999E+003 -9.999E+003 -9.999E+003 -9.999E+003 -9.999E+003 -9.999E+003 -9.999E+003 -9.999E+003 -9.999E+003 -9.999E+003 -9.999E+003 -9.999E+003 -9.999E+003 -9.999E+003 -9.999E+003 -9.999E+003 -9.999E+003 -9.999E+003 -9.999E+003 -9.999E+003 -9.999E+003 -9.999E+003 -9.999E+003 -9.999E+003 -9.999E+003 -9.999E+003 -9.999E+003 -9.999E+003 -9.999E+003 -9.999E+003 -9.999E+003 -9.999E+003 -9.999E+003 -9.999E+003 -9.999E+003 -9.999E+003 -9.999E+003 -9.999E+003 -9.999E+003 -9.999E+003 -9.999E+003 -9.999E+003 -9.999E+003 -9.999E+003 -9.999E+003 -9.999E+003 -9.999E+003 -9.999E+003 -9.999E+003 -9.999E+003 -9.999E+003 -9.999E+003 -9.999E+003 -9.999E+003 -9.999E+003 -9.999E+003 -9.999E+003 -9.999E+003 -9.999E+003 -9.999E+003 -9.999E+003 -9.999E+003 -9.999E+003 -9.999E+003 -9.999E+003 -9.999E+003 -9.999E+003 -9.999E+003 -9.999E+003 -9.999E+003 -9.999E+003 -9.999E+003 -9.999E+003 -9.999E+003 -9.999E+003 -9.999E+003 -9.999E+003 -9.999E+003 -9.999E+003 -9.999E+003 -9.999E+003 -9.999E+003 -9.999E+003 -9.999E+003 -9.999E+003 -9.999E+003 -9.999E+003 -9.999E+003 -9.999E+003 -9.999E+003 -9.999E+003 -9.999E+003 -9.999E+003 -9.999E+003 -9.999E+003 -9.999E+003 -9.999E+003 -9.999E+003 -9.999E+003 -9.999E+003 -9.999E+003 -9.999E+003 -9.999E+003 -9.999E+003 -9.999E+003 -9.999E+003 -9.999E+003 -9.999E+003 -9.999E+003 -9.999E+003 -9.999E+003 -9.999E+003 -9.999E+003 -9.999E+003
 -9.999E+003 -9.999E+003 -9.999E+003 -9.999E+003 -9.999E+003 -9.999E+003 -9.999E+003 -9.999E+003 -9.999E+003 -9.999E+003 -9.999E+003 -9.999E+003 -9.999E+003 -9.999E+003 -9.999E+003 -9.999E+003 -9.999E+003 -9.999E+003 -9.999E+003 -9.999E+003 -9.999E+003 -9.999E+003 -9.999E+003 -9.999E+003 -9.999E+003 -9.999E+003 -9.999E+003 -9.999E+003 -9.999E+003 -9.999E+003 -9.999E+003 -9.999E+003 -9.999E+003 -9.999E+003 -9.999E+003 -9.999E+003 -9.999E+003 -9.999E+003 -9.999E+003 -9.999E+003 -9.999E+003 -9.999E+003 -9.999E+003 -9.999E+003 -9.999E+003 -9.999E+003 -9.999E+003 -9.999E+003 -9.999E+003 -9.999E+003 -9.999E+003 -9.999E+003 -9.999E+003 -9.999E+003 -9.999E+003 -9.999E+003 -9.999E+003 -9.999E+003 -9.999E+003 -9.999E+003 -9.999E+003 -9.999E+003 -9.999E+003 -9.999E+003 -9.999E+003 -9.999E+003 -9.999E+003 -9.999E+003 -9.999E+003 -9.999E+003 -9.999E+003 -9.999E+003 -9.999E+003 -9.999E+003 -9.999E+003 -9.999E+003 -9.999E+003 -9.999E+003 -9.999E+003 -9.999E+003 -9.999E+003 -9.999E+003 -9.999E+003 -9.999E+003 -9.999E+003 -9.999E+003 -9.999E+003 -9.999E+003 -9.999E+003 -9.999E+003 -9.999E+003 -9.999E+003 -9.999E+003 -9.999E+003 -9.999E+003 -9.999E+003 -9.999E+003 -9.999E+003 -9.999E+003 -9.999E+003 -9.999E+003 -9.999E+003 -9.999E+003 -9.999E+003 -9.999E+003 -9.999E+003 -9.999E+003 -9.999E+003 -9.999E+003 -9.999E+003 -9.999E+003 -9.999E+003 -9.999E+003 -9.999E+003 -9.999E+003 -9.999E+003 -9.999E+003 -9.999E+003 -9.999E+003 -9.999E+003 -9.999E+003 -9.999E+003 -9.999E+003 -9.999E+003 -9.999E+003 -9.999E+003 -9.999E+003 -9.999E+003 -9.999E+003 -9.999E+003 -9.999E+003 -9.999E+003 -9.999E+003 -9.999E+003 -9.999E+003 -9.999E+003 -9.999E+003 -9.999E+003 -9.999E+003 -9.999E+003 -9.999E+003 -9.999E+003 -9.999E+003 -9.999E+003 -9.999E+003 -9.999E+003 -9.999E+003 -9.999E+003 -9.999E+003 -9.999E+003
 -9.999E+003 -9.999E+003 -9.999E+003 -9.999E+003 -9.999E+003 -9.999E+003 -9.999E+003 -9.999E+003 -9.999E+003 -9.999E+003 -9.999E+003 -9.999E+003 -9.999E+003 -9.999E+003 -9.999E+003 -9.999E+003 -9.999E+003 -9.999E+003 -9.999E+003 -9.999E+003 -9.999E+003 -9.999E+003 -9.999E+003 -9.999E+003 -9.999E+003 -9.999E+003 -9.999E+003 -9.999E+003 -9.999E+003 -9.999E+003 -9.999E+003 -9.999E+003 -9.999E+003 -9.999E+003 -9.999E+003 -9.999E+003 -9.999E+003 -9.999E+003 -9.999E+003 -9.999E+003 -9.999E+003 -9.999E+003 -9.999E+003 -9.999E+003 -9.999E+003 -9.999E+003 -9.999E+003 -9.999E+003 -9.999E+003 -9.999E+003 -9.999E+003 -9.999E+003 -9.999E+003 -9.999E+003 -9.999E+003 -9.999E+003 -9.999E+003 -9.999E+003 -9.999E+003 -9.999E+003 -9.999E+003 -9.999E+003 -9.999E+003 -9.999E+003 -9.999E+003 -9.999E+003 -9.999E+003 -9.999E+003 -9.999E+003 -9.999E+003 -9.999E+003 -9.999E+003 -9.999E+003 -9.999E+003 -9.999E+003 -9.999E+003 -9.999E+003 -9.999E+003 -9.999E+003 -9.999E+003 -9.999E+003 -9.999E+003 -9.999E+003 -9.999E+003 -9.999E+003 -9.999E+003 -9.999E+003 -9.999E+003 -9.999E+003 -9.999E+003 -9.999E+003 -9.999E+003 -9.999E+003 -9.999E+003 -9.999E+003 -9.999E+003 -9.999E+003 -9.999E+003 -9.999E+003 -9.999E+003 -9.999E+003 -9.999E+003 -9.999E+003 -9.999E+003 -9.999E+003 -9.999E+003 -9.999E+003 -9.999E+003 -9.999E+003 -9.999E+003 -9.999E+003 -9.999E+003 -9.999E+003 -9.999E+003 -9.999E+003 -9.999E+003 -9.999E+003 -9.999E+003 -9.999E+003 -9.999E+003 -9.999E+003 -9.999E+003 -9.999E+003 -9.999E+003 -9.999E+003 -9.999E+003 -9.999E+003 -9.999E+003 -9.999E+003 -9.999E+003 -9.999E+003 -9.999E+003 -9.999E+003 -9.999E+003 -9.999E+003 -9.999E+003 -9.999E+003 -9.999E+003 -9.999E+003 -9.999E+003 -9.999E+003 -9.999E+003 -9.999E+003 -9.999E+003 -9.999E+003 -9.999E+003 -9.999E+003 -9.999E+003 -9.999E+003 -9.999E+003
 -9.999E+003 -9.999E+003 -9.999E+003 -9.999E+003 -9.999E+003 -9.999E+003 -9.999E+003 -9.999E+003 -9.999E+003 -9.999E+003 -9.999E+003 -9.999E+003 -9.999E+003 -9.999E+003 -9.999E+003 -9.999E+003 -9.999E+003 -9.999E+003 -9.999E+003 -9.999E+003 -9.999E+003 -9.999E+003 -9.999E+003 -9.999E+003 -9.999E+003 -9.999E+003 -9.999E+003 -9.999E+003 -9.999E+003 -9.999E+003 -9.999E+003 -9.999E+003 -9.999E+003 -9.999E+003 -9.999E+003 -9.999E+003 -9.999E+003 -9.999E+003 -9.999E+003 -9.999E+003 -9.999E+003 -9.999E+003 -9.999E+003 -9.999E+003 -9.999E+003 -9.999E+003 -9.999E+003 -9.999E+003 -9.999E+003 -9.999E+003 -9.999E+003 -9.999E+003 -9.999E+003 -9.999E+003 -9.999E+003 -9.999E+003 -9.999E+003 -9.999E+003 -9.999E+003 -9.999E+003 -9.999E+003 -9.999E+003 -9.999E+003 -9.999E+003 -9.999E+003 -9.999E+003 -9.999E+003 -9.999E+003 -9.999E+003 -9.999E+003 -9.999E+003 -9.999E+003 -9.999E+003 -9.999E+003 -9.999E+003 -9.999E+003 -9.999E+003 -9.999E+003 -9.999E+003 -9.999E+003 -9.999E+003 -9.999E+003 -9.999E+003 -9.999E+003 -9.999E+003 -9.999E+003 -9.999E+003 -9.999E+003 -9.999E+003 -9.999E+003 -9.999E+003 -9.999E+003 -9.999E+003 -9.999E+003 -9.999E+003 -9.999E+003 -9.999E+003 -9.999E+003 -9.999E+003 -9.999E+003 -9.999E+003 -9.999E+003 -9.999E+003 -9.999E+003 -9.999E+003 -9.999E+003 -9.999E+003 -9.999E+003 -9.999E+003 -9.999E+003 -9.999E+003 -9.999E+003 -9.999E+003 -9.999E+003 -9.999E+003 -9.999E+003 -9.999E+003 -9.999E+003 -9.999E+003 -9.999E+003 -9.999E+003 -9.999E+003 -9.999E+003 -9.999E+003 -9.999E+003 -9.999E+003 -9.999E+003 -9.999E+003 -9.999E+003 -9.999E+003 -9.999E+003 -9.999E+003 -9.999E+003 -9.999E+003 -9.999E+003 -9.999E+003 -9.999E+003 -9.999E+003 -9.999E+003 -9.999E+003 -9.999E+003 -9.999E+003 -9.999E+003 -9.999E+003 -9.999E+003 -9.999E+003 -9.999E+003 -9.999E+003 -9.999E+003 -9.999E+003
 -9.999E+003 -9.999E+003 -9.999E+003 -9.999E+003 -9.999E+003 -9.999E+003 -9.999E+003 -9.999E+003 -9.999E+003 -9.999E+003 -9.999E+003 -9.999E+003 -9.999E+003 -9.999E+003 -9.999E+003 -9.999E+003 -9.999E+003 -9.999E+003 -9.999E+003 -9.999E+003 -9.999E+003 -9.999E+003 -9.999E+003 -9.999E+003 -9.999E+003 -9.999E+003 -9.999E+003 -9.999E+003 -9.999E+003 -9.999E+003 -9.999E+003 -9.999E+003 -9.999E+003 -9.999E+003 -9.999E+003 -9.999E+003 -9.999E+003 -9.999E+003 -9.999E+003 -9.999E+003 -9.999E+003 -9.999E+003 -9.999E+003 -9.999E+003 -9.999E+003 -9.999E+003 -9.999E+003 -9.999E+003 -9.999E+003 -9.999E+003 -9.999E+003 -9.999E+003 -9.999E+003 -9.999E+003 -9.999E+003 -9.999E+003 -9.999E+003 -9.999E+003 -9.999E+003 -9.999E+003 -9.999E+003 -9.999E+003 -9.999E+003 -9.999E+003 -9.999E+003 -9.999E+003 -9.999E+003 -9.999E+003 -9.999E+003 -9.999E+003 -9.999E+003 -9.999E+003 -9.999E+003 -9.999E+003 -9.999E+003 -9.999E+003 -9.999E+003 -9.999E+003 -9.999E+003 -9.999E+003 -9.999E+003 -9.999E+003 -9.999E+003 -9.999E+003 -9.999E+003 -9.999E+003 -9.999E+003 -9.999E+003 -9.999E+003 -9.999E+003 -9.999E+003 -9.999E+003 -9.999E+003 -9.999E+003 -9.999E+003 -9.999E+003 -9.999E+003 -9.999E+003 -9.999E+003 -9.999E+003 -9.999E+003 -9.999E+003 -9.999E+003 -9.999E+003 -9.999E+003 -9.999E+003 -9.999E+003 -9.999E+003 -9.999E+003 -9.999E+003 -9.999E+003 -9.999E+003 -9.999E+003 -9.999E+003 -9.999E+003 -9.999E+003 -9.999E+003 -9.999E+003 -9.999E+003 -9.999E+003 -9.999E+003 -9.999E+003 -9.999E+003 -9.999E+003 -9.999E+003 -9.999E+003 -9.999E+003 -9.999E+003 -9.999E+003 -9.999E+003 -9.999E+003 -9.999E+003 -9.999E+003 -9.999E+003 -9.999E+003 -9.999E+003 -9.999E+003 -9.999E+003 -9.999E+003 -9.999E+003 -9.999E+003 -9.999E+003 -9.999E+003 -9.999E+003 -9.999E+003 -9.999E+003 -9.999E+003 -9.999E+003 -9.999E+003 -9.999E+003
 -9.999E+003 -9.999E+003 -9.999E+003 -9.999E+003 -9.999E+003 -9.999E+003 -9.999E+003 -9.999E+003 -9.999E+003 -9.999E+003 -9.999E+003 -9.999E+003 -9.999E+003 -9.999E+003 -9.999E+003 -9.999E+003 -9.999E+003 -9.999E+003 -9.999E+003 -9.999E+003 -9.999E+003 -9.999E+003 -9.999E+003 -9.999E+003 -9.999E+003 -9.999E+003 -9.999E+003 -9.999E+003 -9.999E+003 -9.999E+003 -9.999E+003 -9.999E+003 -9.999E+003 -9.999E+003 -9.999E+003 -9.999E+003 -9.999E+003 -9.999E+003 -9.999E+003 -9.999E+003 -9.999E+003 -9.999E+003 -9.999E+003 -9.999E+003 -9.999E+003 -9.999E+003 -9.999E+003 -9.999E+003 -9.999E+003 -9.999E+003 -9.999E+003 -9.999E+003 -9.999E+003 -9.999E+003 -9.999E+003 -9.999E+003 -9.999E+003 -9.999E+003 -9.999E+003 -9.999E+003 -9.999E+003 -9.999E+003 -9.999E+003 -9.999E+003 -9.999E+003 -9.999E+003 -9.999E+003 -9.999E+003 -9.999E+003 -9.999E+003 -9.999E+003 -9.999E+003 -9.999E+003 -9.999E+003 -9.999E+003 -9.999E+003 -9.999E+003 -9.999E+003 -9.999E+003 -9.999E+003 -9.999E+003 -9.999E+003 -9.999E+003 -9.999E+003 -9.999E+003 -9.999E+003 -9.999E+003 -9.999E+003 -9.999E+003 -9.999E+003 -9.999E+003 -9.999E+003 -9.999E+003 -9.999E+003 -9.999E+003 -9.999E+003 -9.999E+003 -9.999E+003 -9.999E+003 -9.999E+003 -9.999E+003 -9.999E+003 -9.999E+003 -9.999E+003 -9.999E+003 -9.999E+003 -9.999E+003 -9.999E+003 -9.999E+003 -9.999E+003 -9.999E+003 -9.999E+003 -9.999E+003 -9.999E+003 -9.999E+003 -9.999E+003 -9.999E+003 -9.999E+003 -9.999E+003 -9.999E+003 -9.999E+003 -9.999E+003 -9.999E+003 -9.999E+003 -9.999E+003 -9.999E+003 -9.999E+003 -9.999E+003 -9.999E+003 -9.999E+003 -9.999E+003 -9.999E+003 -9.999E+003 -9.999E+003 -9.999E+003 -9.999E+003 -9.999E+003 -9.999E+003 -9.999E+003 -9.999E+003 -9.999E+003 -9.999E+003 -9.999E+003 -9.999E+003 -9.999E+003 -9.999E+003 -9.999E+003 -9.999E+003 -9.999E+003 -9.999E+003
 -9.999E+003 -9.999E+003 -9.999E+003 -9.999E+003 -9.999E+003 -9.999E+003 -9.999E+003 -9.999E+003 -9.999E+003 -9.999E+003 -9.999E+003 -9.999E+003 -9.999E+003 -9.999E+003 -9.999E+003 -9.999E+003 -9.999E+003 -9.999E+003 -9.999E+003 -9.999E+003 -9.999E+003 -9.999E+003 -9.999E+003 -9.999E+003 -9.999E+003 -9.999E+003 -9.999E+003 -9.999E+003 -9.999E+003 -9.999E+003 -9.999E+003 -9.999E+003 -9.999E+003 -9.999E+003 -9.999E+003 -9.999E+003 -9.999E+003 -9.999E+003 -9.999E+003 -9.999E+003 -9.999E+003 -9.999E+003 -9.999E+003 -9.999E+003 -9.999E+003 -9.999E+003 -9.999E+003 -9.999E+003 -9.999E+003 -9.999E+003 -9.999E+003 -9.999E+003 -9.999E+003 -9.999E+003 -9.999E+003 -9.999E+003 -9.999E+003 -9.999E+003 -9.999E+003 -9.999E+003 -9.999E+003 -9.999E+003 -9.999E+003 -9.999E+003 -9.999E+003 -9.999E+003 -9.999E+003 -9.999E+003 -9.999E+003 -9.999E+003 -9.999E+003 -9.999E+003 -9.999E+003 -9.999E+003 -9.999E+003 -9.999E+003 -9.999E+003 -9.999E+003 -9.999E+003 -9.999E+003 -9.999E+003 -9.999E+003 -9.999E+003 -9.999E+003 -9.999E+003 -9.999E+003 -9.999E+003 -9.999E+003 -9.999E+003 -9.999E+003 -9.999E+003 -9.999E+003 -9.999E+003 -9.999E+003 -9.999E+003 -9.999E+003 -9.999E+003 -9.999E+003 -9.999E+003 -9.999E+003 -9.999E+003 -9.999E+003 -9.999E+003 -9.999E+003 -9.999E+003 -9.999E+003 -9.999E+003 -9.999E+003 -9.999E+003 -9.999E+003 -9.999E+003 -9.999E+003 -9.999E+003 -9.999E+003 -9.999E+003 -9.999E+003 -9.999E+003 -9.999E+003 -9.999E+003 -9.999E+003 -9.999E+003 -9.999E+003 -9.999E+003 -9.999E+003 -9.999E+003 -9.999E+003 -9.999E+003 -9.999E+003 -9.999E+003 -9.999E+003 -9.999E+003 -9.999E+003 -9.999E+003 -9.999E+003 -9.999E+003 -9.999E+003 -9.999E+003 -9.999E+003 -9.999E+003 -9.999E+003 -9.999E+003 -9.999E+003 -9.999E+003 -9.999E+003 -9.999E+003 -9.999E+003 -9.999E+003 -9.999E+003 -9.999E+003 -9.999E+003
